(G-CODE GENERATED BY FLATCAM v8.994 - www.flatcam.org - Version Date: 2020/11/7)

(Name: Drill_PTH_Through.DRL_edit_cnc)
(Type: G-code from Geometry)
(Units: MM)

(Created on Friday, 28 April 2023 at 16:20)


/TOOLS DIAMETER = ДИАМЕТР ИНСТРУМЕНТА: 
/Tool: 1 -> Dia: 0.8

/FEEDRATE Z = ПОДАЧА по Z: 
/Tool = Инструмент: 1 -> Feedrate = подача: 500.0

/FEEDRATE RAPIDS = БЫСТРЫЕ ПОДАЧИ: 
/Tool = Инструмент: 1 -> Feedrate Rapids = быстрая подача: 1500

/Z_CUT = ПРОХОДЫ по Z: 
/Tool = Инструмент: 1 -> Z_Cut: -1.1

/Tools Offset: 
/Tool: 1 -> Offset Z: 0.0

/Z_MOVE: 
/Tool: 1 -> Z_Move: 2

/Z Toolchange: 15 mm
/X,Y Toolchange: 0.0000, 0.0000 mm
/Z Start: None mm
/Z End: 0.5 mm
/X,Y End: None mm
(Steps per circle: 64)
/Steps per circle: 64
/Preprocessor Excellon: Charly4U

/X range:    4.9099 ...   60.3199  mm
/Y range:  -81.6800 ...   -4.6800  mm

/Скорость шпинделя: 15000 RPM
G71 / измерения в мм
G90 / программирование в абсолютных координатах

F500
/Tool switching while working is not supported! = Смена инструмента в процессе работы не поддерживается!
F500
M3 S15000
G0 X42.1399 Y-5.0800
G1 Z-1.1000 F500
G1 Z0
G0 Z2.0000
G0 X39.5999 Y-5.0800
G1 Z-1.1000 F500
G1 Z0
G0 Z2.0000
G0 X37.0599 Y-5.0800
G1 Z-1.1000 F500
G1 Z0
G0 Z2.0000
G0 X33.8849 Y-12.7000
G1 Z-1.1000 F500
G1 Z0
G0 Z2.0000
G0 X33.8849 Y-15.2400
G1 Z-1.1000 F500
G1 Z0
G0 Z2.0000
G0 X33.8849 Y-17.7800
G1 Z-1.1000 F500
G1 Z0
G0 Z2.0000
G0 X33.8849 Y-20.3200
G1 Z-1.1000 F500
G1 Z0
G0 Z2.0000
G0 X33.8849 Y-22.8600
G1 Z-1.1000 F500
G1 Z0
G0 Z2.0000
G0 X24.3599 Y-25.4000
G1 Z-1.1000 F500
G1 Z0
G0 Z2.0000
G0 X21.8199 Y-25.4000
G1 Z-1.1000 F500
G1 Z0
G0 Z2.0000
G0 X19.2799 Y-25.4000
G1 Z-1.1000 F500
G1 Z0
G0 Z2.0000
G0 X16.7399 Y-25.4000
G1 Z-1.1000 F500
G1 Z0
G0 Z2.0000
G0 X14.0729 Y-25.4000
G1 Z-1.1000 F500
G1 Z0
G0 Z2.0000
G0 X11.5329 Y-25.4000
G1 Z-1.1000 F500
G1 Z0
G0 Z2.0000
G0 X24.3599 Y-35.5600
G1 Z-1.1000 F500
G1 Z0
G0 Z2.0000
G0 X24.3599 Y-38.1000
G1 Z-1.1000 F500
G1 Z0
G0 Z2.0000
G0 X24.3599 Y-40.6400
G1 Z-1.1000 F500
G1 Z0
G0 Z2.0000
G0 X24.3599 Y-43.1800
G1 Z-1.1000 F500
G1 Z0
G0 Z2.0000
G0 X24.3599 Y-45.7200
G1 Z-1.1000 F500
G1 Z0
G0 Z2.0000
G0 X24.3599 Y-48.2600
G1 Z-1.1000 F500
G1 Z0
G0 Z2.0000
G0 X24.3599 Y-50.8000
G1 Z-1.1000 F500
G1 Z0
G0 Z2.0000
G0 X24.3599 Y-53.3400
G1 Z-1.1000 F500
G1 Z0
G0 Z2.0000
G0 X5.3099 Y-68.5800
G1 Z-1.1000 F500
G1 Z0
G0 Z2.0000
G0 X5.3099 Y-71.1200
G1 Z-1.1000 F500
G1 Z0
G0 Z2.0000
G0 X5.3099 Y-73.6600
G1 Z-1.1000 F500
G1 Z0
G0 Z2.0000
G0 X23.0899 Y-68.5800
G1 Z-1.1000 F500
G1 Z0
G0 Z2.0000
G0 X23.0899 Y-71.1200
G1 Z-1.1000 F500
G1 Z0
G0 Z2.0000
G0 X23.0899 Y-73.6600
G1 Z-1.1000 F500
G1 Z0
G0 Z2.0000
G0 X32.2339 Y-80.5180
G1 Z-1.1000 F500
G1 Z0
G0 Z2.0000
G0 X32.2339 Y-77.9780
G1 Z-1.1000 F500
G1 Z0
G0 Z2.0000
G0 X32.2339 Y-75.4380
G1 Z-1.1000 F500
G1 Z0
G0 Z2.0000
G0 X32.2339 Y-72.8980
G1 Z-1.1000 F500
G1 Z0
G0 Z2.0000
G0 X32.2339 Y-70.3580
G1 Z-1.1000 F500
G1 Z0
G0 Z2.0000
G0 X32.2339 Y-67.8180
G1 Z-1.1000 F500
G1 Z0
G0 Z2.0000
G0 X32.2339 Y-65.2780
G1 Z-1.1000 F500
G1 Z0
G0 Z2.0000
G0 X32.2339 Y-62.7380
G1 Z-1.1000 F500
G1 Z0
G0 Z2.0000
G0 X32.2339 Y-60.1980
G1 Z-1.1000 F500
G1 Z0
G0 Z2.0000
G0 X32.2339 Y-57.6580
G1 Z-1.1000 F500
G1 Z0
G0 Z2.0000
G0 X32.2339 Y-55.1180
G1 Z-1.1000 F500
G1 Z0
G0 Z2.0000
G0 X32.2339 Y-52.5780
G1 Z-1.1000 F500
G1 Z0
G0 Z2.0000
G0 X32.2339 Y-50.0380
G1 Z-1.1000 F500
G1 Z0
G0 Z2.0000
G0 X32.2339 Y-47.4980
G1 Z-1.1000 F500
G1 Z0
G0 Z2.0000
G0 X32.2339 Y-44.9580
G1 Z-1.1000 F500
G1 Z0
G0 Z2.0000
G0 X32.2339 Y-42.4180
G1 Z-1.1000 F500
G1 Z0
G0 Z2.0000
G0 X32.2339 Y-39.8780
G1 Z-1.1000 F500
G1 Z0
G0 Z2.0000
G0 X32.2339 Y-37.3380
G1 Z-1.1000 F500
G1 Z0
G0 Z2.0000
G0 X32.2339 Y-34.7980
G1 Z-1.1000 F500
G1 Z0
G0 Z2.0000
G0 X32.2339 Y-32.2580
G1 Z-1.1000 F500
G1 Z0
G0 Z2.0000
G0 X47.4739 Y-32.2580
G1 Z-1.1000 F500
G1 Z0
G0 Z2.0000
G0 X47.4739 Y-34.7980
G1 Z-1.1000 F500
G1 Z0
G0 Z2.0000
G0 X47.4739 Y-37.3380
G1 Z-1.1000 F500
G1 Z0
G0 Z2.0000
G0 X47.4739 Y-39.8780
G1 Z-1.1000 F500
G1 Z0
G0 Z2.0000
G0 X47.4739 Y-42.4180
G1 Z-1.1000 F500
G1 Z0
G0 Z2.0000
G0 X47.4739 Y-44.9580
G1 Z-1.1000 F500
G1 Z0
G0 Z2.0000
G0 X47.4739 Y-47.4980
G1 Z-1.1000 F500
G1 Z0
G0 Z2.0000
G0 X47.4739 Y-50.0380
G1 Z-1.1000 F500
G1 Z0
G0 Z2.0000
G0 X47.4739 Y-52.5780
G1 Z-1.1000 F500
G1 Z0
G0 Z2.0000
G0 X47.4739 Y-55.1180
G1 Z-1.1000 F500
G1 Z0
G0 Z2.0000
G0 X47.4739 Y-57.6580
G1 Z-1.1000 F500
G1 Z0
G0 Z2.0000
G0 X47.4739 Y-60.1980
G1 Z-1.1000 F500
G1 Z0
G0 Z2.0000
G0 X47.4739 Y-62.7380
G1 Z-1.1000 F500
G1 Z0
G0 Z2.0000
G0 X47.4739 Y-65.2780
G1 Z-1.1000 F500
G1 Z0
G0 Z2.0000
G0 X47.4739 Y-67.8180
G1 Z-1.1000 F500
G1 Z0
G0 Z2.0000
G0 X47.4739 Y-70.3580
G1 Z-1.1000 F500
G1 Z0
G0 Z2.0000
G0 X47.4739 Y-72.8980
G1 Z-1.1000 F500
G1 Z0
G0 Z2.0000
G0 X47.4739 Y-75.4380
G1 Z-1.1000 F500
G1 Z0
G0 Z2.0000
G0 X47.4739 Y-77.9780
G1 Z-1.1000 F500
G1 Z0
G0 Z2.0000
G0 X47.4739 Y-80.5180
G1 Z-1.1000 F500
G1 Z0
G0 Z2.0000
G0 X59.9199 Y-81.2800
G1 Z-1.1000 F500
G1 Z0
G0 Z2.0000
G0 X59.9199 Y-78.7400
G1 Z-1.1000 F500
G1 Z0
G0 Z2.0000
G0 X59.9199 Y-76.2000
G1 Z-1.1000 F500
G1 Z0
G0 Z2.0000
G0 X59.9199 Y-68.5800
G1 Z-1.1000 F500
G1 Z0
G0 Z2.0000
G0 X59.9199 Y-66.0400
G1 Z-1.1000 F500
G1 Z0
G0 Z2.0000
G0 X59.9199 Y-63.5000
G1 Z-1.1000 F500
G1 Z0
G0 Z2.0000
G0 X59.9199 Y-55.8800
G1 Z-1.1000 F500
G1 Z0
G0 Z2.0000
G0 X59.9199 Y-53.3400
G1 Z-1.1000 F500
G1 Z0
G0 Z2.0000
G0 X59.9199 Y-50.8000
G1 Z-1.1000 F500
G1 Z0
G0 Z2.0000
G0 X59.9199 Y-43.1800
G1 Z-1.1000 F500
G1 Z0
G0 Z2.0000
G0 X59.9199 Y-40.6400
G1 Z-1.1000 F500
G1 Z0
G0 Z2.0000
G0 X59.9199 Y-38.1000
G1 Z-1.1000 F500
G1 Z0
G0 Z2.0000
G0 X59.9199 Y-30.4800
G1 Z-1.1000 F500
G1 Z0
G0 Z2.0000
G0 X59.9199 Y-27.9400
G1 Z-1.1000 F500
G1 Z0
G0 Z2.0000
G0 X59.9199 Y-25.4000
G1 Z-1.1000 F500
G1 Z0
G0 Z2.0000
G0 X59.9199 Y-17.7800
G1 Z-1.1000 F500
G1 Z0
G0 Z2.0000
G0 X59.9199 Y-15.2400
G1 Z-1.1000 F500
G1 Z0
G0 Z2.0000
G0 X59.9199 Y-12.7000
G1 Z-1.1000 F500
G1 Z0
G0 Z2.0000
M5 / выключение шпинделя
G0 Z0.50 X0 Y0


