(G-CODE GENERATED BY FLATCAM v8.994 - www.flatcam.org - Version Date: 2020/11/7)

(Name: Gerber_BottomLayer.GBL_iso_combined_cnc)
(Type: G-code from Geometry)
(Units: MM)

(Created on Friday, 28 April 2023 at 16:12)

/TOOL DIAMETER = ДИАМЕТР ИНСТРУМЕНТА: 0.2 mm
/Feedrate_XY = подача XY: 500.0 mm/min
/Feedrate_Z = подача Z: 500.0 mm/min
/Feedrate rapids = быстрая подача1500.0 mm/min

/Z_Cut = проходы по Z: 0.0 mm
/Z_Move: 2.0 mm
/Z Start: None mm
/Z End: 15.0 mm
/X,Y End: None mm
(Steps per circle: 64)
/Steps per circle: 64
/Preprocessor Geometry: Charly4U

/X range:    0.8806 ...   64.5767  mm
/Y range:  -84.9925 ...   -1.9235  mm

/Скорость шпинделя: 20000.0 RPM
G71 / измерения в мм
G90 / программирование в абсолютных координатах

F500
/Tool switching while working is not supported! = Смена инструмента в процессе работы не поддерживается!
M3 S20000.0
F500
G0 X24.7949 Y-4.3839
F500
G1 Z0.0000 F500
F500
G1 X24.8091 Y-4.3777
G1 X24.8302 Y-4.3696
G1 X24.8579 Y-4.3597
G1 X24.8794 Y-4.3526
G1 X24.9011 Y-4.3466
G1 X24.9297 Y-4.3394
G1 X24.9517 Y-4.3345
G1 X24.9740 Y-4.3306
G1 X25.0031 Y-4.3263
G1 X25.0255 Y-4.3235
G1 X25.0480 Y-4.3218
G1 X25.0774 Y-4.3204
G1 X25.1000 Y-4.3199
G1 X36.0726 Y-4.3187
G1 X36.0886 Y-4.2975
G1 X36.1029 Y-4.2800
G1 X36.1622 Y-4.2143
G1 X36.1778 Y-4.1980
G1 X36.1859 Y-4.1901
G1 X36.2514 Y-4.1305
G1 X36.2685 Y-4.1157
G1 X36.2863 Y-4.1019
G1 X36.3484 Y-4.0558
G1 X36.3668 Y-4.0428
G1 X36.3859 Y-4.0307
G1 X36.4522 Y-3.9910
G1 X36.4718 Y-3.9799
G1 X36.4920 Y-3.9697
G1 X36.5619 Y-3.9367
G1 X36.5825 Y-3.9276
G1 X36.6036 Y-3.9194
G1 X36.6763 Y-3.8934
G1 X36.6978 Y-3.8863
G1 X36.7086 Y-3.8832
G1 X36.7945 Y-3.8615
G1 X36.8165 Y-3.8566
G1 X36.8387 Y-3.8527
G1 X36.9264 Y-3.8399
G1 X36.9488 Y-3.8376
G1 X36.9601 Y-3.8369
G1 X37.0373 Y-3.8332
G1 X37.0599 Y-3.8326
G1 X37.0824 Y-3.8332
G1 X37.1596 Y-3.8369
G1 X37.1821 Y-3.8386
G1 X37.2045 Y-3.8414
G1 X37.2810 Y-3.8527
G1 X37.3032 Y-3.8566
G1 X37.3252 Y-3.8615
G1 X37.4002 Y-3.8803
G1 X37.4220 Y-3.8863
G1 X37.4434 Y-3.8934
G1 X37.5015 Y-3.9142
G1 X37.3912 Y-3.8038
G1 X25.3750 Y-3.8038
G1 X24.7949 Y-4.3839
G0 Z2.0000
G0 X25.2936 Y-4.1398
F500
G1 Z0.0000 F500
F500
G1 X35.9878 Y-4.1387
G1 X36.0289 Y-4.0934
G1 X36.0505 Y-4.0707
G1 X36.0733 Y-4.0490
G1 X36.1305 Y-3.9971
G1 X36.1457 Y-3.9838
G1 X25.4496 Y-3.9838
G1 X25.2936 Y-4.1398
G0 Z2.0000
G0 X23.1820 Y-10.1010
F500
G1 Z0.0000 F500
F500
G1 X23.1688 Y-10.1010
G1 X23.1578 Y-10.1120
G1 X23.1744 Y-10.1043
G1 X23.1820 Y-10.1010
G0 Z2.0000
G0 X26.8251 Y-16.6599
F500
G1 Z0.0000 F500
F500
G1 X32.7792 Y-16.6599
G1 X32.8010 Y-16.6393
G1 X32.8709 Y-16.5762
G1 X32.9020 Y-16.5507
G1 X32.9565 Y-16.5100
G1 X32.9020 Y-16.4693
G1 X32.8709 Y-16.4438
G1 X32.8010 Y-16.3807
G1 X32.7792 Y-16.3601
G1 X27.1248 Y-16.3601
G1 X26.8251 Y-16.6599
G0 Z2.0000
G0 X26.3009 Y-16.9295
F500
G1 Z0.0000 F500
F500
G1 X26.3265 Y-16.9176
G1 X26.3555 Y-16.9056
G1 X26.4128 Y-16.8851
G1 X26.4429 Y-16.8760
G1 X26.5019 Y-16.8612
G1 X26.5328 Y-16.8550
G1 X26.5930 Y-16.8461
G1 X26.6242 Y-16.8430
G1 X26.6850 Y-16.8400
G1 X32.8568 Y-16.8399
G1 X32.8882 Y-16.8055
G1 X32.9104 Y-16.7833
G1 X32.9885 Y-16.7125
G1 X33.0128 Y-16.6926
G1 X33.0847 Y-16.6390
G1 X33.1104 Y-16.6209
G1 X33.1236 Y-16.6124
G1 X33.2140 Y-16.5582
G1 X33.2417 Y-16.5434
G1 X33.3118 Y-16.5100
G1 X33.2417 Y-16.4766
G1 X33.2140 Y-16.4618
G1 X33.1236 Y-16.4076
G1 X33.1104 Y-16.3991
G1 X33.0847 Y-16.3810
G1 X33.0128 Y-16.3274
G1 X32.9885 Y-16.3075
G1 X32.9104 Y-16.2367
G1 X32.8882 Y-16.2145
G1 X32.8568 Y-16.1801
G1 X27.0503 Y-16.1801
G1 X26.3009 Y-16.9295
G0 Z2.0000
G0 X32.9565 Y-19.0500
F500
G1 Z0.0000 F500
F500
G1 X32.9020 Y-19.0093
G1 X32.8709 Y-18.9838
G1 X32.8010 Y-18.9207
G1 X32.7792 Y-18.9001
G1 X27.1647 Y-18.9001
G1 X22.1997 Y-23.8652
G1 X22.2598 Y-23.8805
G1 X22.2983 Y-23.8922
G1 X22.4066 Y-23.9309
G1 X22.4438 Y-23.9464
G1 X22.5297 Y-23.9867
G1 X22.5656 Y-24.0048
G1 X22.6006 Y-24.0246
G1 X22.6648 Y-24.0631
G1 X22.6988 Y-24.0846
G1 X22.7317 Y-24.1078
G1 X22.7917 Y-24.1523
G1 X22.8235 Y-24.1771
G1 X22.8539 Y-24.2034
G1 X22.9241 Y-24.2673
G1 X22.9526 Y-24.2958
G1 X23.0298 Y-24.3810
G1 X23.0553 Y-24.4121
G1 X23.0899 Y-24.4582
G1 X23.1244 Y-24.4121
G1 X23.1499 Y-24.3810
G1 X23.2135 Y-24.3105
G1 X23.2412 Y-24.2814
G1 X23.2704 Y-24.2536
G1 X23.3258 Y-24.2034
G1 X23.3562 Y-24.1771
G1 X23.3880 Y-24.1523
G1 X23.4480 Y-24.1078
G1 X23.4809 Y-24.0846
G1 X23.5150 Y-24.0631
G1 X23.5965 Y-24.0145
G1 X23.6320 Y-23.9955
G1 X23.7177 Y-23.9547
G1 X23.7545 Y-23.9384
G1 X23.7920 Y-23.9239
G1 X23.8624 Y-23.8987
G1 X23.9006 Y-23.8861
G1 X23.9394 Y-23.8754
G1 X24.0315 Y-23.8526
G1 X24.0710 Y-23.8447
G1 X24.1649 Y-23.8305
G1 X24.2048 Y-23.8256
G1 X24.2449 Y-23.8227
G1 X24.3397 Y-23.8182
G1 X24.3800 Y-23.8182
G1 X24.4001 Y-23.8190
G1 X24.4949 Y-23.8239
G1 X24.5349 Y-23.8278
G1 X24.6288 Y-23.8415
G1 X24.6685 Y-23.8484
G1 X24.7078 Y-23.8572
G1 X24.7803 Y-23.8754
G1 X24.7998 Y-23.8805
G1 X24.8383 Y-23.8922
G1 X24.9466 Y-23.9309
G1 X24.9838 Y-23.9464
G1 X25.0021 Y-23.9547
G1 X25.0697 Y-23.9867
G1 X25.1056 Y-24.0048
G1 X25.1406 Y-24.0246
G1 X25.2048 Y-24.0631
G1 X25.2388 Y-24.0846
G1 X25.2717 Y-24.1078
G1 X25.3317 Y-24.1523
G1 X25.3635 Y-24.1771
G1 X25.3789 Y-24.1901
G1 X25.4641 Y-24.2673
G1 X25.4785 Y-24.2814
G1 X25.5063 Y-24.3105
G1 X25.5565 Y-24.3659
G1 X25.5828 Y-24.3964
G1 X25.6075 Y-24.4281
G1 X25.6521 Y-24.4882
G1 X25.6752 Y-24.5211
G1 X25.6862 Y-24.5380
G1 X25.7454 Y-24.6366
G1 X25.7643 Y-24.6721
G1 X25.8135 Y-24.7761
G1 X25.8289 Y-24.8133
G1 X25.8611 Y-24.9026
G1 X25.8737 Y-24.9408
G1 X25.8845 Y-24.9796
G1 X25.9026 Y-25.0521
G1 X25.9115 Y-25.0914
G1 X25.9183 Y-25.1310
G1 X25.9293 Y-25.2050
G1 X25.9342 Y-25.2449
G1 X25.9372 Y-25.2851
G1 X25.9416 Y-25.3799
G1 X25.9419 Y-25.4000
G1 X25.9409 Y-25.4402
G1 X25.9372 Y-25.5149
G1 X25.9342 Y-25.5551
G1 X25.9293 Y-25.5950
G1 X25.9183 Y-25.6690
G1 X25.9115 Y-25.7086
G1 X25.9026 Y-25.7479
G1 X25.8845 Y-25.8204
G1 X25.8737 Y-25.8592
G1 X25.8611 Y-25.8974
G1 X25.8359 Y-25.9679
G1 X25.8214 Y-26.0054
G1 X25.8135 Y-26.0239
G1 X25.7732 Y-26.1098
G1 X25.7551 Y-26.1457
G1 X25.7352 Y-26.1808
G1 X25.6862 Y-26.2620
G1 X25.6752 Y-26.2789
G1 X25.6521 Y-26.3118
G1 X25.6075 Y-26.3719
G1 X25.5828 Y-26.4036
G1 X25.5565 Y-26.4341
G1 X25.5063 Y-26.4895
G1 X25.4800 Y-26.5171
G1 X25.4800 Y-31.1371
G1 X31.0693 Y-31.1322
G1 X31.0883 Y-31.1125
G1 X31.1175 Y-31.0847
G1 X31.1757 Y-31.0320
G1 X31.2061 Y-31.0057
G1 X31.2379 Y-30.9810
G1 X31.3009 Y-30.9342
G1 X31.3338 Y-30.9110
G1 X31.3678 Y-30.8895
G1 X31.4352 Y-30.8491
G1 X31.4702 Y-30.8293
G1 X31.5061 Y-30.8112
G1 X31.5771 Y-30.7776
G1 X31.6139 Y-30.7613
G1 X31.6515 Y-30.7468
G1 X31.7254 Y-30.7204
G1 X31.7636 Y-30.7078
G1 X31.8024 Y-30.6970
G1 X31.8785 Y-30.6779
G1 X31.9178 Y-30.6691
G1 X31.9575 Y-30.6622
G1 X32.0351 Y-30.6507
G1 X32.0751 Y-30.6458
G1 X32.1152 Y-30.6428
G1 X32.2137 Y-30.6382
G1 X32.2339 Y-30.6380
G1 X32.2689 Y-30.6388
G1 X32.7647 Y-30.1430
G1 X32.7647 Y-24.3477
G1 X32.7443 Y-24.3372
G1 X32.7267 Y-24.3275
G1 X32.7093 Y-24.3173
G1 X32.6753 Y-24.2958
G1 X32.6424 Y-24.2726
G1 X32.6264 Y-24.2604
G1 X32.6107 Y-24.2479
G1 X32.5802 Y-24.2216
G1 X32.5654 Y-24.2079
G1 X32.5370 Y-24.1794
G1 X32.5233 Y-24.1647
G1 X32.4970 Y-24.1342
G1 X32.4844 Y-24.1185
G1 X32.4604 Y-24.0862
G1 X32.4381 Y-24.0527
G1 X32.4174 Y-24.0182
G1 X32.4077 Y-24.0005
G1 X32.3896 Y-23.9646
G1 X32.3812 Y-23.9463
G1 X32.3733 Y-23.9278
G1 X32.3588 Y-23.8902
G1 X32.3462 Y-23.8520
G1 X32.3406 Y-23.8327
G1 X32.3354 Y-23.8132
G1 X32.3266 Y-23.7740
G1 X32.3197 Y-23.7343
G1 X32.3170 Y-23.7144
G1 X32.3131 Y-23.6743
G1 X32.3111 Y-23.6341
G1 X32.3109 Y-23.6140
G1 X32.3109 Y-22.1060
G1 X32.3118 Y-22.0658
G1 X32.3148 Y-22.0256
G1 X32.3197 Y-21.9857
G1 X32.3266 Y-21.9460
G1 X32.3354 Y-21.9068
G1 X32.3406 Y-21.8873
G1 X32.3522 Y-21.8488
G1 X32.3658 Y-21.8109
G1 X32.3812 Y-21.7737
G1 X32.3984 Y-21.7373
G1 X32.4077 Y-21.7195
G1 X32.4275 Y-21.6844
G1 X32.4491 Y-21.6504
G1 X32.4722 Y-21.6175
G1 X32.4970 Y-21.5858
G1 X32.5233 Y-21.5553
G1 X32.5510 Y-21.5262
G1 X32.5802 Y-21.4984
G1 X32.5953 Y-21.4851
G1 X32.6264 Y-21.4596
G1 X32.6587 Y-21.4356
G1 X32.6922 Y-21.4132
G1 X32.7093 Y-21.4027
G1 X32.7315 Y-21.3899
G1 X32.6811 Y-21.3339
G1 X32.6556 Y-21.3028
G1 X32.5875 Y-21.2111
G1 X32.5652 Y-21.1776
G1 X32.5064 Y-21.0796
G1 X32.4874 Y-21.0441
G1 X32.4386 Y-20.9408
G1 X32.4232 Y-20.9037
G1 X32.3847 Y-20.7961
G1 X32.3730 Y-20.7576
G1 X32.3453 Y-20.6468
G1 X32.3374 Y-20.6073
G1 X32.3207 Y-20.4943
G1 X32.3167 Y-20.4542
G1 X32.3111 Y-20.3401
G1 X32.3111 Y-20.2999
G1 X32.3167 Y-20.1858
G1 X32.3207 Y-20.1457
G1 X32.3374 Y-20.0327
G1 X32.3411 Y-20.0129
G1 X32.3499 Y-19.9737
G1 X32.3679 Y-19.9019
G1 X32.3786 Y-19.8631
G1 X32.3913 Y-19.8249
G1 X32.4162 Y-19.7552
G1 X32.4307 Y-19.7177
G1 X32.4386 Y-19.6992
G1 X32.4874 Y-19.5959
G1 X32.4967 Y-19.5780
G1 X32.5166 Y-19.5430
G1 X32.5546 Y-19.4795
G1 X32.5761 Y-19.4455
G1 X32.5993 Y-19.4126
G1 X32.6434 Y-19.3532
G1 X32.6681 Y-19.3215
G1 X32.6811 Y-19.3061
G1 X32.7578 Y-19.2214
G1 X32.7863 Y-19.1930
G1 X32.8558 Y-19.1296
G1 X32.8863 Y-19.1033
G1 X32.9181 Y-19.0785
G1 X32.9565 Y-19.0500
G0 Z2.0000
G0 X33.3118 Y-19.0500
F500
G1 Z0.0000 F500
F500
G1 X33.2417 Y-19.0166
G1 X33.2140 Y-19.0018
G1 X33.1236 Y-18.9476
G1 X33.1104 Y-18.9391
G1 X33.0847 Y-18.9210
G1 X33.0128 Y-18.8674
G1 X32.9885 Y-18.8475
G1 X32.9104 Y-18.7767
G1 X32.8882 Y-18.7545
G1 X32.8568 Y-18.7201
G1 X27.0902 Y-18.7201
G1 X21.8122 Y-23.9981
G1 X21.8356 Y-23.9982
G1 X21.8513 Y-23.9988
G1 X21.9260 Y-24.0024
G1 X21.9573 Y-24.0048
G1 X21.9885 Y-24.0086
G1 X22.0624 Y-24.0196
G1 X22.0934 Y-24.0249
G1 X22.1240 Y-24.0318
G1 X22.1966 Y-24.0500
G1 X22.2268 Y-24.0584
G1 X22.2567 Y-24.0682
G1 X22.3418 Y-24.0989
G1 X22.3564 Y-24.1047
G1 X22.3851 Y-24.1175
G1 X22.4527 Y-24.1494
G1 X22.4808 Y-24.1635
G1 X22.5081 Y-24.1790
G1 X22.5856 Y-24.2257
G1 X22.6117 Y-24.2432
G1 X22.6845 Y-24.2969
G1 X22.7093 Y-24.3162
G1 X22.7331 Y-24.3368
G1 X22.7885 Y-24.3870
G1 X22.8112 Y-24.4086
G1 X22.8329 Y-24.4314
G1 X22.8935 Y-24.4986
G1 X22.9134 Y-24.5228
G1 X22.9675 Y-24.5954
G1 X22.9767 Y-24.6081
G1 X22.9941 Y-24.6343
G1 X23.0408 Y-24.7118
G1 X23.0563 Y-24.7391
G1 X23.0704 Y-24.7672
G1 X23.0899 Y-24.8082
G1 X23.1093 Y-24.7672
G1 X23.1234 Y-24.7391
G1 X23.1389 Y-24.7118
G1 X23.1856 Y-24.6343
G1 X23.1941 Y-24.6211
G1 X23.2122 Y-24.5954
G1 X23.2663 Y-24.5228
G1 X23.2862 Y-24.4986
G1 X23.3468 Y-24.4314
G1 X23.3685 Y-24.4086
G1 X23.3912 Y-24.3870
G1 X23.4467 Y-24.3368
G1 X23.4704 Y-24.3162
G1 X23.4952 Y-24.2969
G1 X23.5680 Y-24.2432
G1 X23.5941 Y-24.2257
G1 X23.6716 Y-24.1790
G1 X23.6990 Y-24.1635
G1 X23.7270 Y-24.1494
G1 X23.7946 Y-24.1175
G1 X23.8233 Y-24.1047
G1 X23.8379 Y-24.0989
G1 X23.9231 Y-24.0682
G1 X23.9529 Y-24.0584
G1 X23.9832 Y-24.0500
G1 X24.0710 Y-24.0282
G1 X24.0863 Y-24.0249
G1 X24.1173 Y-24.0196
G1 X24.1913 Y-24.0086
G1 X24.2224 Y-24.0048
G1 X24.2538 Y-24.0024
G1 X24.3442 Y-23.9982
G1 X24.3756 Y-23.9982
G1 X24.4660 Y-24.0024
G1 X24.4973 Y-24.0048
G1 X24.5285 Y-24.0086
G1 X24.6024 Y-24.0196
G1 X24.6334 Y-24.0249
G1 X24.6640 Y-24.0318
G1 X24.7518 Y-24.0540
G1 X24.7818 Y-24.0631
G1 X24.8671 Y-24.0934
G1 X24.8964 Y-24.1047
G1 X24.9108 Y-24.1109
G1 X24.9927 Y-24.1494
G1 X25.0208 Y-24.1635
G1 X25.0481 Y-24.1790
G1 X25.1122 Y-24.2175
G1 X25.1256 Y-24.2257
G1 X25.1517 Y-24.2432
G1 X25.2245 Y-24.2969
G1 X25.2493 Y-24.3162
G1 X25.2731 Y-24.3368
G1 X25.3400 Y-24.3977
G1 X25.3622 Y-24.4199
G1 X25.3729 Y-24.4314
G1 X25.4231 Y-24.4868
G1 X25.4436 Y-24.5106
G1 X25.4629 Y-24.5353
G1 X25.5167 Y-24.6081
G1 X25.5341 Y-24.6343
G1 X25.5808 Y-24.7118
G1 X25.5963 Y-24.7391
G1 X25.6104 Y-24.7672
G1 X25.6424 Y-24.8348
G1 X25.6551 Y-24.8635
G1 X25.6664 Y-24.8928
G1 X25.6916 Y-24.9632
G1 X25.7015 Y-24.9930
G1 X25.7099 Y-25.0233
G1 X25.7280 Y-25.0958
G1 X25.7349 Y-25.1265
G1 X25.7403 Y-25.1574
G1 X25.7513 Y-25.2314
G1 X25.7551 Y-25.2626
G1 X25.7574 Y-25.2939
G1 X25.7617 Y-25.3843
G1 X25.7617 Y-25.4157
G1 X25.7574 Y-25.5061
G1 X25.7551 Y-25.5374
G1 X25.7513 Y-25.5686
G1 X25.7378 Y-25.6581
G1 X25.7317 Y-25.6889
G1 X25.7280 Y-25.7042
G1 X25.7059 Y-25.7919
G1 X25.6967 Y-25.8220
G1 X25.6664 Y-25.9072
G1 X25.6551 Y-25.9365
G1 X25.6424 Y-25.9652
G1 X25.6035 Y-26.0470
G1 X25.5887 Y-26.0747
G1 X25.5424 Y-26.1524
G1 X25.5256 Y-26.1789
G1 X25.5075 Y-26.2046
G1 X25.4534 Y-26.2772
G1 X25.4436 Y-26.2894
G1 X25.4231 Y-26.3132
G1 X25.3622 Y-26.3801
G1 X25.3400 Y-26.4023
G1 X25.3000 Y-26.4388
G1 X25.3000 Y-31.3173
G1 X31.1490 Y-31.3122
G1 X31.1940 Y-31.2625
G1 X31.2156 Y-31.2398
G1 X31.2384 Y-31.2181
G1 X31.2965 Y-31.1654
G1 X31.3203 Y-31.1449
G1 X31.3326 Y-31.1351
G1 X31.4209 Y-31.0696
G1 X31.4338 Y-31.0607
G1 X31.4604 Y-31.0439
G1 X31.5277 Y-31.0035
G1 X31.5550 Y-30.9880
G1 X31.5831 Y-30.9739
G1 X31.6541 Y-30.9403
G1 X31.6828 Y-30.9276
G1 X31.7121 Y-30.9163
G1 X31.7860 Y-30.8899
G1 X31.8159 Y-30.8800
G1 X31.8461 Y-30.8716
G1 X31.9376 Y-30.8489
G1 X31.9529 Y-30.8457
G1 X31.9839 Y-30.8403
G1 X32.0771 Y-30.8267
G1 X32.0927 Y-30.8249
G1 X32.1240 Y-30.8226
G1 X32.2025 Y-30.8188
G1 X32.2339 Y-30.8180
G1 X32.2653 Y-30.8188
G1 X32.3399 Y-30.8224
G1 X32.9447 Y-30.2176
G1 X32.9447 Y-24.2263
G1 X32.9153 Y-24.2166
G1 X32.9005 Y-24.2111
G1 X32.8859 Y-24.2053
G1 X32.8572 Y-24.1926
G1 X32.8292 Y-24.1784
G1 X32.8018 Y-24.1629
G1 X32.7885 Y-24.1547
G1 X32.7623 Y-24.1373
G1 X32.7496 Y-24.1281
G1 X32.7371 Y-24.1185
G1 X32.7128 Y-24.0986
G1 X32.6896 Y-24.0775
G1 X32.6673 Y-24.0553
G1 X32.6567 Y-24.0438
G1 X32.6361 Y-24.0200
G1 X32.6168 Y-23.9952
G1 X32.6076 Y-23.9825
G1 X32.5902 Y-23.9564
G1 X32.5819 Y-23.9430
G1 X32.5740 Y-23.9295
G1 X32.5592 Y-23.9018
G1 X32.5458 Y-23.8734
G1 X32.5337 Y-23.8443
G1 X32.5283 Y-23.8296
G1 X32.5232 Y-23.8148
G1 X32.5140 Y-23.7847
G1 X32.5064 Y-23.7542
G1 X32.5032 Y-23.7389
G1 X32.4978 Y-23.7079
G1 X32.4939 Y-23.6767
G1 X32.4916 Y-23.6454
G1 X32.4909 Y-23.6140
G1 X32.4911 Y-22.0903
G1 X32.4926 Y-22.0589
G1 X32.4957 Y-22.0277
G1 X32.5003 Y-21.9966
G1 X32.5032 Y-21.9811
G1 X32.5100 Y-21.9505
G1 X32.5184 Y-21.9202
G1 X32.5283 Y-21.8904
G1 X32.5396 Y-21.8611
G1 X32.5458 Y-21.8466
G1 X32.5592 Y-21.8182
G1 X32.5740 Y-21.7905
G1 X32.5902 Y-21.7636
G1 X32.6076 Y-21.7375
G1 X32.6263 Y-21.7123
G1 X32.6462 Y-21.6880
G1 X32.6673 Y-21.6647
G1 X32.6896 Y-21.6425
G1 X32.7128 Y-21.6214
G1 X32.7371 Y-21.6015
G1 X32.7496 Y-21.5919
G1 X32.7753 Y-21.5739
G1 X32.8018 Y-21.5571
G1 X32.8292 Y-21.5416
G1 X32.8572 Y-21.5274
G1 X32.8859 Y-21.5147
G1 X32.9153 Y-21.5034
G1 X32.9451 Y-21.4936
G1 X32.9754 Y-21.4852
G1 X33.0060 Y-21.4783
G1 X33.0370 Y-21.4729
G1 X33.0681 Y-21.4691
G1 X33.0933 Y-21.4672
G1 X33.0253 Y-21.4169
G1 X33.0005 Y-21.3976
G1 X32.9767 Y-21.3771
G1 X32.9219 Y-21.3274
G1 X32.9104 Y-21.3167
G1 X32.8882 Y-21.2945
G1 X32.8174 Y-21.2164
G1 X32.8073 Y-21.2043
G1 X32.7880 Y-21.1796
G1 X32.7439 Y-21.1201
G1 X32.7258 Y-21.0945
G1 X32.7090 Y-21.0679
G1 X32.6709 Y-21.0045
G1 X32.6555 Y-20.9771
G1 X32.6482 Y-20.9632
G1 X32.6032 Y-20.8679
G1 X32.5911 Y-20.8389
G1 X32.5857 Y-20.8242
G1 X32.5607 Y-20.7545
G1 X32.5509 Y-20.7247
G1 X32.5425 Y-20.6944
G1 X32.5245 Y-20.6226
G1 X32.5209 Y-20.6073
G1 X32.5148 Y-20.5765
G1 X32.5014 Y-20.4878
G1 X32.4976 Y-20.4566
G1 X32.4953 Y-20.4253
G1 X32.4916 Y-20.3514
G1 X32.4911 Y-20.3357
G1 X32.4911 Y-20.3043
G1 X32.4953 Y-20.2147
G1 X32.4976 Y-20.1834
G1 X32.5014 Y-20.1522
G1 X32.5123 Y-20.0790
G1 X32.5148 Y-20.0635
G1 X32.5209 Y-20.0327
G1 X32.5425 Y-19.9456
G1 X32.5509 Y-19.9153
G1 X32.5607 Y-19.8855
G1 X32.5857 Y-19.8158
G1 X32.5970 Y-19.7865
G1 X32.6097 Y-19.7578
G1 X32.6413 Y-19.6909
G1 X32.6555 Y-19.6629
G1 X32.6630 Y-19.6491
G1 X32.7090 Y-19.5721
G1 X32.7258 Y-19.5455
G1 X32.7439 Y-19.5199
G1 X32.7975 Y-19.4479
G1 X32.8073 Y-19.4357
G1 X32.8278 Y-19.4119
G1 X32.8775 Y-19.3570
G1 X32.8992 Y-19.3343
G1 X32.9219 Y-19.3126
G1 X32.9885 Y-19.2525
G1 X33.0128 Y-19.2326
G1 X33.0847 Y-19.1790
G1 X33.0974 Y-19.1698
G1 X33.1236 Y-19.1524
G1 X33.2004 Y-19.1061
G1 X33.2277 Y-19.0906
G1 X33.2558 Y-19.0765
G1 X33.3118 Y-19.0500
G0 Z2.0000
G0 X34.8032 Y-14.1922
F500
G1 Z0.0000 F500
F500
G1 X34.8032 Y-13.7478
G1 X34.7812 Y-13.7675
G1 X34.7569 Y-13.7874
G1 X34.6850 Y-13.8410
G1 X34.6593 Y-13.8591
G1 X34.6462 Y-13.8676
G1 X34.5693 Y-13.9139
G1 X34.5420 Y-13.9294
G1 X34.5139 Y-13.9435
G1 X34.4579 Y-13.9700
G1 X34.5139 Y-13.9965
G1 X34.5420 Y-14.0106
G1 X34.5693 Y-14.0261
G1 X34.6462 Y-14.0724
G1 X34.6723 Y-14.0898
G1 X34.6850 Y-14.0990
G1 X34.7569 Y-14.1526
G1 X34.7812 Y-14.1725
G1 X34.8032 Y-14.1922
G0 Z2.0000
G0 X34.9832 Y-12.1850
F500
G1 Z0.0000 F500
F500
G1 X34.9832 Y-11.9963
G1 X34.5492 Y-11.5623
G1 X34.3059 Y-11.5623
G1 X34.3390 Y-11.5742
G1 X34.3598 Y-11.5829
G1 X34.4471 Y-11.6241
G1 X34.4571 Y-11.6293
G1 X34.4768 Y-11.6405
G1 X34.5499 Y-11.6844
G1 X34.5686 Y-11.6970
G1 X34.5778 Y-11.7036
G1 X34.6462 Y-11.7545
G1 X34.6550 Y-11.7616
G1 X34.6721 Y-11.7763
G1 X34.7269 Y-11.8260
G1 X34.7352 Y-11.8337
G1 X34.7512 Y-11.8497
G1 X34.8160 Y-11.9212
G1 X34.8303 Y-11.9387
G1 X34.8372 Y-11.9476
G1 X34.8879 Y-12.0162
G1 X34.8943 Y-12.0255
G1 X34.9063 Y-12.0446
G1 X34.9501 Y-12.1178
G1 X34.9607 Y-12.1377
G1 X34.9832 Y-12.1850
G0 Z2.0000
G0 X33.0310 Y-12.6951
F500
G1 Z0.0000 F500
F500
G1 X33.0310 Y-12.7049
G1 X33.0350 Y-12.7837
G1 X33.0473 Y-12.8666
G1 X33.0676 Y-12.9479
G1 X33.0959 Y-13.0268
G1 X33.1317 Y-13.1026
G1 X33.1748 Y-13.1745
G1 X33.2247 Y-13.2418
G1 X33.2810 Y-13.3039
G1 X33.3431 Y-13.3602
G1 X33.4104 Y-13.4101
G1 X33.4823 Y-13.4532
G1 X33.5580 Y-13.4890
G1 X33.6370 Y-13.5172
G1 X33.7183 Y-13.5376
G1 X33.8012 Y-13.5499
G1 X33.8849 Y-13.5540
G1 X33.9686 Y-13.5499
G1 X34.0515 Y-13.5376
G1 X34.1328 Y-13.5172
G1 X34.2117 Y-13.4890
G1 X34.2874 Y-13.4532
G1 X34.3593 Y-13.4101
G1 X34.4266 Y-13.3602
G1 X34.4887 Y-13.3039
G1 X34.5450 Y-13.2418
G1 X34.5949 Y-13.1745
G1 X34.6380 Y-13.1026
G1 X34.6739 Y-13.0268
G1 X34.7021 Y-12.9479
G1 X34.7225 Y-12.8666
G1 X34.7347 Y-12.7837
G1 X34.7389 Y-12.7000
G1 X34.7347 Y-12.6163
G1 X34.7225 Y-12.5334
G1 X34.7021 Y-12.4521
G1 X34.6739 Y-12.3732
G1 X34.6380 Y-12.2974
G1 X34.5949 Y-12.2255
G1 X34.5450 Y-12.1582
G1 X34.4887 Y-12.0961
G1 X34.4266 Y-12.0398
G1 X34.3593 Y-11.9899
G1 X34.2874 Y-11.9468
G1 X34.2117 Y-11.9110
G1 X34.1328 Y-11.8828
G1 X34.0515 Y-11.8624
G1 X33.9686 Y-11.8501
G1 X33.8849 Y-11.8460
G1 X33.8012 Y-11.8501
G1 X33.7183 Y-11.8624
G1 X33.6370 Y-11.8828
G1 X33.5580 Y-11.9110
G1 X33.4823 Y-11.9468
G1 X33.4104 Y-11.9899
G1 X33.3431 Y-12.0398
G1 X33.2810 Y-12.0961
G1 X33.2247 Y-12.1582
G1 X33.1748 Y-12.2255
G1 X33.1317 Y-12.2974
G1 X33.0959 Y-12.3732
G1 X33.0676 Y-12.4521
G1 X33.0473 Y-12.5334
G1 X33.0350 Y-12.6163
G1 X33.0310 Y-12.6951
G0 Z2.0000
G0 X32.8512 Y-12.6863
F500
G1 Z0.0000 F500
F500
G1 X32.8509 Y-12.7000
G1 X32.8512 Y-12.7137
G1 X32.8548 Y-12.7876
G1 X32.8558 Y-12.8013
G1 X32.8575 Y-12.8150
G1 X32.8684 Y-12.8882
G1 X32.8707 Y-12.9017
G1 X32.8737 Y-12.9151
G1 X32.8917 Y-12.9869
G1 X32.8954 Y-13.0002
G1 X32.8997 Y-13.0132
G1 X32.9246 Y-13.0829
G1 X32.9296 Y-13.0957
G1 X32.9351 Y-13.1083
G1 X32.9668 Y-13.1751
G1 X32.9730 Y-13.1874
G1 X32.9797 Y-13.1994
G1 X33.0178 Y-13.2628
G1 X33.0251 Y-13.2745
G1 X33.0330 Y-13.2857
G1 X33.0771 Y-13.3451
G1 X33.0856 Y-13.3560
G1 X33.0945 Y-13.3664
G1 X33.1442 Y-13.4212
G1 X33.1537 Y-13.4311
G1 X33.1637 Y-13.4406
G1 X33.2185 Y-13.4903
G1 X33.2289 Y-13.4993
G1 X33.2397 Y-13.5077
G1 X33.2992 Y-13.5518
G1 X33.3104 Y-13.5597
G1 X33.3220 Y-13.5671
G1 X33.3855 Y-13.6051
G1 X33.3974 Y-13.6119
G1 X33.4097 Y-13.6181
G1 X33.4766 Y-13.6497
G1 X33.4892 Y-13.6553
G1 X33.5020 Y-13.6602
G1 X33.5717 Y-13.6852
G1 X33.5847 Y-13.6895
G1 X33.5980 Y-13.6931
G1 X33.6697 Y-13.7111
G1 X33.6831 Y-13.7141
G1 X33.6967 Y-13.7165
G1 X33.7699 Y-13.7273
G1 X33.7835 Y-13.7290
G1 X33.7972 Y-13.7300
G1 X33.8711 Y-13.7337
G1 X33.8849 Y-13.7340
G1 X33.8986 Y-13.7337
G1 X33.9725 Y-13.7300
G1 X33.9862 Y-13.7290
G1 X33.9998 Y-13.7273
G1 X34.0730 Y-13.7165
G1 X34.0866 Y-13.7141
G1 X34.1000 Y-13.7111
G1 X34.1718 Y-13.6931
G1 X34.1850 Y-13.6895
G1 X34.1981 Y-13.6852
G1 X34.2677 Y-13.6602
G1 X34.2806 Y-13.6553
G1 X34.2931 Y-13.6497
G1 X34.3600 Y-13.6181
G1 X34.3723 Y-13.6119
G1 X34.3842 Y-13.6051
G1 X34.4477 Y-13.5671
G1 X34.4593 Y-13.5597
G1 X34.4706 Y-13.5518
G1 X34.5300 Y-13.5077
G1 X34.5408 Y-13.4993
G1 X34.5512 Y-13.4903
G1 X34.6061 Y-13.4406
G1 X34.6160 Y-13.4311
G1 X34.6255 Y-13.4212
G1 X34.6752 Y-13.3664
G1 X34.6842 Y-13.3560
G1 X34.6926 Y-13.3451
G1 X34.7367 Y-13.2857
G1 X34.7446 Y-13.2745
G1 X34.7520 Y-13.2628
G1 X34.7900 Y-13.1994
G1 X34.7968 Y-13.1874
G1 X34.8029 Y-13.1751
G1 X34.8346 Y-13.1083
G1 X34.8402 Y-13.0957
G1 X34.8451 Y-13.0829
G1 X34.8700 Y-13.0132
G1 X34.8743 Y-13.0002
G1 X34.8780 Y-12.9869
G1 X34.8960 Y-12.9151
G1 X34.8990 Y-12.9017
G1 X34.9013 Y-12.8882
G1 X34.9122 Y-12.8150
G1 X34.9139 Y-12.8013
G1 X34.9149 Y-12.7876
G1 X34.9185 Y-12.7137
G1 X34.9189 Y-12.7000
G1 X34.9185 Y-12.6863
G1 X34.9149 Y-12.6124
G1 X34.9139 Y-12.5987
G1 X34.9122 Y-12.5850
G1 X34.9013 Y-12.5118
G1 X34.8990 Y-12.4983
G1 X34.8960 Y-12.4849
G1 X34.8780 Y-12.4131
G1 X34.8743 Y-12.3998
G1 X34.8700 Y-12.3868
G1 X34.8451 Y-12.3171
G1 X34.8402 Y-12.3043
G1 X34.8346 Y-12.2917
G1 X34.8029 Y-12.2249
G1 X34.7968 Y-12.2126
G1 X34.7900 Y-12.2006
G1 X34.7520 Y-12.1372
G1 X34.7446 Y-12.1255
G1 X34.7367 Y-12.1143
G1 X34.6926 Y-12.0549
G1 X34.6842 Y-12.0440
G1 X34.6752 Y-12.0336
G1 X34.6255 Y-11.9788
G1 X34.6160 Y-11.9689
G1 X34.6061 Y-11.9594
G1 X34.5512 Y-11.9097
G1 X34.5408 Y-11.9007
G1 X34.5300 Y-11.8923
G1 X34.4706 Y-11.8482
G1 X34.4593 Y-11.8403
G1 X34.4477 Y-11.8329
G1 X34.3842 Y-11.7949
G1 X34.3723 Y-11.7881
G1 X34.3600 Y-11.7819
G1 X34.2931 Y-11.7503
G1 X34.2806 Y-11.7447
G1 X34.2677 Y-11.7398
G1 X34.1981 Y-11.7148
G1 X34.1850 Y-11.7105
G1 X34.1718 Y-11.7069
G1 X34.1000 Y-11.6889
G1 X34.0866 Y-11.6859
G1 X34.0730 Y-11.6835
G1 X33.9998 Y-11.6727
G1 X33.9862 Y-11.6710
G1 X33.9725 Y-11.6700
G1 X33.8986 Y-11.6663
G1 X33.8849 Y-11.6660
G1 X33.8711 Y-11.6663
G1 X33.7972 Y-11.6700
G1 X33.7835 Y-11.6710
G1 X33.7699 Y-11.6727
G1 X33.6967 Y-11.6835
G1 X33.6831 Y-11.6859
G1 X33.6697 Y-11.6889
G1 X33.5980 Y-11.7069
G1 X33.5847 Y-11.7105
G1 X33.5717 Y-11.7148
G1 X33.5020 Y-11.7398
G1 X33.4892 Y-11.7447
G1 X33.4766 Y-11.7503
G1 X33.4097 Y-11.7819
G1 X33.3974 Y-11.7881
G1 X33.3855 Y-11.7949
G1 X33.3220 Y-11.8329
G1 X33.3104 Y-11.8403
G1 X33.2992 Y-11.8482
G1 X33.2397 Y-11.8923
G1 X33.2289 Y-11.9007
G1 X33.2185 Y-11.9097
G1 X33.1637 Y-11.9594
G1 X33.1537 Y-11.9689
G1 X33.1442 Y-11.9788
G1 X33.0945 Y-12.0336
G1 X33.0856 Y-12.0440
G1 X33.0771 Y-12.0549
G1 X33.0330 Y-12.1143
G1 X33.0251 Y-12.1255
G1 X33.0178 Y-12.1372
G1 X32.9797 Y-12.2006
G1 X32.9730 Y-12.2126
G1 X32.9668 Y-12.2249
G1 X32.9351 Y-12.2917
G1 X32.9296 Y-12.3043
G1 X32.9246 Y-12.3171
G1 X32.8997 Y-12.3868
G1 X32.8954 Y-12.3998
G1 X32.8917 Y-12.4131
G1 X32.8737 Y-12.4849
G1 X32.8707 Y-12.4983
G1 X32.8684 Y-12.5118
G1 X32.8575 Y-12.5850
G1 X32.8558 Y-12.5987
G1 X32.8548 Y-12.6124
G1 X32.8512 Y-12.6863
G0 Z2.0000
G0 X32.5170 Y-11.9223
F500
G1 Z0.0000 F500
F500
G1 X23.9397 Y-11.9223
G1 X11.9795 Y-23.8825
G1 X12.0113 Y-23.8922
G1 X12.0303 Y-23.8987
G1 X12.1196 Y-23.9309
G1 X12.1568 Y-23.9464
G1 X12.2427 Y-23.9867
G1 X12.2786 Y-24.0048
G1 X12.3136 Y-24.0246
G1 X12.3949 Y-24.0736
G1 X12.4284 Y-24.0960
G1 X12.5047 Y-24.1523
G1 X12.5365 Y-24.1771
G1 X12.5669 Y-24.2034
G1 X12.6371 Y-24.2673
G1 X12.6656 Y-24.2958
G1 X12.7428 Y-24.3810
G1 X12.7683 Y-24.4121
G1 X12.8029 Y-24.4582
G1 X12.8374 Y-24.4121
G1 X12.8629 Y-24.3810
G1 X12.9402 Y-24.2958
G1 X12.9542 Y-24.2814
G1 X12.9834 Y-24.2536
G1 X13.0539 Y-24.1901
G1 X13.0850 Y-24.1645
G1 X13.1610 Y-24.1078
G1 X13.1939 Y-24.0846
G1 X13.2280 Y-24.0631
G1 X13.3095 Y-24.0145
G1 X13.3450 Y-23.9955
G1 X13.4307 Y-23.9547
G1 X13.4675 Y-23.9384
G1 X13.4861 Y-23.9309
G1 X13.5754 Y-23.8987
G1 X13.6136 Y-23.8861
G1 X13.6524 Y-23.8754
G1 X13.7250 Y-23.8572
G1 X13.7445 Y-23.8526
G1 X13.7840 Y-23.8447
G1 X13.8779 Y-23.8305
G1 X13.9178 Y-23.8256
G1 X13.9579 Y-23.8227
G1 X14.0527 Y-23.8182
G1 X14.0930 Y-23.8182
G1 X14.1131 Y-23.8190
G1 X14.1878 Y-23.8227
G1 X14.2279 Y-23.8256
G1 X14.2679 Y-23.8305
G1 X14.3418 Y-23.8415
G1 X14.3815 Y-23.8484
G1 X14.4208 Y-23.8572
G1 X14.4933 Y-23.8754
G1 X14.5321 Y-23.8861
G1 X14.5703 Y-23.8987
G1 X14.6407 Y-23.9239
G1 X14.6783 Y-23.9384
G1 X14.7151 Y-23.9547
G1 X14.7827 Y-23.9867
G1 X14.8186 Y-24.0048
G1 X14.8536 Y-24.0246
G1 X14.9178 Y-24.0631
G1 X14.9518 Y-24.0846
G1 X14.9847 Y-24.1078
G1 X15.0447 Y-24.1523
G1 X15.0765 Y-24.1771
G1 X15.1069 Y-24.2034
G1 X15.1624 Y-24.2536
G1 X15.1915 Y-24.2814
G1 X15.2193 Y-24.3105
G1 X15.2695 Y-24.3659
G1 X15.2958 Y-24.3964
G1 X15.3205 Y-24.4281
G1 X15.3769 Y-24.5045
G1 X15.3882 Y-24.5211
G1 X15.4064 Y-24.5495
G1 X15.4245 Y-24.5211
G1 X15.4359 Y-24.5045
G1 X15.4922 Y-24.4281
G1 X15.5170 Y-24.3964
G1 X15.5432 Y-24.3659
G1 X15.5935 Y-24.3105
G1 X15.6212 Y-24.2814
G1 X15.6504 Y-24.2536
G1 X15.7058 Y-24.2034
G1 X15.7362 Y-24.1771
G1 X15.7680 Y-24.1523
G1 X15.8280 Y-24.1078
G1 X15.8609 Y-24.0846
G1 X15.8950 Y-24.0631
G1 X15.9591 Y-24.0246
G1 X15.9941 Y-24.0048
G1 X16.0301 Y-23.9867
G1 X16.0977 Y-23.9547
G1 X16.1345 Y-23.9384
G1 X16.1531 Y-23.9309
G1 X16.2614 Y-23.8922
G1 X16.3000 Y-23.8805
G1 X16.4115 Y-23.8526
G1 X16.4510 Y-23.8447
G1 X16.4759 Y-23.8408
G1 X25.8688 Y-14.4479
G1 X25.8979 Y-14.4202
G1 X25.9348 Y-14.3871
G1 X25.9659 Y-14.3615
G1 X26.0056 Y-14.3318
G1 X26.0385 Y-14.3086
G1 X26.0725 Y-14.2871
G1 X26.1152 Y-14.2618
G1 X26.1507 Y-14.2428
G1 X26.1954 Y-14.2214
G1 X26.2322 Y-14.2051
G1 X26.2697 Y-14.1906
G1 X26.3165 Y-14.1742
G1 X26.3550 Y-14.1625
G1 X26.4031 Y-14.1502
G1 X26.4226 Y-14.1455
G1 X26.4621 Y-14.1377
G1 X26.5111 Y-14.1302
G1 X26.5511 Y-14.1252
G1 X26.5912 Y-14.1223
G1 X26.6407 Y-14.1201
G1 X32.7792 Y-14.1199
G1 X32.8010 Y-14.0993
G1 X32.8709 Y-14.0362
G1 X32.9020 Y-14.0107
G1 X32.9565 Y-13.9700
G1 X32.9181 Y-13.9415
G1 X32.8863 Y-13.9167
G1 X32.8558 Y-13.8904
G1 X32.7863 Y-13.8270
G1 X32.7578 Y-13.7986
G1 X32.6811 Y-13.7139
G1 X32.6556 Y-13.6828
G1 X32.5875 Y-13.5911
G1 X32.5652 Y-13.5576
G1 X32.5064 Y-13.4596
G1 X32.4874 Y-13.4241
G1 X32.4386 Y-13.3208
G1 X32.4232 Y-13.2837
G1 X32.3847 Y-13.1761
G1 X32.3730 Y-13.1376
G1 X32.3453 Y-13.0268
G1 X32.3374 Y-12.9873
G1 X32.3207 Y-12.8743
G1 X32.3167 Y-12.8342
G1 X32.3118 Y-12.7402
G1 X32.3109 Y-12.7000
G1 X32.3118 Y-12.6598
G1 X32.3155 Y-12.5859
G1 X32.3184 Y-12.5457
G1 X32.3234 Y-12.5058
G1 X32.3342 Y-12.4326
G1 X32.3411 Y-12.3929
G1 X32.3499 Y-12.3537
G1 X32.3679 Y-12.2819
G1 X32.3786 Y-12.2431
G1 X32.3913 Y-12.2049
G1 X32.4232 Y-12.1163
G1 X32.4386 Y-12.0792
G1 X32.4786 Y-11.9940
G1 X32.4967 Y-11.9580
G1 X32.5064 Y-11.9404
G1 X32.5170 Y-11.9223
G0 Z2.0000
G0 X32.8728 Y-11.7423
F500
G1 Z0.0000 F500
F500
G1 X23.8651 Y-11.7423
G1 X11.6065 Y-24.0008
G1 X11.6546 Y-24.0034
G1 X11.6859 Y-24.0065
G1 X11.7909 Y-24.0221
G1 X11.8217 Y-24.0282
G1 X11.8370 Y-24.0318
G1 X11.9248 Y-24.0540
G1 X11.9548 Y-24.0631
G1 X12.0401 Y-24.0934
G1 X12.0694 Y-24.1047
G1 X12.0981 Y-24.1175
G1 X12.1657 Y-24.1494
G1 X12.1938 Y-24.1635
G1 X12.2075 Y-24.1711
G1 X12.2852 Y-24.2175
G1 X12.3118 Y-24.2343
G1 X12.3375 Y-24.2524
G1 X12.4100 Y-24.3064
G1 X12.4343 Y-24.3264
G1 X12.4461 Y-24.3368
G1 X12.5015 Y-24.3870
G1 X12.5242 Y-24.4086
G1 X12.5459 Y-24.4314
G1 X12.6065 Y-24.4986
G1 X12.6264 Y-24.5228
G1 X12.6805 Y-24.5954
G1 X12.6986 Y-24.6211
G1 X12.7071 Y-24.6343
G1 X12.7538 Y-24.7118
G1 X12.7693 Y-24.7391
G1 X12.7834 Y-24.7672
G1 X12.8029 Y-24.8082
G1 X12.8292 Y-24.7530
G1 X12.8440 Y-24.7253
G1 X12.8903 Y-24.6476
G1 X12.8986 Y-24.6343
G1 X12.9160 Y-24.6081
G1 X12.9698 Y-24.5353
G1 X12.9891 Y-24.5106
G1 X13.0096 Y-24.4868
G1 X13.0598 Y-24.4314
G1 X13.0815 Y-24.4086
G1 X13.1042 Y-24.3870
G1 X13.1597 Y-24.3368
G1 X13.1834 Y-24.3162
G1 X13.2082 Y-24.2969
G1 X13.2683 Y-24.2524
G1 X13.2940 Y-24.2343
G1 X13.3205 Y-24.2175
G1 X13.3846 Y-24.1790
G1 X13.4120 Y-24.1635
G1 X13.4400 Y-24.1494
G1 X13.5076 Y-24.1175
G1 X13.5363 Y-24.1047
G1 X13.5656 Y-24.0934
G1 X13.6509 Y-24.0631
G1 X13.6659 Y-24.0584
G1 X13.6962 Y-24.0500
G1 X13.7840 Y-24.0282
G1 X13.8148 Y-24.0221
G1 X13.9043 Y-24.0086
G1 X13.9198 Y-24.0065
G1 X13.9511 Y-24.0034
G1 X14.0415 Y-23.9988
G1 X14.0729 Y-23.9980
G1 X14.1043 Y-23.9988
G1 X14.1790 Y-24.0024
G1 X14.2103 Y-24.0048
G1 X14.2415 Y-24.0086
G1 X14.3154 Y-24.0196
G1 X14.3464 Y-24.0249
G1 X14.3770 Y-24.0318
G1 X14.4496 Y-24.0500
G1 X14.4648 Y-24.0540
G1 X14.4948 Y-24.0631
G1 X14.5801 Y-24.0934
G1 X14.6094 Y-24.1047
G1 X14.6381 Y-24.1175
G1 X14.7057 Y-24.1494
G1 X14.7338 Y-24.1635
G1 X14.7475 Y-24.1711
G1 X14.8386 Y-24.2257
G1 X14.8518 Y-24.2343
G1 X14.8775 Y-24.2524
G1 X14.9375 Y-24.2969
G1 X14.9623 Y-24.3162
G1 X14.9861 Y-24.3368
G1 X15.0530 Y-24.3977
G1 X15.0642 Y-24.4086
G1 X15.0859 Y-24.4314
G1 X15.1361 Y-24.4868
G1 X15.1566 Y-24.5106
G1 X15.1759 Y-24.5353
G1 X15.2205 Y-24.5954
G1 X15.2386 Y-24.6211
G1 X15.2471 Y-24.6343
G1 X15.3017 Y-24.7253
G1 X15.3165 Y-24.7530
G1 X15.3234 Y-24.7672
G1 X15.3554 Y-24.8348
G1 X15.3681 Y-24.8635
G1 X15.3794 Y-24.8928
G1 X15.4064 Y-24.9682
G1 X15.4387 Y-24.8781
G1 X15.4508 Y-24.8490
G1 X15.4573 Y-24.8348
G1 X15.4893 Y-24.7672
G1 X15.5034 Y-24.7391
G1 X15.5189 Y-24.7118
G1 X15.5573 Y-24.6476
G1 X15.5741 Y-24.6211
G1 X15.5830 Y-24.6081
G1 X15.6463 Y-24.5228
G1 X15.6561 Y-24.5106
G1 X15.6766 Y-24.4868
G1 X15.7268 Y-24.4314
G1 X15.7485 Y-24.4086
G1 X15.7712 Y-24.3870
G1 X15.8267 Y-24.3368
G1 X15.8504 Y-24.3162
G1 X15.8752 Y-24.2969
G1 X15.9353 Y-24.2524
G1 X15.9610 Y-24.2343
G1 X15.9875 Y-24.2175
G1 X16.0652 Y-24.1711
G1 X16.0929 Y-24.1563
G1 X16.1746 Y-24.1175
G1 X16.2033 Y-24.1047
G1 X16.2326 Y-24.0934
G1 X16.3031 Y-24.0682
G1 X16.3329 Y-24.0584
G1 X16.3632 Y-24.0500
G1 X16.4357 Y-24.0318
G1 X16.4663 Y-24.0249
G1 X16.4973 Y-24.0196
G1 X16.5612 Y-24.0101
G1 X25.9961 Y-14.5752
G1 X26.0073 Y-14.5642
G1 X26.0406 Y-14.5338
G1 X26.0524 Y-14.5234
G1 X26.0767 Y-14.5034
G1 X26.1256 Y-14.4672
G1 X26.1517 Y-14.4497
G1 X26.1651 Y-14.4415
G1 X26.2039 Y-14.4184
G1 X26.2177 Y-14.4109
G1 X26.2457 Y-14.3967
G1 X26.2866 Y-14.3776
G1 X26.3157 Y-14.3656
G1 X26.3304 Y-14.3601
G1 X26.3730 Y-14.3451
G1 X26.3879 Y-14.3403
G1 X26.4182 Y-14.3320
G1 X26.4621 Y-14.3212
G1 X26.4774 Y-14.3179
G1 X26.5084 Y-14.3125
G1 X26.5531 Y-14.3061
G1 X26.5687 Y-14.3044
G1 X26.6000 Y-14.3021
G1 X26.6451 Y-14.3000
G1 X32.8568 Y-14.2999
G1 X32.8882 Y-14.2655
G1 X32.9104 Y-14.2433
G1 X32.9885 Y-14.1725
G1 X33.0128 Y-14.1526
G1 X33.0847 Y-14.0990
G1 X33.1104 Y-14.0809
G1 X33.1236 Y-14.0724
G1 X33.2140 Y-14.0182
G1 X33.2417 Y-14.0034
G1 X33.3118 Y-13.9700
G1 X33.2558 Y-13.9435
G1 X33.2277 Y-13.9294
G1 X33.2004 Y-13.9139
G1 X33.1369 Y-13.8759
G1 X33.1104 Y-13.8591
G1 X33.0974 Y-13.8502
G1 X33.0128 Y-13.7874
G1 X33.0005 Y-13.7776
G1 X32.9767 Y-13.7571
G1 X32.9219 Y-13.7074
G1 X32.8992 Y-13.6857
G1 X32.8775 Y-13.6630
G1 X32.8278 Y-13.6081
G1 X32.8073 Y-13.5843
G1 X32.7975 Y-13.5721
G1 X32.7347 Y-13.4874
G1 X32.7172 Y-13.4613
G1 X32.7090 Y-13.4479
G1 X32.6709 Y-13.3845
G1 X32.6555 Y-13.3571
G1 X32.6413 Y-13.3291
G1 X32.6097 Y-13.2622
G1 X32.5970 Y-13.2335
G1 X32.5911 Y-13.2189
G1 X32.5556 Y-13.1196
G1 X32.5509 Y-13.1047
G1 X32.5425 Y-13.0744
G1 X32.5245 Y-13.0026
G1 X32.5176 Y-12.9720
G1 X32.5123 Y-12.9410
G1 X32.5014 Y-12.8678
G1 X32.4993 Y-12.8522
G1 X32.4962 Y-12.8210
G1 X32.4911 Y-12.7157
G1 X32.4911 Y-12.6843
G1 X32.4916 Y-12.6686
G1 X32.4953 Y-12.5947
G1 X32.4976 Y-12.5634
G1 X32.5014 Y-12.5322
G1 X32.5123 Y-12.4590
G1 X32.5148 Y-12.4435
G1 X32.5209 Y-12.4127
G1 X32.5465 Y-12.3104
G1 X32.5556 Y-12.2804
G1 X32.5607 Y-12.2655
G1 X32.5857 Y-12.1958
G1 X32.5970 Y-12.1665
G1 X32.6097 Y-12.1378
G1 X32.6413 Y-12.0709
G1 X32.6555 Y-12.0429
G1 X32.6630 Y-12.0291
G1 X32.7172 Y-11.9387
G1 X32.7347 Y-11.9126
G1 X32.7439 Y-11.8999
G1 X32.7880 Y-11.8404
G1 X32.8073 Y-11.8157
G1 X32.8278 Y-11.7919
G1 X32.8728 Y-11.7423
G0 Z2.0000
G0 X36.0718 Y-5.8401
F500
G1 Z0.0000 F500
F500
G1 X25.4149 Y-5.8401
G1 X22.6450 Y-8.6101
G1 X22.6836 Y-8.6003
G1 X22.7056 Y-8.5953
G1 X22.7278 Y-8.5914
G1 X22.7570 Y-8.5871
G1 X22.7794 Y-8.5844
G1 X22.7906 Y-8.5834
G1 X22.8313 Y-8.5813
G1 X22.8539 Y-8.5807
G1 X38.8395 Y-8.5807
G1 X38.8386 Y-6.0673
G1 X38.8173 Y-6.0513
G1 X38.7999 Y-6.0370
G1 X38.7259 Y-5.9699
G1 X38.7099 Y-5.9540
G1 X38.7022 Y-5.9457
G1 X38.6504 Y-5.8884
G1 X38.6356 Y-5.8713
G1 X38.6286 Y-5.8625
G1 X38.5691 Y-5.7823
G1 X38.5627 Y-5.7730
G1 X38.5506 Y-5.7539
G1 X38.5109 Y-5.6877
G1 X38.4998 Y-5.6680
G1 X38.4896 Y-5.6479
G1 X38.4519 Y-5.5677
G1 X38.4432 Y-5.5469
G1 X38.4393 Y-5.5363
G1 X38.4133 Y-5.4635
G1 X38.4062 Y-5.4421
G1 X38.4002 Y-5.4203
G1 X38.3814 Y-5.3454
G1 X38.3764 Y-5.3234
G1 X38.3726 Y-5.3011
G1 X38.3612 Y-5.2247
G1 X38.3585 Y-5.2023
G1 X38.3568 Y-5.1797
G1 X38.3530 Y-5.1026
G1 X38.3525 Y-5.0800
G1 X38.3530 Y-5.0574
G1 X38.3575 Y-4.9690
G1 X38.3585 Y-4.9577
G1 X38.3612 Y-4.9353
G1 X38.3744 Y-4.8477
G1 X38.3788 Y-4.8256
G1 X38.3855 Y-4.7982
G1 X38.2257 Y-4.6383
G1 X38.2501 Y-4.7071
G1 X38.2567 Y-4.7287
G1 X38.2783 Y-4.8146
G1 X38.2810 Y-4.8256
G1 X38.2854 Y-4.8477
G1 X38.2985 Y-4.9353
G1 X38.3013 Y-4.9577
G1 X38.3029 Y-4.9803
G1 X38.3067 Y-5.0574
G1 X38.3073 Y-5.0800
G1 X38.3067 Y-5.1026
G1 X38.3029 Y-5.1797
G1 X38.3013 Y-5.2023
G1 X38.2985 Y-5.2247
G1 X38.2872 Y-5.3011
G1 X38.2833 Y-5.3234
G1 X38.2783 Y-5.3454
G1 X38.2596 Y-5.4203
G1 X38.2535 Y-5.4421
G1 X38.2465 Y-5.4635
G1 X38.2204 Y-5.5363
G1 X38.2165 Y-5.5469
G1 X38.2079 Y-5.5677
G1 X38.1701 Y-5.6479
G1 X38.1600 Y-5.6680
G1 X38.1488 Y-5.6877
G1 X38.1091 Y-5.7539
G1 X38.0970 Y-5.7730
G1 X38.0906 Y-5.7823
G1 X38.0380 Y-5.8535
G1 X38.0312 Y-5.8625
G1 X38.0168 Y-5.8800
G1 X37.9575 Y-5.9457
G1 X37.9419 Y-5.9620
G1 X37.9256 Y-5.9776
G1 X37.8683 Y-6.0295
G1 X37.8512 Y-6.0443
G1 X37.8334 Y-6.0581
G1 X37.7713 Y-6.1042
G1 X37.7529 Y-6.1172
G1 X37.7338 Y-6.1293
G1 X37.6578 Y-6.1747
G1 X37.6479 Y-6.1801
G1 X37.6277 Y-6.1903
G1 X37.5476 Y-6.2280
G1 X37.5267 Y-6.2366
G1 X37.5162 Y-6.2406
G1 X37.4434 Y-6.2666
G1 X37.4220 Y-6.2737
G1 X37.4002 Y-6.2797
G1 X37.3143 Y-6.3011
G1 X37.2921 Y-6.3055
G1 X37.2810 Y-6.3073
G1 X37.2045 Y-6.3186
G1 X37.1821 Y-6.3214
G1 X37.1596 Y-6.3231
G1 X37.0824 Y-6.3268
G1 X37.0599 Y-6.3274
G1 X37.0373 Y-6.3268
G1 X36.9601 Y-6.3231
G1 X36.9376 Y-6.3214
G1 X36.9152 Y-6.3186
G1 X36.8387 Y-6.3073
G1 X36.8165 Y-6.3034
G1 X36.7945 Y-6.2985
G1 X36.7195 Y-6.2797
G1 X36.6978 Y-6.2737
G1 X36.6763 Y-6.2666
G1 X36.6036 Y-6.2406
G1 X36.5825 Y-6.2324
G1 X36.5619 Y-6.2233
G1 X36.4920 Y-6.1903
G1 X36.4718 Y-6.1801
G1 X36.4522 Y-6.1690
G1 X36.3763 Y-6.1233
G1 X36.3575 Y-6.1108
G1 X36.3484 Y-6.1042
G1 X36.2863 Y-6.0581
G1 X36.2685 Y-6.0443
G1 X36.2514 Y-6.0295
G1 X36.1859 Y-5.9699
G1 X36.1699 Y-5.9540
G1 X36.1622 Y-5.9457
G1 X36.1029 Y-5.8800
G1 X36.0886 Y-5.8625
G1 X36.0718 Y-5.8401
G0 Z2.0000
G0 X36.1642 Y-5.6601
F500
G1 Z0.0000 F500
F500
G1 X36.1723 Y-5.6730
G1 X36.1803 Y-5.6843
G1 X36.2263 Y-5.7463
G1 X36.2347 Y-5.7572
G1 X36.2437 Y-5.7676
G1 X36.2956 Y-5.8248
G1 X36.3051 Y-5.8348
G1 X36.3150 Y-5.8442
G1 X36.3723 Y-5.8961
G1 X36.3827 Y-5.9051
G1 X36.3935 Y-5.9136
G1 X36.4556 Y-5.9596
G1 X36.4668 Y-5.9675
G1 X36.4785 Y-5.9749
G1 X36.5447 Y-6.0146
G1 X36.5567 Y-6.0214
G1 X36.5690 Y-6.0275
G1 X36.6388 Y-6.0606
G1 X36.6514 Y-6.0661
G1 X36.6642 Y-6.0711
G1 X36.7370 Y-6.0971
G1 X36.7500 Y-6.1014
G1 X36.7633 Y-6.1051
G1 X36.8382 Y-6.1239
G1 X36.8516 Y-6.1269
G1 X36.8652 Y-6.1292
G1 X36.9416 Y-6.1406
G1 X36.9552 Y-6.1423
G1 X36.9689 Y-6.1433
G1 X37.0461 Y-6.1471
G1 X37.0599 Y-6.1474
G1 X37.0736 Y-6.1471
G1 X37.1508 Y-6.1433
G1 X37.1645 Y-6.1423
G1 X37.1781 Y-6.1406
G1 X37.2546 Y-6.1292
G1 X37.2681 Y-6.1269
G1 X37.2815 Y-6.1239
G1 X37.3565 Y-6.1051
G1 X37.3697 Y-6.1014
G1 X37.3828 Y-6.0971
G1 X37.4555 Y-6.0711
G1 X37.4683 Y-6.0661
G1 X37.4809 Y-6.0606
G1 X37.5508 Y-6.0275
G1 X37.5630 Y-6.0214
G1 X37.5750 Y-6.0146
G1 X37.6413 Y-5.9749
G1 X37.6529 Y-5.9675
G1 X37.6641 Y-5.9596
G1 X37.7262 Y-5.9136
G1 X37.7370 Y-5.9051
G1 X37.7474 Y-5.8961
G1 X37.8047 Y-5.8442
G1 X37.8146 Y-5.8348
G1 X37.8241 Y-5.8248
G1 X37.8760 Y-5.7676
G1 X37.8850 Y-5.7572
G1 X37.8934 Y-5.7463
G1 X37.9395 Y-5.6843
G1 X37.9474 Y-5.6730
G1 X37.9547 Y-5.6614
G1 X37.9944 Y-5.5951
G1 X38.0012 Y-5.5832
G1 X38.0074 Y-5.5709
G1 X38.0404 Y-5.5010
G1 X38.0460 Y-5.4885
G1 X38.0510 Y-5.4757
G1 X38.0770 Y-5.4029
G1 X38.0813 Y-5.3898
G1 X38.0850 Y-5.3766
G1 X38.1037 Y-5.3016
G1 X38.1068 Y-5.2882
G1 X38.1091 Y-5.2747
G1 X38.1204 Y-5.1983
G1 X38.1221 Y-5.1846
G1 X38.1231 Y-5.1709
G1 X38.1269 Y-5.0937
G1 X38.1273 Y-5.0800
G1 X38.1269 Y-5.0663
G1 X38.1231 Y-4.9891
G1 X38.1221 Y-4.9754
G1 X38.1204 Y-4.9617
G1 X38.1091 Y-4.8853
G1 X38.1068 Y-4.8718
G1 X38.1037 Y-4.8584
G1 X38.0850 Y-4.7834
G1 X38.0813 Y-4.7702
G1 X38.0770 Y-4.7571
G1 X38.0510 Y-4.6843
G1 X38.0460 Y-4.6715
G1 X38.0404 Y-4.6590
G1 X38.0074 Y-4.5891
G1 X38.0012 Y-4.5768
G1 X37.9944 Y-4.5649
G1 X37.9547 Y-4.4986
G1 X37.9474 Y-4.4870
G1 X37.9395 Y-4.4757
G1 X37.8934 Y-4.4137
G1 X37.8850 Y-4.4028
G1 X37.8760 Y-4.3924
G1 X37.8241 Y-4.3352
G1 X37.8146 Y-4.3252
G1 X37.8047 Y-4.3158
G1 X37.7474 Y-4.2639
G1 X37.7370 Y-4.2549
G1 X37.7262 Y-4.2464
G1 X37.6641 Y-4.2004
G1 X37.6529 Y-4.1925
G1 X37.6413 Y-4.1851
G1 X37.5750 Y-4.1454
G1 X37.5630 Y-4.1386
G1 X37.5508 Y-4.1325
G1 X37.4809 Y-4.0994
G1 X37.4683 Y-4.0939
G1 X37.4555 Y-4.0889
G1 X37.3828 Y-4.0629
G1 X37.3697 Y-4.0586
G1 X37.3565 Y-4.0549
G1 X37.2815 Y-4.0361
G1 X37.2681 Y-4.0331
G1 X37.2546 Y-4.0308
G1 X37.1781 Y-4.0194
G1 X37.1645 Y-4.0177
G1 X37.1508 Y-4.0167
G1 X37.0736 Y-4.0129
G1 X37.0599 Y-4.0126
G1 X37.0461 Y-4.0129
G1 X36.9689 Y-4.0167
G1 X36.9552 Y-4.0177
G1 X36.9416 Y-4.0194
G1 X36.8652 Y-4.0308
G1 X36.8516 Y-4.0331
G1 X36.8382 Y-4.0361
G1 X36.7633 Y-4.0549
G1 X36.7500 Y-4.0586
G1 X36.7370 Y-4.0629
G1 X36.6642 Y-4.0889
G1 X36.6514 Y-4.0939
G1 X36.6388 Y-4.0994
G1 X36.5690 Y-4.1325
G1 X36.5567 Y-4.1386
G1 X36.5447 Y-4.1454
G1 X36.4785 Y-4.1851
G1 X36.4668 Y-4.1925
G1 X36.4556 Y-4.2004
G1 X36.3935 Y-4.2464
G1 X36.3827 Y-4.2549
G1 X36.3723 Y-4.2639
G1 X36.3150 Y-4.3158
G1 X36.3051 Y-4.3252
G1 X36.2956 Y-4.3352
G1 X36.2437 Y-4.3924
G1 X36.2347 Y-4.4028
G1 X36.2263 Y-4.4137
G1 X36.1803 Y-4.4757
G1 X36.1723 Y-4.4870
G1 X36.1649 Y-4.4987
G1 X25.1000 Y-4.4999
G1 X25.0569 Y-4.5016
G1 X25.0432 Y-4.5026
G1 X25.0004 Y-4.5086
G1 X24.9801 Y-4.5124
G1 X24.9449 Y-4.5212
G1 X24.9316 Y-4.5248
G1 X24.9186 Y-4.5291
G1 X24.8844 Y-4.5415
G1 X24.8654 Y-4.5496
G1 X24.8265 Y-4.5684
G1 X24.8146 Y-4.5751
G1 X24.7835 Y-4.5939
G1 X24.7665 Y-4.6055
G1 X24.7320 Y-4.6315
G1 X24.6997 Y-4.6603
G1 X24.6898 Y-4.6698
G1 X3.0213 Y-26.3383
G1 X2.9920 Y-26.3700
G1 X2.9788 Y-26.3858
G1 X2.9530 Y-26.4205
G1 X2.9418 Y-26.4378
G1 X2.9199 Y-26.4750
G1 X2.9011 Y-26.5139
G1 X2.8930 Y-26.5328
G1 X2.8784 Y-26.5735
G1 X2.8744 Y-26.5867
G1 X2.8655 Y-26.6219
G1 X2.8625 Y-26.6353
G1 X2.8602 Y-26.6488
G1 X2.8542 Y-26.6916
G1 X2.8517 Y-26.7347
G1 X2.8514 Y-26.7485
G1 X2.8514 Y-74.4423
G1 X2.8532 Y-74.4855
G1 X2.8542 Y-74.4992
G1 X2.8602 Y-74.5420
G1 X2.8625 Y-74.5555
G1 X2.8655 Y-74.5689
G1 X2.8744 Y-74.6041
G1 X2.8784 Y-74.6173
G1 X2.8906 Y-74.6515
G1 X2.8955 Y-74.6643
G1 X2.9011 Y-74.6769
G1 X2.9167 Y-74.7097
G1 X2.9232 Y-74.7218
G1 X2.9418 Y-74.7530
G1 X2.9492 Y-74.7646
G1 X2.9571 Y-74.7759
G1 X2.9831 Y-74.8104
G1 X2.9920 Y-74.8208
G1 X3.0213 Y-74.8525
G1 X11.0233 Y-82.8546
G1 X11.0551 Y-82.8838
G1 X11.0709 Y-82.8971
G1 X11.1056 Y-82.9228
G1 X11.1228 Y-82.9341
G1 X11.1601 Y-82.9560
G1 X11.1990 Y-82.9747
G1 X11.2179 Y-82.9829
G1 X11.2586 Y-82.9974
G1 X11.2717 Y-83.0014
G1 X11.3070 Y-83.0103
G1 X11.3204 Y-83.0133
G1 X11.3339 Y-83.0157
G1 X11.3767 Y-83.0217
G1 X11.3904 Y-83.0227
G1 X11.4336 Y-83.0245
G1 X33.1251 Y-83.0245
G1 X33.1683 Y-83.0227
G1 X33.1820 Y-83.0217
G1 X33.1957 Y-83.0200
G1 X33.2316 Y-83.0146
G1 X33.2451 Y-83.0119
G1 X33.2803 Y-83.0032
G1 X33.2936 Y-82.9995
G1 X33.3066 Y-82.9952
G1 X33.3472 Y-82.9803
G1 X33.3864 Y-82.9622
G1 X33.3986 Y-82.9560
G1 X33.4106 Y-82.9492
G1 X33.4475 Y-82.9267
G1 X33.4824 Y-82.9012
G1 X33.4932 Y-82.8928
G1 X33.5036 Y-82.8838
G1 X33.5354 Y-82.8546
G1 X40.5107 Y-75.8792
G1 X40.5400 Y-75.8474
G1 X40.5533 Y-75.8317
G1 X40.5790 Y-75.7970
G1 X40.5902 Y-75.7797
G1 X40.6121 Y-75.7425
G1 X40.6309 Y-75.7036
G1 X40.6390 Y-75.6846
G1 X40.6514 Y-75.6504
G1 X40.6557 Y-75.6374
G1 X40.6593 Y-75.6241
G1 X40.6695 Y-75.5822
G1 X40.6762 Y-75.5395
G1 X40.6784 Y-75.5190
G1 X40.6803 Y-75.4827
G1 X40.6806 Y-75.4690
G1 X40.6806 Y-59.9808
G1 X47.0788 Y-53.5827
G1 X47.1473 Y-53.6072
G1 X47.1604 Y-53.6115
G1 X47.1736 Y-53.6152
G1 X47.2498 Y-53.6342
G1 X47.2699 Y-53.6385
G1 X47.3544 Y-53.6511
G1 X47.3680 Y-53.6528
G1 X47.3817 Y-53.6538
G1 X47.4670 Y-53.6579
G1 X47.4876 Y-53.6577
G1 X47.5660 Y-53.6538
G1 X47.5797 Y-53.6528
G1 X47.5934 Y-53.6511
G1 X47.6710 Y-53.6396
G1 X47.6846 Y-53.6372
G1 X47.6980 Y-53.6342
G1 X47.7808 Y-53.6134
G1 X47.8004 Y-53.6072
G1 X47.8743 Y-53.5807
G1 X47.8872 Y-53.5758
G1 X47.8997 Y-53.5702
G1 X47.9707 Y-53.5367
G1 X47.9830 Y-53.5305
G1 X47.9949 Y-53.5237
G1 X48.0623 Y-53.4833
G1 X48.0739 Y-53.4760
G1 X48.0851 Y-53.4681
G1 X48.1482 Y-53.4213
G1 X48.1590 Y-53.4129
G1 X48.1694 Y-53.4039
G1 X48.2276 Y-53.3512
G1 X48.2375 Y-53.3417
G1 X48.2470 Y-53.3317
G1 X48.2997 Y-53.2736
G1 X48.3087 Y-53.2631
G1 X48.3172 Y-53.2523
G1 X48.3639 Y-53.1893
G1 X48.3718 Y-53.1780
G1 X48.3792 Y-53.1664
G1 X48.4196 Y-53.0991
G1 X48.4263 Y-53.0871
G1 X48.4325 Y-53.0748
G1 X48.4661 Y-53.0039
G1 X48.4716 Y-52.9913
G1 X48.4766 Y-52.9785
G1 X48.5053 Y-52.8981
G1 X48.5110 Y-52.8783
G1 X48.5301 Y-52.8021
G1 X48.5331 Y-52.7887
G1 X48.5355 Y-52.7752
G1 X48.5470 Y-52.6975
G1 X48.5487 Y-52.6839
G1 X48.5497 Y-52.6702
G1 X48.5535 Y-52.5917
G1 X48.5539 Y-52.5780
G1 X48.5535 Y-52.5643
G1 X48.5497 Y-52.4858
G1 X48.5487 Y-52.4721
G1 X48.5470 Y-52.4585
G1 X48.5355 Y-52.3808
G1 X48.5317 Y-52.3606
G1 X48.5110 Y-52.2777
G1 X48.5074 Y-52.2645
G1 X48.5030 Y-52.2514
G1 X48.4766 Y-52.1775
G1 X48.4716 Y-52.1647
G1 X48.4661 Y-52.1521
G1 X48.4325 Y-52.0812
G1 X48.4263 Y-52.0689
G1 X48.4196 Y-52.0569
G1 X48.3792 Y-51.9896
G1 X48.3718 Y-51.9780
G1 X48.3639 Y-51.9667
G1 X48.3172 Y-51.9037
G1 X48.3087 Y-51.8929
G1 X48.2997 Y-51.8824
G1 X48.2470 Y-51.8243
G1 X48.2326 Y-51.8095
G1 X48.1694 Y-51.7521
G1 X48.1590 Y-51.7431
G1 X48.1482 Y-51.7347
G1 X48.0851 Y-51.6879
G1 X48.0681 Y-51.6763
G1 X47.9949 Y-51.6323
G1 X47.9830 Y-51.6255
G1 X47.9707 Y-51.6193
G1 X47.8997 Y-51.5858
G1 X47.8872 Y-51.5802
G1 X47.8743 Y-51.5753
G1 X47.8004 Y-51.5488
G1 X47.7874 Y-51.5445
G1 X47.7741 Y-51.5408
G1 X47.6980 Y-51.5218
G1 X47.6846 Y-51.5188
G1 X47.6710 Y-51.5164
G1 X47.5934 Y-51.5049
G1 X47.5797 Y-51.5032
G1 X47.5660 Y-51.5022
G1 X47.4876 Y-51.4983
G1 X47.4739 Y-51.4980
G1 X47.4601 Y-51.4983
G1 X47.3817 Y-51.5022
G1 X47.3680 Y-51.5032
G1 X47.3544 Y-51.5049
G1 X47.2767 Y-51.5164
G1 X47.2632 Y-51.5188
G1 X47.2498 Y-51.5218
G1 X47.1736 Y-51.5408
G1 X47.1604 Y-51.5445
G1 X47.1473 Y-51.5488
G1 X47.0734 Y-51.5753
G1 X47.0606 Y-51.5802
G1 X47.0480 Y-51.5858
G1 X46.9770 Y-51.6193
G1 X46.9648 Y-51.6255
G1 X46.9528 Y-51.6323
G1 X46.8796 Y-51.6763
G1 X46.8626 Y-51.6879
G1 X46.7941 Y-51.7389
G1 X46.7783 Y-51.7521
G1 X46.7201 Y-51.8048
G1 X46.7102 Y-51.8143
G1 X46.7007 Y-51.8243
G1 X46.6480 Y-51.8824
G1 X46.6390 Y-51.8929
G1 X46.6306 Y-51.9037
G1 X46.5838 Y-51.9667
G1 X46.5759 Y-51.9780
G1 X46.5685 Y-51.9896
G1 X46.5282 Y-52.0569
G1 X46.5182 Y-52.0750
G1 X46.4816 Y-52.1521
G1 X46.4761 Y-52.1647
G1 X46.4711 Y-52.1775
G1 X46.4447 Y-52.2514
G1 X46.4404 Y-52.2645
G1 X46.4367 Y-52.2777
G1 X46.4160 Y-52.3606
G1 X46.4123 Y-52.3808
G1 X46.4007 Y-52.4585
G1 X46.3985 Y-52.4790
G1 X46.3939 Y-52.5711
G1 X46.3939 Y-52.5849
G1 X46.3958 Y-52.6248
G1 X39.6903 Y-59.3303
G1 X39.6808 Y-59.3403
G1 X39.6565 Y-59.3672
G1 X39.6436 Y-59.3833
G1 X39.6181 Y-59.4182
G1 X39.6108 Y-59.4298
G1 X39.5889 Y-59.4671
G1 X39.5827 Y-59.4793
G1 X39.5672 Y-59.5122
G1 X39.5596 Y-59.5313
G1 X39.5453 Y-59.5721
G1 X39.5345 Y-59.6139
G1 X39.5302 Y-59.6341
G1 X39.5239 Y-59.6768
G1 X39.5221 Y-59.6974
G1 X39.5204 Y-59.7405
G1 X39.5204 Y-75.2287
G1 X32.8848 Y-81.8642
G1 X11.6739 Y-81.8642
G1 X4.0117 Y-74.2020
G1 X4.0117 Y-26.9888
G1 X25.3403 Y-5.6601
G1 X36.1642 Y-5.6601
G0 Z2.0000
G0 X36.2685 Y-5.4801
F500
G1 Z0.0000 F500
F500
G1 X36.2784 Y-5.5005
G1 X36.3207 Y-5.5710
G1 X36.3248 Y-5.5770
G1 X36.3724 Y-5.6410
G1 X36.3771 Y-5.6467
G1 X36.4324 Y-5.7075
G1 X36.4969 Y-5.7660
G1 X36.5668 Y-5.8178
G1 X36.6415 Y-5.8626
G1 X36.7203 Y-5.8999
G1 X36.8023 Y-5.9292
G1 X36.8867 Y-5.9503
G1 X36.9729 Y-5.9631
G1 X37.0599 Y-5.9674
G1 X37.1468 Y-5.9631
G1 X37.2330 Y-5.9503
G1 X37.3175 Y-5.9292
G1 X37.3995 Y-5.8999
G1 X37.4782 Y-5.8626
G1 X37.5529 Y-5.8178
G1 X37.6228 Y-5.7660
G1 X37.6873 Y-5.7075
G1 X37.7458 Y-5.6430
G1 X37.7977 Y-5.5730
G1 X37.8425 Y-5.4983
G1 X37.8797 Y-5.4196
G1 X37.9090 Y-5.3376
G1 X37.9302 Y-5.2531
G1 X37.9430 Y-5.1670
G1 X37.9473 Y-5.0800
G1 X37.9430 Y-4.9930
G1 X37.9302 Y-4.9069
G1 X37.9090 Y-4.8224
G1 X37.8797 Y-4.7404
G1 X37.8425 Y-4.6617
G1 X37.8003 Y-4.5911
G1 X37.7949 Y-4.5830
G1 X37.7458 Y-4.5170
G1 X37.6907 Y-4.4561
G1 X37.6838 Y-4.4491
G1 X37.6228 Y-4.3940
G1 X37.5569 Y-4.3450
G1 X37.5487 Y-4.3395
G1 X37.4782 Y-4.2974
G1 X37.4039 Y-4.2621
G1 X37.3949 Y-4.2584
G1 X37.3175 Y-4.2308
G1 X37.2330 Y-4.2097
G1 X37.1517 Y-4.1975
G1 X37.1419 Y-4.1965
G1 X37.0599 Y-4.1926
G1 X36.9778 Y-4.1965
G1 X36.9680 Y-4.1975
G1 X36.8867 Y-4.2097
G1 X36.8023 Y-4.2308
G1 X36.7248 Y-4.2584
G1 X36.7158 Y-4.2621
G1 X36.6415 Y-4.2974
G1 X36.5710 Y-4.3395
G1 X36.5628 Y-4.3450
G1 X36.5008 Y-4.3910
G1 X36.4932 Y-4.3972
G1 X36.4324 Y-4.4525
G1 X36.3771 Y-4.5133
G1 X36.3709 Y-4.5209
G1 X36.3220 Y-4.5870
G1 X36.2784 Y-4.6595
G1 X36.2685 Y-4.6798
G1 X25.1000 Y-4.6799
G1 X25.0608 Y-4.6818
G1 X25.0268 Y-4.6867
G1 X25.0172 Y-4.6886
G1 X24.9839 Y-4.6971
G1 X24.9515 Y-4.7085
G1 X24.9424 Y-4.7123
G1 X24.9114 Y-4.7271
G1 X24.8798 Y-4.7459
G1 X24.8462 Y-4.7707
G1 X24.8171 Y-4.7971
G1 X3.1486 Y-26.4655
G1 X3.1222 Y-26.4946
G1 X3.1016 Y-26.5222
G1 X3.0962 Y-26.5303
G1 X3.0786 Y-26.5599
G1 X3.0638 Y-26.5909
G1 X3.0601 Y-26.5999
G1 X3.0494 Y-26.6300
G1 X3.0401 Y-26.6656
G1 X3.0382 Y-26.6753
G1 X3.0333 Y-26.7093
G1 X3.0314 Y-26.7485
G1 X3.0314 Y-74.4423
G1 X3.0329 Y-74.4766
G1 X3.0339 Y-74.4864
G1 X3.0391 Y-74.5204
G1 X3.0486 Y-74.5585
G1 X3.0618 Y-74.5954
G1 X3.0764 Y-74.6266
G1 X3.0810 Y-74.6352
G1 X3.0962 Y-74.6605
G1 X3.1016 Y-74.6686
G1 X3.1222 Y-74.6962
G1 X3.1486 Y-74.7253
G1 X11.1506 Y-82.7273
G1 X11.1797 Y-82.7537
G1 X11.2072 Y-82.7742
G1 X11.2154 Y-82.7797
G1 X11.2449 Y-82.7972
G1 X11.2759 Y-82.8120
G1 X11.2850 Y-82.8158
G1 X11.3151 Y-82.8265
G1 X11.3507 Y-82.8357
G1 X11.3603 Y-82.8376
G1 X11.3943 Y-82.8426
G1 X11.4336 Y-82.8445
G1 X33.1251 Y-82.8445
G1 X33.1644 Y-82.8426
G1 X33.1984 Y-82.8376
G1 X33.2080 Y-82.8357
G1 X33.2366 Y-82.8286
G1 X33.2460 Y-82.8257
G1 X33.2783 Y-82.8140
G1 X33.3138 Y-82.7972
G1 X33.3475 Y-82.7770
G1 X33.3790 Y-82.7537
G1 X33.4081 Y-82.7273
G1 X40.3834 Y-75.7519
G1 X40.4098 Y-75.7228
G1 X40.4304 Y-75.6953
G1 X40.4358 Y-75.6871
G1 X40.4534 Y-75.6576
G1 X40.4682 Y-75.6266
G1 X40.4720 Y-75.6175
G1 X40.4834 Y-75.5851
G1 X40.4930 Y-75.5470
G1 X40.4981 Y-75.5131
G1 X40.4991 Y-75.5033
G1 X40.5006 Y-75.4690
G1 X40.5006 Y-59.9063
G1 X47.0405 Y-53.3664
G1 X47.0540 Y-53.3739
G1 X47.1294 Y-53.4095
G1 X47.2126 Y-53.4392
G1 X47.2983 Y-53.4607
G1 X47.3808 Y-53.4731
G1 X47.3905 Y-53.4740
G1 X47.4690 Y-53.4779
G1 X47.4788 Y-53.4779
G1 X47.5621 Y-53.4737
G1 X47.6446 Y-53.4615
G1 X47.6542 Y-53.4596
G1 X47.7351 Y-53.4392
G1 X47.8183 Y-53.4095
G1 X47.8981 Y-53.3717
G1 X47.9739 Y-53.3263
G1 X48.0448 Y-53.2737
G1 X48.1067 Y-53.2178
G1 X48.1136 Y-53.2108
G1 X48.1664 Y-53.1527
G1 X48.1726 Y-53.1451
G1 X48.2222 Y-53.0780
G1 X48.2652 Y-53.0065
G1 X48.2698 Y-52.9979
G1 X48.3054 Y-52.9224
G1 X48.3344 Y-52.8416
G1 X48.3555 Y-52.7584
G1 X48.3574 Y-52.7487
G1 X48.3695 Y-52.6662
G1 X48.3739 Y-52.5780
G1 X48.3695 Y-52.4898
G1 X48.3574 Y-52.4073
G1 X48.3555 Y-52.3976
G1 X48.3364 Y-52.3215
G1 X48.3336 Y-52.3121
G1 X48.3054 Y-52.2336
G1 X48.2676 Y-52.1537
G1 X48.2222 Y-52.0780
G1 X48.1726 Y-52.0109
G1 X48.1664 Y-52.0033
G1 X48.1136 Y-51.9452
G1 X48.1067 Y-51.9382
G1 X48.0448 Y-51.8823
G1 X47.9739 Y-51.8297
G1 X47.9024 Y-51.7867
G1 X47.8937 Y-51.7821
G1 X47.8183 Y-51.7465
G1 X47.7351 Y-51.7168
G1 X47.6494 Y-51.6953
G1 X47.5669 Y-51.6829
G1 X47.5572 Y-51.6820
G1 X47.4788 Y-51.6781
G1 X47.4690 Y-51.6781
G1 X47.3856 Y-51.6823
G1 X47.2983 Y-51.6953
G1 X47.2126 Y-51.7168
G1 X47.1340 Y-51.7447
G1 X47.1250 Y-51.7485
G1 X47.0540 Y-51.7821
G1 X47.0453 Y-51.7867
G1 X46.9738 Y-51.8297
G1 X46.9048 Y-51.8808
G1 X46.8992 Y-51.8855
G1 X46.8375 Y-51.9416
G1 X46.7814 Y-52.0033
G1 X46.7751 Y-52.0109
G1 X46.7255 Y-52.0780
G1 X46.6826 Y-52.1495
G1 X46.6779 Y-52.1581
G1 X46.6415 Y-52.2359
G1 X46.6142 Y-52.3121
G1 X46.6113 Y-52.3215
G1 X46.5912 Y-52.4024
G1 X46.5785 Y-52.4873
G1 X46.5740 Y-52.5731
G1 X46.5739 Y-52.5805
G1 X46.5780 Y-52.6638
G1 X46.5821 Y-52.6931
G1 X39.8176 Y-59.4576
G1 X39.7944 Y-59.4830
G1 X39.7882 Y-59.4906
G1 X39.7678 Y-59.5182
G1 X39.7476 Y-59.5519
G1 X39.7328 Y-59.5829
G1 X39.7290 Y-59.5920
G1 X39.7176 Y-59.6244
G1 X39.7091 Y-59.6577
G1 X39.7072 Y-59.6673
G1 X39.7023 Y-59.7013
G1 X39.7004 Y-59.7405
G1 X39.7004 Y-75.3032
G1 X32.9594 Y-82.0442
G1 X11.5993 Y-82.0442
G1 X3.8317 Y-74.2766
G1 X3.8317 Y-26.9142
G1 X25.2658 Y-5.4802
G1 X36.2685 Y-5.4801
G0 Z2.0000
G0 X38.3299 Y-5.7309
F500
G1 Z0.0000 F500
F500
G1 X38.3187 Y-5.7529
G1 X38.3032 Y-5.7802
G1 X38.2635 Y-5.8465
G1 X38.2467 Y-5.8730
G1 X38.2286 Y-5.8987
G1 X38.1731 Y-5.9733
G1 X38.1531 Y-5.9976
G1 X38.1427 Y-6.0093
G1 X38.0908 Y-6.0666
G1 X38.0692 Y-6.0893
G1 X38.0464 Y-6.1110
G1 X37.9774 Y-6.1733
G1 X37.9654 Y-6.1834
G1 X37.9406 Y-6.2027
G1 X37.8658 Y-6.2580
G1 X37.8397 Y-6.2754
G1 X37.7601 Y-6.3234
G1 X37.7327 Y-6.3389
G1 X37.7047 Y-6.3530
G1 X37.6348 Y-6.3860
G1 X37.6061 Y-6.3987
G1 X37.5915 Y-6.4046
G1 X37.5040 Y-6.4361
G1 X37.4742 Y-6.4459
G1 X37.4439 Y-6.4543
G1 X37.3537 Y-6.4767
G1 X37.3229 Y-6.4828
G1 X37.3074 Y-6.4853
G1 X37.2309 Y-6.4967
G1 X37.1998 Y-6.5005
G1 X37.1684 Y-6.5028
G1 X37.0756 Y-6.5072
G1 X37.0599 Y-6.5074
G1 X37.0285 Y-6.5066
G1 X36.9513 Y-6.5028
G1 X36.9200 Y-6.5005
G1 X36.8888 Y-6.4967
G1 X36.8123 Y-6.4853
G1 X36.7814 Y-6.4800
G1 X36.7507 Y-6.4731
G1 X36.6758 Y-6.4543
G1 X36.6455 Y-6.4459
G1 X36.6157 Y-6.4361
G1 X36.5429 Y-6.4101
G1 X36.5282 Y-6.4046
G1 X36.4992 Y-6.3926
G1 X36.4150 Y-6.3530
G1 X36.4009 Y-6.3461
G1 X36.3732 Y-6.3313
G1 X36.2800 Y-6.2754
G1 X36.2668 Y-6.2668
G1 X36.2412 Y-6.2488
G1 X36.1666 Y-6.1932
G1 X36.1543 Y-6.1834
G1 X36.1305 Y-6.1629
G1 X36.0733 Y-6.1110
G1 X36.0505 Y-6.0893
G1 X36.0289 Y-6.0666
G1 X35.9868 Y-6.0201
G1 X25.4894 Y-6.0201
G1 X23.1089 Y-8.4007
G1 X38.6595 Y-8.4007
G1 X38.6587 Y-6.1521
G1 X38.6018 Y-6.1003
G1 X38.5796 Y-6.0781
G1 X38.5170 Y-6.0093
G1 X38.5066 Y-5.9976
G1 X38.4866 Y-5.9733
G1 X38.4311 Y-5.8987
G1 X38.4130 Y-5.8730
G1 X38.4045 Y-5.8599
G1 X38.3486 Y-5.7666
G1 X38.3410 Y-5.7529
G1 X38.3299 Y-5.7309
G0 Z2.0000
G0 X38.3299 Y-6.0644
F500
G1 Z0.0000 F500
F500
G1 X38.3150 Y-6.0840
G1 X38.2894 Y-6.1151
G1 X38.2105 Y-6.2022
G1 X38.1821 Y-6.2307
G1 X38.1673 Y-6.2444
G1 X38.1101 Y-6.2962
G1 X38.0796 Y-6.3225
G1 X38.0479 Y-6.3473
G1 X37.9858 Y-6.3933
G1 X37.9529 Y-6.4165
G1 X37.9189 Y-6.4380
G1 X37.8526 Y-6.4778
G1 X37.8176 Y-6.4976
G1 X37.7997 Y-6.5069
G1 X37.6935 Y-6.5571
G1 X37.6563 Y-6.5725
G1 X37.6374 Y-6.5795
G1 X37.5647 Y-6.6056
G1 X37.5265 Y-6.6182
G1 X37.4877 Y-6.6289
G1 X37.4127 Y-6.6477
G1 X37.3931 Y-6.6523
G1 X37.3537 Y-6.6602
G1 X37.2374 Y-6.6774
G1 X37.1974 Y-6.6814
G1 X37.1773 Y-6.6826
G1 X37.1001 Y-6.6864
G1 X37.0599 Y-6.6874
G1 X37.0196 Y-6.6864
G1 X36.9424 Y-6.6826
G1 X36.9023 Y-6.6797
G1 X36.8624 Y-6.6747
G1 X36.7859 Y-6.6634
G1 X36.7463 Y-6.6565
G1 X36.7070 Y-6.6477
G1 X36.6320 Y-6.6289
G1 X36.5933 Y-6.6182
G1 X36.5550 Y-6.6056
G1 X36.4823 Y-6.5795
G1 X36.4447 Y-6.5650
G1 X36.4079 Y-6.5487
G1 X36.3381 Y-6.5157
G1 X36.3021 Y-6.4976
G1 X36.2671 Y-6.4778
G1 X36.2008 Y-6.4380
G1 X36.1668 Y-6.4165
G1 X36.1339 Y-6.3933
G1 X36.0719 Y-6.3473
G1 X36.0401 Y-6.3225
G1 X36.0097 Y-6.2962
G1 X35.9524 Y-6.2444
G1 X35.9233 Y-6.2166
G1 X35.9073 Y-6.2001
G1 X25.5640 Y-6.2001
G1 X23.5435 Y-8.2207
G1 X38.4794 Y-8.2207
G1 X38.4787 Y-6.2316
G1 X38.4633 Y-6.2166
G1 X38.4492 Y-6.2022
G1 X38.3836 Y-6.1302
G1 X38.3573 Y-6.0997
G1 X38.3447 Y-6.0840
G1 X38.3299 Y-6.0644
G0 Z2.0000
G0 X40.7199 Y-5.9643
F500
G1 Z0.0000 F500
F500
G1 X40.7033 Y-5.9855
G1 X40.6931 Y-5.9976
G1 X40.6202 Y-6.0781
G1 X40.5979 Y-6.1003
G1 X40.5400 Y-6.1531
G1 X40.5400 Y-11.0477
G1 X43.7922 Y-14.2999
G1 X58.6390 Y-14.2998
G1 X58.6714 Y-14.2561
G1 X58.6810 Y-14.2436
G1 X58.6940 Y-14.2275
G1 X58.6682 Y-14.2144
G1 X58.6544 Y-14.2069
G1 X58.6275 Y-14.1907
G1 X58.6143 Y-14.1821
G1 X58.6013 Y-14.1733
G1 X58.5761 Y-14.1545
G1 X58.5518 Y-14.1346
G1 X58.5401 Y-14.1242
G1 X58.5173 Y-14.1025
G1 X58.5063 Y-14.0913
G1 X58.4852 Y-14.0680
G1 X58.4751 Y-14.0560
G1 X58.4558 Y-14.0312
G1 X58.4377 Y-14.0056
G1 X58.4292 Y-13.9924
G1 X58.4209 Y-13.9790
G1 X58.4054 Y-13.9517
G1 X58.3982 Y-13.9378
G1 X58.3848 Y-13.9094
G1 X58.3727 Y-13.8803
G1 X58.3673 Y-13.8656
G1 X58.3622 Y-13.8508
G1 X58.3530 Y-13.8207
G1 X58.3490 Y-13.8055
G1 X58.3422 Y-13.7749
G1 X58.3393 Y-13.7594
G1 X58.3347 Y-13.7283
G1 X58.3316 Y-13.6971
G1 X58.3306 Y-13.6814
G1 X58.3301 Y-13.6657
G1 X58.3299 Y-13.6401
G1 X57.8539 Y-13.6400
G1 X57.7931 Y-13.6370
G1 X57.7618 Y-13.6339
G1 X57.7016 Y-13.6250
G1 X57.6708 Y-13.6188
G1 X57.6269 Y-13.6080
G1 X57.5967 Y-13.5997
G1 X57.5817 Y-13.5949
G1 X57.5391 Y-13.5799
G1 X57.5098 Y-13.5686
G1 X57.4954 Y-13.5624
G1 X57.4545 Y-13.5433
G1 X57.4264 Y-13.5291
G1 X57.3991 Y-13.5137
G1 X57.3604 Y-13.4903
G1 X57.3473 Y-13.4817
G1 X57.3216 Y-13.4636
G1 X57.2854 Y-13.4366
G1 X57.2732 Y-13.4267
G1 X57.2494 Y-13.4062
G1 X57.2160 Y-13.3758
G1 X49.8602 Y-6.0201
G1 X43.5487 Y-6.0202
G1 X43.5397 Y-6.0532
G1 X43.5298 Y-6.0830
G1 X43.5244 Y-6.0977
G1 X43.5185 Y-6.1123
G1 X43.5058 Y-6.1410
G1 X43.4917 Y-6.1691
G1 X43.4841 Y-6.1829
G1 X43.4762 Y-6.1964
G1 X43.4594 Y-6.2230
G1 X43.4505 Y-6.2359
G1 X43.4318 Y-6.2611
G1 X43.4119 Y-6.2854
G1 X43.3908 Y-6.3087
G1 X43.3798 Y-6.3199
G1 X43.3571 Y-6.3416
G1 X43.3453 Y-6.3520
G1 X43.3210 Y-6.3719
G1 X43.3085 Y-6.3815
G1 X43.2958 Y-6.3907
G1 X43.2697 Y-6.4081
G1 X43.2427 Y-6.4243
G1 X43.2150 Y-6.4391
G1 X43.2009 Y-6.4460
G1 X43.1722 Y-6.4587
G1 X43.1576 Y-6.4645
G1 X43.1429 Y-6.4700
G1 X43.1130 Y-6.4798
G1 X43.0828 Y-6.4882
G1 X43.0675 Y-6.4918
G1 X43.0367 Y-6.4980
G1 X43.0056 Y-6.5026
G1 X42.9743 Y-6.5057
G1 X42.9587 Y-6.5066
G1 X42.9273 Y-6.5074
G1 X41.3525 Y-6.5074
G1 X41.3211 Y-6.5066
G1 X41.2897 Y-6.5043
G1 X41.2741 Y-6.5026
G1 X41.2430 Y-6.4980
G1 X41.2276 Y-6.4951
G1 X41.1970 Y-6.4882
G1 X41.1667 Y-6.4798
G1 X41.1369 Y-6.4700
G1 X41.1075 Y-6.4587
G1 X41.0788 Y-6.4460
G1 X41.0508 Y-6.4318
G1 X41.0234 Y-6.4163
G1 X40.9969 Y-6.3995
G1 X40.9712 Y-6.3815
G1 X40.9464 Y-6.3621
G1 X40.9344 Y-6.3520
G1 X40.9112 Y-6.3309
G1 X40.8889 Y-6.3087
G1 X40.8783 Y-6.2972
G1 X40.8577 Y-6.2734
G1 X40.8384 Y-6.2486
G1 X40.8203 Y-6.2230
G1 X40.8118 Y-6.2098
G1 X40.7956 Y-6.1829
G1 X40.7808 Y-6.1552
G1 X40.7739 Y-6.1410
G1 X40.7612 Y-6.1123
G1 X40.7499 Y-6.0830
G1 X40.7400 Y-6.0532
G1 X40.7316 Y-6.0229
G1 X40.7248 Y-5.9923
G1 X40.7199 Y-5.9643
G0 Z2.0000
G0 X40.7200 Y-6.3893
F500
G1 Z0.0000 F500
F500
G1 X40.7200 Y-10.9731
G1 X43.8667 Y-14.1199
G1 X58.2979 Y-14.1199
G1 X58.2771 Y-14.0887
G1 X58.2564 Y-14.0542
G1 X58.2374 Y-14.0187
G1 X58.2202 Y-13.9823
G1 X58.2048 Y-13.9451
G1 X58.1912 Y-13.9072
G1 X58.1796 Y-13.8687
G1 X58.1744 Y-13.8492
G1 X58.1678 Y-13.8201
G1 X57.8696 Y-13.8201
G1 X57.8293 Y-13.8192
G1 X57.7798 Y-13.8165
G1 X57.7398 Y-13.8125
G1 X57.7198 Y-13.8098
G1 X57.6708 Y-13.8023
G1 X57.6510 Y-13.7986
G1 X57.6314 Y-13.7945
G1 X57.5832 Y-13.7827
G1 X57.5444 Y-13.7719
G1 X57.5252 Y-13.7658
G1 X57.4785 Y-13.7494
G1 X57.4596 Y-13.7424
G1 X57.4224 Y-13.7270
G1 X57.3594 Y-13.6972
G1 X57.3415 Y-13.6879
G1 X57.3065 Y-13.6680
G1 X57.2641 Y-13.6423
G1 X57.2473 Y-13.6314
G1 X57.2307 Y-13.6200
G1 X57.1907 Y-13.5906
G1 X57.1590 Y-13.5659
G1 X57.1436 Y-13.5529
G1 X57.0919 Y-13.5061
G1 X49.7856 Y-6.2001
G1 X43.6767 Y-6.2002
G1 X43.6597 Y-6.2361
G1 X43.6504 Y-6.2539
G1 X43.6306 Y-6.2890
G1 X43.6200 Y-6.3061
G1 X43.5977 Y-6.3396
G1 X43.5859 Y-6.3559
G1 X43.5737 Y-6.3719
G1 X43.5482 Y-6.4030
G1 X43.5211 Y-6.4328
G1 X43.5071 Y-6.4472
G1 X43.4927 Y-6.4613
G1 X43.4629 Y-6.4883
G1 X43.4317 Y-6.5138
G1 X43.4157 Y-6.5260
G1 X43.3828 Y-6.5492
G1 X43.3488 Y-6.5707
G1 X43.3314 Y-6.5809
G1 X43.3138 Y-6.5906
G1 X43.2779 Y-6.6087
G1 X43.2411 Y-6.6250
G1 X43.2035 Y-6.6395
G1 X43.1845 Y-6.6460
G1 X43.1460 Y-6.6577
G1 X43.1265 Y-6.6628
G1 X43.1069 Y-6.6675
G1 X43.0674 Y-6.6753
G1 X43.0276 Y-6.6812
G1 X43.0076 Y-6.6835
G1 X42.9876 Y-6.6852
G1 X42.9474 Y-6.6872
G1 X41.3525 Y-6.6874
G1 X41.3122 Y-6.6864
G1 X41.2721 Y-6.6835
G1 X41.2521 Y-6.6812
G1 X41.2123 Y-6.6753
G1 X41.1728 Y-6.6675
G1 X41.1338 Y-6.6577
G1 X41.0952 Y-6.6460
G1 X41.0573 Y-6.6325
G1 X41.0202 Y-6.6171
G1 X41.0019 Y-6.6087
G1 X40.9659 Y-6.5906
G1 X40.9309 Y-6.5707
G1 X40.8969 Y-6.5492
G1 X40.8640 Y-6.5260
G1 X40.8323 Y-6.5013
G1 X40.8018 Y-6.4750
G1 X40.7726 Y-6.4472
G1 X40.7449 Y-6.4181
G1 X40.7200 Y-6.3893
G0 Z2.0000
G0 X60.7613 Y-14.1100
F500
G1 Z0.0000 F500
F500
G1 X60.8055 Y-14.1430
G1 X60.8230 Y-14.1573
G1 X60.9088 Y-14.2351
G1 X60.9248 Y-14.2511
G1 X60.9324 Y-14.2593
G1 X61.0025 Y-14.3369
G1 X61.0169 Y-14.3543
G1 X61.0237 Y-14.3633
G1 X61.0792 Y-14.4382
G1 X61.0922 Y-14.4566
G1 X61.1043 Y-14.4757
G1 X61.1522 Y-14.5557
G1 X61.1634 Y-14.5753
G1 X61.1735 Y-14.5955
G1 X61.2134 Y-14.6798
G1 X61.2225 Y-14.7004
G1 X61.2307 Y-14.7215
G1 X61.2621 Y-14.8093
G1 X61.2691 Y-14.8307
G1 X61.2723 Y-14.8415
G1 X61.2978 Y-14.9429
G1 X61.3004 Y-14.9539
G1 X61.3048 Y-14.9760
G1 X61.3218 Y-15.0906
G1 X61.3240 Y-15.1130
G1 X61.3261 Y-15.1526
G1 X62.5364 Y-16.3631
G1 X62.5713 Y-16.4016
G1 X62.5856 Y-16.4191
G1 X62.6166 Y-16.4609
G1 X62.6292 Y-16.4797
G1 X62.6559 Y-16.5243
G1 X62.6666 Y-16.5442
G1 X62.6888 Y-16.5912
G1 X62.6964 Y-16.6095
G1 X62.6964 Y-14.5013
G1 X61.6553 Y-13.4601
G1 X61.3299 Y-13.4602
G1 X61.3299 Y-13.6500
G1 X61.3293 Y-13.6726
G1 X61.3276 Y-13.6951
G1 X61.3249 Y-13.7175
G1 X61.3231 Y-13.7286
G1 X61.3187 Y-13.7508
G1 X61.3132 Y-13.7727
G1 X61.3101 Y-13.7835
G1 X61.3030 Y-13.8050
G1 X61.2948 Y-13.8260
G1 X61.2904 Y-13.8364
G1 X61.2807 Y-13.8568
G1 X61.2755 Y-13.8668
G1 X61.2644 Y-13.8865
G1 X61.2523 Y-13.9056
G1 X61.2393 Y-13.9240
G1 X61.2325 Y-13.9330
G1 X61.2182 Y-13.9505
G1 X61.2030 Y-13.9672
G1 X61.1951 Y-13.9753
G1 X61.1788 Y-13.9908
G1 X61.1703 Y-13.9983
G1 X61.1617 Y-14.0056
G1 X61.1439 Y-14.0195
G1 X61.1254 Y-14.0325
G1 X61.1063 Y-14.0446
G1 X61.0867 Y-14.0557
G1 X61.0767 Y-14.0609
G1 X61.0665 Y-14.0658
G1 X61.0459 Y-14.0750
G1 X61.0248 Y-14.0831
G1 X61.0142 Y-14.0868
G1 X60.9925 Y-14.0933
G1 X60.9706 Y-14.0988
G1 X60.9596 Y-14.1012
G1 X60.9374 Y-14.1050
G1 X60.9149 Y-14.1078
G1 X60.9037 Y-14.1088
G1 X60.8811 Y-14.1099
G1 X60.7613 Y-14.1100
G0 Z2.0000
G0 X61.1457 Y-14.2275
F500
G1 Z0.0000 F500
F500
G1 X61.1588 Y-14.2436
G1 X61.1683 Y-14.2561
G1 X61.2238 Y-14.3310
G1 X61.2419 Y-14.3566
G1 X61.2587 Y-14.3832
G1 X61.3066 Y-14.4631
G1 X61.3221 Y-14.4905
G1 X61.3362 Y-14.5185
G1 X61.3761 Y-14.6028
G1 X61.3888 Y-14.6315
G1 X61.4001 Y-14.6608
G1 X61.4367 Y-14.7635
G1 X61.4458 Y-14.7935
G1 X61.4498 Y-14.8087
G1 X61.4724 Y-14.8992
G1 X61.4793 Y-14.9298
G1 X61.4847 Y-14.9608
G1 X61.4984 Y-15.0530
G1 X61.5010 Y-15.0729
G1 X62.5164 Y-16.0884
G1 X62.5164 Y-14.5758
G1 X61.5807 Y-13.6401
G1 X61.5099 Y-13.6401
G1 X61.5097 Y-13.6657
G1 X61.5081 Y-13.6971
G1 X61.5050 Y-13.7283
G1 X61.5029 Y-13.7439
G1 X61.4976 Y-13.7749
G1 X61.4907 Y-13.8055
G1 X61.4867 Y-13.8207
G1 X61.4776 Y-13.8508
G1 X61.4670 Y-13.8803
G1 X61.4611 Y-13.8949
G1 X61.4484 Y-13.9236
G1 X61.4343 Y-13.9517
G1 X61.4188 Y-13.9790
G1 X61.4106 Y-13.9924
G1 X61.4020 Y-14.0056
G1 X61.3839 Y-14.0312
G1 X61.3646 Y-14.0560
G1 X61.3545 Y-14.0680
G1 X61.3334 Y-14.0913
G1 X61.3112 Y-14.1135
G1 X61.2997 Y-14.1242
G1 X61.2759 Y-14.1447
G1 X61.2511 Y-14.1641
G1 X61.2384 Y-14.1733
G1 X61.2123 Y-14.1907
G1 X61.1853 Y-14.2069
G1 X61.1716 Y-14.2144
G1 X61.1457 Y-14.2275
G0 Z2.0000
G0 X61.4025 Y-14.2734
F500
G1 Z0.0000 F500
F500
G1 X61.4610 Y-14.3706
G1 X61.4809 Y-14.4056
G1 X61.4990 Y-14.4416
G1 X61.5388 Y-14.5259
G1 X61.5472 Y-14.5442
G1 X61.5626 Y-14.5813
G1 X61.6010 Y-14.6880
G1 X61.6076 Y-14.7070
G1 X61.6192 Y-14.7455
G1 X61.6517 Y-14.8750
G1 X61.6595 Y-14.9145
G1 X61.6707 Y-14.9881
G1 X62.3364 Y-15.6538
G1 X62.3364 Y-14.6504
G1 X61.6338 Y-13.9478
G1 X61.6195 Y-13.9823
G1 X61.6111 Y-14.0006
G1 X61.5930 Y-14.0365
G1 X61.5833 Y-14.0542
G1 X61.5626 Y-14.0887
G1 X61.5403 Y-14.1222
G1 X61.5163 Y-14.1545
G1 X61.4908 Y-14.1856
G1 X61.4774 Y-14.2007
G1 X61.4637 Y-14.2154
G1 X61.4353 Y-14.2439
G1 X61.4205 Y-14.2576
G1 X61.4025 Y-14.2734
G0 Z2.0000
G0 X60.5367 Y-16.5133
F500
G1 Z0.0000 F500
F500
G1 X60.5323 Y-16.5088
G1 X60.5298 Y-16.5100
G1 X60.5367 Y-16.5133
G0 Z2.0000
G0 X61.2308 Y-17.2620
F500
G1 Z0.0000 F500
F500
G1 X61.2308 Y-17.2074
G1 X61.1866 Y-17.1632
G1 X61.2181 Y-17.2300
G1 X61.2267 Y-17.2509
G1 X61.2308 Y-17.2620
G0 Z2.0000
G0 X62.6964 Y-20.0569
F500
G1 Z0.0000 F500
F500
G1 X62.6888 Y-20.0752
G1 X62.6841 Y-20.0854
G1 X62.6715 Y-20.1121
G1 X62.6614 Y-20.1322
G1 X62.6502 Y-20.1519
G1 X62.6351 Y-20.1771
G1 X62.6230 Y-20.1962
G1 X62.6100 Y-20.2147
G1 X62.5925 Y-20.2383
G1 X62.5786 Y-20.2561
G1 X62.5638 Y-20.2732
G1 X62.5441 Y-20.2950
G1 X62.5285 Y-20.3114
G1 X58.8272 Y-24.0127
G1 X58.8472 Y-24.0067
G1 X58.8691 Y-24.0012
G1 X58.8912 Y-23.9968
G1 X58.9024 Y-23.9950
G1 X58.9248 Y-23.9922
G1 X58.9360 Y-23.9912
G1 X58.9473 Y-23.9906
G1 X58.9699 Y-23.9900
G1 X60.8699 Y-23.9900
G1 X60.8924 Y-23.9906
G1 X60.9149 Y-23.9922
G1 X60.9374 Y-23.9950
G1 X60.9596 Y-23.9988
G1 X60.9816 Y-24.0038
G1 X61.0034 Y-24.0098
G1 X61.0248 Y-24.0169
G1 X61.0459 Y-24.0250
G1 X61.0665 Y-24.0342
G1 X61.0867 Y-24.0443
G1 X61.1063 Y-24.0554
G1 X61.1160 Y-24.0614
G1 X61.1347 Y-24.0739
G1 X61.1529 Y-24.0874
G1 X61.1703 Y-24.1017
G1 X61.1870 Y-24.1168
G1 X61.1951 Y-24.1247
G1 X61.2107 Y-24.1411
G1 X61.2254 Y-24.1582
G1 X61.2393 Y-24.1760
G1 X61.2523 Y-24.1944
G1 X61.2585 Y-24.2039
G1 X61.2701 Y-24.2233
G1 X61.2807 Y-24.2432
G1 X61.2904 Y-24.2636
G1 X61.2948 Y-24.2740
G1 X61.3030 Y-24.2950
G1 X61.3101 Y-24.3165
G1 X61.3161 Y-24.3382
G1 X61.3210 Y-24.3603
G1 X61.3249 Y-24.3825
G1 X61.3264 Y-24.3937
G1 X61.3286 Y-24.4162
G1 X61.3297 Y-24.4387
G1 X61.3299 Y-24.6399
G1 X61.8946 Y-24.6399
G1 X62.6964 Y-23.8380
G1 X62.6964 Y-20.0569
G0 Z2.0000
G0 X62.5164 Y-20.5780
F500
G1 Z0.0000 F500
F500
G1 X59.2845 Y-23.8100
G1 X60.8699 Y-23.8100
G1 X60.9013 Y-23.8108
G1 X60.9326 Y-23.8131
G1 X60.9482 Y-23.8148
G1 X60.9638 Y-23.8169
G1 X60.9947 Y-23.8223
G1 X61.0254 Y-23.8292
G1 X61.0556 Y-23.8376
G1 X61.0855 Y-23.8474
G1 X61.1002 Y-23.8529
G1 X61.1292 Y-23.8649
G1 X61.1435 Y-23.8714
G1 X61.1716 Y-23.8856
G1 X61.1989 Y-23.9011
G1 X61.2254 Y-23.9179
G1 X61.2511 Y-23.9359
G1 X61.2636 Y-23.9455
G1 X61.2879 Y-23.9654
G1 X61.3112 Y-23.9865
G1 X61.3224 Y-23.9975
G1 X61.3441 Y-24.0202
G1 X61.3545 Y-24.0320
G1 X61.3744 Y-24.0563
G1 X61.3931 Y-24.0815
G1 X61.4106 Y-24.1076
G1 X61.4267 Y-24.1345
G1 X61.4343 Y-24.1483
G1 X61.4484 Y-24.1764
G1 X61.4611 Y-24.2051
G1 X61.4724 Y-24.2344
G1 X61.4776 Y-24.2492
G1 X61.4867 Y-24.2793
G1 X61.4943 Y-24.3098
G1 X61.5004 Y-24.3406
G1 X61.5029 Y-24.3561
G1 X61.5050 Y-24.3717
G1 X61.5081 Y-24.4029
G1 X61.5097 Y-24.4343
G1 X61.5099 Y-24.4599
G1 X61.8200 Y-24.4599
G1 X62.5164 Y-23.7634
G1 X62.5164 Y-20.5780
G0 Z2.0000
G0 X62.3364 Y-21.0126
F500
G1 Z0.0000 F500
F500
G1 X59.7190 Y-23.6300
G1 X60.8900 Y-23.6302
G1 X60.9302 Y-23.6322
G1 X60.9502 Y-23.6339
G1 X60.9902 Y-23.6389
G1 X61.0100 Y-23.6421
G1 X61.0298 Y-23.6458
G1 X61.0691 Y-23.6546
G1 X61.1079 Y-23.6653
G1 X61.1271 Y-23.6714
G1 X61.1650 Y-23.6849
G1 X61.1837 Y-23.6924
G1 X61.2205 Y-23.7087
G1 X61.2385 Y-23.7176
G1 X61.2740 Y-23.7365
G1 X61.2914 Y-23.7467
G1 X61.3254 Y-23.7682
G1 X61.3583 Y-23.7914
G1 X61.3901 Y-23.8161
G1 X61.4055 Y-23.8291
G1 X61.4353 Y-23.8561
G1 X61.4637 Y-23.8846
G1 X61.4774 Y-23.8993
G1 X61.4908 Y-23.9144
G1 X61.5163 Y-23.9455
G1 X61.5285 Y-23.9615
G1 X61.5517 Y-23.9944
G1 X61.5732 Y-24.0284
G1 X61.5833 Y-24.0458
G1 X61.6023 Y-24.0813
G1 X61.6195 Y-24.1177
G1 X61.6274 Y-24.1362
G1 X61.6419 Y-24.1738
G1 X61.6546 Y-24.2120
G1 X61.6602 Y-24.2313
G1 X61.6653 Y-24.2508
G1 X61.6719 Y-24.2799
G1 X61.7454 Y-24.2799
G1 X62.3364 Y-23.6889
G1 X62.3364 Y-21.0126
G0 Z2.0000
G0 X61.1457 Y-26.9275
F500
G1 Z0.0000 F500
F500
G1 X61.1588 Y-26.9436
G1 X61.1683 Y-26.9561
G1 X61.2330 Y-27.0437
G1 X61.2505 Y-27.0698
G1 X61.2693 Y-27.1008
G1 X61.2693 Y-26.8500
G1 X61.2511 Y-26.8641
G1 X61.2384 Y-26.8733
G1 X61.2123 Y-26.8907
G1 X61.1853 Y-26.9069
G1 X61.1716 Y-26.9144
G1 X61.1457 Y-26.9275
G0 Z2.0000
G0 X61.2693 Y-28.7792
F500
G1 Z0.0000 F500
F500
G1 X61.2505 Y-28.8102
G1 X61.2330 Y-28.8363
G1 X61.1588 Y-28.9364
G1 X61.1388 Y-28.9607
G1 X61.0658 Y-29.0415
G1 X61.0551 Y-29.0531
G1 X61.0329 Y-29.0753
G1 X60.9406 Y-29.1590
G1 X60.9163 Y-29.1789
G1 X60.8747 Y-29.2100
G1 X60.9163 Y-29.2411
G1 X60.9406 Y-29.2610
G1 X61.0329 Y-29.3447
G1 X61.0551 Y-29.3669
G1 X61.0658 Y-29.3785
G1 X61.1388 Y-29.4593
G1 X61.1588 Y-29.4836
G1 X61.2330 Y-29.5837
G1 X61.2505 Y-29.6098
G1 X61.2693 Y-29.6408
G1 X61.2693 Y-28.7792
G0 Z2.0000
G0 X58.8408 Y-26.7915
F500
G1 Z0.0000 F500
F500
G1 X58.9589 Y-26.9096
G1 X59.0083 Y-26.8648
G1 X59.0254 Y-26.8501
G1 X59.0432 Y-26.8362
G1 X59.0784 Y-26.8100
G1 X58.9699 Y-26.8100
G1 X58.9586 Y-26.8099
G1 X58.9360 Y-26.8088
G1 X58.9136 Y-26.8065
G1 X58.8912 Y-26.8032
G1 X58.8691 Y-26.7988
G1 X58.8408 Y-26.7915
G0 Z2.0000
G0 X60.3200 Y-37.0500
F500
G1 Z0.0000 F500
F500
G1 X60.3543 Y-37.0500
G1 X60.3200 Y-37.0158
G1 X60.3200 Y-37.0500
G0 Z2.0000
G0 X60.7613 Y-39.5100
F500
G1 Z0.0000 F500
F500
G1 X60.8055 Y-39.5430
G1 X60.8230 Y-39.5573
G1 X60.9088 Y-39.6351
G1 X60.9169 Y-39.6430
G1 X60.9324 Y-39.6593
G1 X60.9951 Y-39.7284
G1 X61.0098 Y-39.7455
G1 X61.0169 Y-39.7543
G1 X61.0858 Y-39.8473
G1 X61.0922 Y-39.8566
G1 X61.1043 Y-39.8757
G1 X61.1522 Y-39.9557
G1 X61.1634 Y-39.9753
G1 X61.1735 Y-39.9955
G1 X61.2181 Y-40.0900
G1 X61.2267 Y-40.1109
G1 X61.2307 Y-40.1215
G1 X61.2621 Y-40.2093
G1 X61.2691 Y-40.2307
G1 X61.2752 Y-40.2525
G1 X61.2978 Y-40.3429
G1 X61.3028 Y-40.3649
G1 X61.3066 Y-40.3872
G1 X61.3203 Y-40.4794
G1 X61.3231 Y-40.5018
G1 X61.3247 Y-40.5243
G1 X61.3293 Y-40.6174
G1 X61.3299 Y-40.6400
G1 X61.3293 Y-40.6626
G1 X61.3247 Y-40.7557
G1 X61.3231 Y-40.7782
G1 X61.3203 Y-40.8006
G1 X61.3066 Y-40.8928
G1 X61.3028 Y-40.9151
G1 X61.2978 Y-40.9371
G1 X61.2752 Y-41.0275
G1 X61.2691 Y-41.0493
G1 X61.2621 Y-41.0707
G1 X61.2307 Y-41.1585
G1 X61.2225 Y-41.1796
G1 X61.2134 Y-41.2002
G1 X61.1735 Y-41.2845
G1 X61.1634 Y-41.3047
G1 X61.1522 Y-41.3243
G1 X61.1043 Y-41.4043
G1 X61.0984 Y-41.4139
G1 X61.0858 Y-41.4327
G1 X61.0169 Y-41.5257
G1 X61.0025 Y-41.5431
G1 X60.9951 Y-41.5516
G1 X60.9324 Y-41.6207
G1 X60.9169 Y-41.6370
G1 X60.9005 Y-41.6526
G1 X60.8230 Y-41.7227
G1 X60.8055 Y-41.7370
G1 X60.7966 Y-41.7438
G1 X60.7217 Y-41.7994
G1 X60.7125 Y-41.8060
G1 X60.6938 Y-41.8185
G1 X60.5944 Y-41.8781
G1 X60.5745 Y-41.8887
G1 X60.5298 Y-41.9100
G1 X60.5745 Y-41.9313
G1 X60.5944 Y-41.9419
G1 X60.6841 Y-41.9955
G1 X60.6938 Y-42.0015
G1 X60.7125 Y-42.0140
G1 X60.7966 Y-42.0762
G1 X60.8144 Y-42.0901
G1 X60.8315 Y-42.1048
G1 X60.9088 Y-42.1751
G1 X60.9169 Y-42.1830
G1 X60.9324 Y-42.1993
G1 X60.9951 Y-42.2684
G1 X61.0098 Y-42.2855
G1 X61.0237 Y-42.3033
G1 X61.0792 Y-42.3782
G1 X61.0922 Y-42.3966
G1 X61.1043 Y-42.4157
G1 X61.1522 Y-42.4957
G1 X61.1579 Y-42.5054
G1 X61.1686 Y-42.5254
G1 X61.2134 Y-42.6198
G1 X61.2225 Y-42.6404
G1 X61.2307 Y-42.6615
G1 X61.2621 Y-42.7493
G1 X61.2691 Y-42.7707
G1 X61.2752 Y-42.7925
G1 X61.2978 Y-42.8829
G1 X61.3028 Y-42.9049
G1 X61.3066 Y-42.9272
G1 X61.3203 Y-43.0194
G1 X61.3218 Y-43.0306
G1 X61.3240 Y-43.0530
G1 X61.3293 Y-43.1574
G1 X61.3299 Y-43.1800
G1 X61.3293 Y-43.2026
G1 X61.3247 Y-43.2957
G1 X61.3231 Y-43.3182
G1 X61.3203 Y-43.3406
G1 X61.3066 Y-43.4328
G1 X61.3048 Y-43.4440
G1 X61.3004 Y-43.4661
G1 X61.2752 Y-43.5675
G1 X61.2691 Y-43.5893
G1 X61.2621 Y-43.6107
G1 X61.2267 Y-43.7091
G1 X61.2181 Y-43.7300
G1 X61.2134 Y-43.7402
G1 X61.1735 Y-43.8245
G1 X61.1634 Y-43.8447
G1 X61.1522 Y-43.8643
G1 X61.1043 Y-43.9443
G1 X61.0922 Y-43.9634
G1 X61.0792 Y-43.9818
G1 X61.0237 Y-44.0567
G1 X61.0098 Y-44.0745
G1 X60.9951 Y-44.0916
G1 X60.9324 Y-44.1607
G1 X60.9169 Y-44.1770
G1 X60.9005 Y-44.1926
G1 X60.8315 Y-44.2552
G1 X60.8144 Y-44.2699
G1 X60.7966 Y-44.2838
G1 X60.7125 Y-44.3460
G1 X60.6938 Y-44.3585
G1 X60.6841 Y-44.3645
G1 X60.6042 Y-44.4124
G1 X60.5845 Y-44.4235
G1 X60.5644 Y-44.4337
G1 X60.4801 Y-44.4735
G1 X60.4594 Y-44.4827
G1 X60.4384 Y-44.4908
G1 X60.3506 Y-44.5222
G1 X60.3292 Y-44.5293
G1 X60.3074 Y-44.5353
G1 X60.2170 Y-44.5580
G1 X60.1949 Y-44.5629
G1 X60.1727 Y-44.5668
G1 X60.0805 Y-44.5804
G1 X60.0581 Y-44.5832
G1 X60.0355 Y-44.5849
G1 X59.9424 Y-44.5894
G1 X59.9199 Y-44.5900
G1 X59.8973 Y-44.5894
G1 X59.8042 Y-44.5849
G1 X59.7817 Y-44.5832
G1 X59.7592 Y-44.5804
G1 X59.6670 Y-44.5668
G1 X59.6448 Y-44.5629
G1 X59.6228 Y-44.5580
G1 X59.5323 Y-44.5353
G1 X59.5106 Y-44.5293
G1 X59.4891 Y-44.5222
G1 X59.4013 Y-44.4908
G1 X59.3803 Y-44.4827
G1 X59.3596 Y-44.4735
G1 X59.2652 Y-44.4287
G1 X59.2453 Y-44.4181
G1 X59.2355 Y-44.4124
G1 X59.1556 Y-44.3645
G1 X59.1365 Y-44.3524
G1 X59.1180 Y-44.3394
G1 X59.0342 Y-44.2770
G1 X59.0167 Y-44.2627
G1 X59.0083 Y-44.2552
G1 X58.9392 Y-44.1926
G1 X58.9228 Y-44.1770
G1 X58.9073 Y-44.1607
G1 X58.8447 Y-44.0916
G1 X58.8299 Y-44.0745
G1 X58.8160 Y-44.0567
G1 X58.7605 Y-43.9818
G1 X58.7475 Y-43.9634
G1 X58.7354 Y-43.9443
G1 X58.6875 Y-43.8643
G1 X58.6764 Y-43.8447
G1 X58.6662 Y-43.8245
G1 X58.6279 Y-43.7436
G1 X58.6279 Y-49.5423
G1 X58.6367 Y-49.5328
G1 X58.6527 Y-49.5168
G1 X58.6694 Y-49.5017
G1 X58.6869 Y-49.4874
G1 X58.7050 Y-49.4739
G1 X58.7238 Y-49.4614
G1 X58.7431 Y-49.4498
G1 X58.7630 Y-49.4391
G1 X58.7834 Y-49.4295
G1 X58.8043 Y-49.4208
G1 X58.8256 Y-49.4132
G1 X58.8472 Y-49.4067
G1 X58.8691 Y-49.4012
G1 X58.8912 Y-49.3968
G1 X58.9136 Y-49.3935
G1 X58.9360 Y-49.3912
G1 X58.9473 Y-49.3906
G1 X58.9699 Y-49.3900
G1 X60.8699 Y-49.3900
G1 X60.8924 Y-49.3906
G1 X60.9149 Y-49.3922
G1 X60.9262 Y-49.3935
G1 X60.9485 Y-49.3968
G1 X60.9706 Y-49.4012
G1 X60.9816 Y-49.4038
G1 X61.0034 Y-49.4098
G1 X61.0248 Y-49.4169
G1 X61.0459 Y-49.4250
G1 X61.0665 Y-49.4342
G1 X61.0867 Y-49.4443
G1 X61.1063 Y-49.4554
G1 X61.1160 Y-49.4614
G1 X61.1347 Y-49.4739
G1 X61.1529 Y-49.4874
G1 X61.1703 Y-49.5017
G1 X61.1870 Y-49.5168
G1 X61.2030 Y-49.5328
G1 X61.2182 Y-49.5495
G1 X61.2325 Y-49.5670
G1 X61.2393 Y-49.5760
G1 X61.2523 Y-49.5944
G1 X61.2644 Y-49.6135
G1 X61.2755 Y-49.6332
G1 X61.2857 Y-49.6533
G1 X61.2904 Y-49.6636
G1 X61.2948 Y-49.6740
G1 X61.3030 Y-49.6950
G1 X61.3101 Y-49.7165
G1 X61.3161 Y-49.7382
G1 X61.3210 Y-49.7603
G1 X61.3249 Y-49.7825
G1 X61.3276 Y-49.8049
G1 X61.3286 Y-49.8162
G1 X61.3297 Y-49.8387
G1 X61.3299 Y-50.0399
G1 X61.4478 Y-50.0399
G1 X61.4478 Y-38.6526
G1 X61.3299 Y-38.5347
G1 X61.3299 Y-39.0500
G1 X61.3293 Y-39.0726
G1 X61.3276 Y-39.0951
G1 X61.3249 Y-39.1175
G1 X61.3231 Y-39.1286
G1 X61.3187 Y-39.1508
G1 X61.3132 Y-39.1727
G1 X61.3066 Y-39.1943
G1 X61.2990 Y-39.2156
G1 X61.2904 Y-39.2364
G1 X61.2857 Y-39.2467
G1 X61.2755 Y-39.2668
G1 X61.2644 Y-39.2865
G1 X61.2585 Y-39.2961
G1 X61.2459 Y-39.3149
G1 X61.2325 Y-39.3330
G1 X61.2254 Y-39.3418
G1 X61.2107 Y-39.3589
G1 X61.2030 Y-39.3672
G1 X61.1951 Y-39.3753
G1 X61.1788 Y-39.3908
G1 X61.1703 Y-39.3983
G1 X61.1529 Y-39.4126
G1 X61.1439 Y-39.4195
G1 X61.1254 Y-39.4325
G1 X61.1063 Y-39.4446
G1 X61.0966 Y-39.4502
G1 X61.0767 Y-39.4609
G1 X61.0563 Y-39.4705
G1 X61.0354 Y-39.4792
G1 X61.0248 Y-39.4831
G1 X61.0034 Y-39.4902
G1 X60.9925 Y-39.4933
G1 X60.9816 Y-39.4962
G1 X60.9596 Y-39.5012
G1 X60.9374 Y-39.5050
G1 X60.9262 Y-39.5065
G1 X60.9037 Y-39.5088
G1 X60.8811 Y-39.5099
G1 X60.7613 Y-39.5100
G0 Z2.0000
G0 X61.1457 Y-39.6275
F500
G1 Z0.0000 F500
F500
G1 X61.1588 Y-39.6436
G1 X61.1683 Y-39.6561
G1 X61.2330 Y-39.7437
G1 X61.2505 Y-39.7698
G1 X61.2678 Y-39.7983
G1 X61.2678 Y-39.5512
G1 X61.2511 Y-39.5641
G1 X61.2384 Y-39.5733
G1 X61.2123 Y-39.5907
G1 X61.1853 Y-39.6069
G1 X61.1716 Y-39.6144
G1 X61.1457 Y-39.6275
G0 Z2.0000
G0 X61.2678 Y-41.4817
F500
G1 Z0.0000 F500
F500
G1 X61.2505 Y-41.5102
G1 X61.2330 Y-41.5363
G1 X61.1588 Y-41.6364
G1 X61.1388 Y-41.6607
G1 X61.0658 Y-41.7415
G1 X61.0551 Y-41.7531
G1 X61.0329 Y-41.7753
G1 X60.9406 Y-41.8590
G1 X60.9163 Y-41.8789
G1 X60.8747 Y-41.9100
G1 X60.9163 Y-41.9411
G1 X60.9406 Y-41.9610
G1 X61.0329 Y-42.0447
G1 X61.0442 Y-42.0557
G1 X61.0658 Y-42.0785
G1 X61.1388 Y-42.1593
G1 X61.1588 Y-42.1836
G1 X61.2330 Y-42.2837
G1 X61.2505 Y-42.3098
G1 X61.2678 Y-42.3383
G1 X61.2678 Y-41.4817
G0 Z2.0000
G0 X59.3099 Y-41.9100
F500
G1 Z0.0000 F500
F500
G1 X59.2652 Y-41.8887
G1 X59.2393 Y-41.8746
G1 X59.0156 Y-42.0983
G1 X59.0254 Y-42.0901
G1 X59.0432 Y-42.0762
G1 X59.1180 Y-42.0206
G1 X59.1365 Y-42.0076
G1 X59.1460 Y-42.0015
G1 X59.2453 Y-41.9419
G1 X59.2652 Y-41.9313
G1 X59.3099 Y-41.9100
G0 Z2.0000
G0 X58.8382 Y-42.2758
F500
G1 Z0.0000 F500
F500
G1 X58.6279 Y-42.4860
G1 X58.6279 Y-42.6164
G1 X58.6662 Y-42.5355
G1 X58.6764 Y-42.5153
G1 X58.6875 Y-42.4957
G1 X58.7413 Y-42.4061
G1 X58.7539 Y-42.3873
G1 X58.7605 Y-42.3782
G1 X58.8160 Y-42.3033
G1 X58.8299 Y-42.2855
G1 X58.8382 Y-42.2758
G0 Z2.0000
G0 X58.8700 Y-43.1751
F500
G1 Z0.0000 F500
F500
G1 X58.8700 Y-43.1849
G1 X58.8749 Y-43.2829
G1 X58.8900 Y-43.3848
G1 X58.9151 Y-43.4848
G1 X58.9498 Y-43.5818
G1 X58.9938 Y-43.6750
G1 X59.0468 Y-43.7633
G1 X59.1082 Y-43.8461
G1 X59.1774 Y-43.9225
G1 X59.2537 Y-43.9917
G1 X59.3365 Y-44.0530
G1 X59.4249 Y-44.1060
G1 X59.5180 Y-44.1501
G1 X59.6151 Y-44.1848
G1 X59.7150 Y-44.2098
G1 X59.8169 Y-44.2249
G1 X59.9199 Y-44.2300
G1 X60.0228 Y-44.2249
G1 X60.1247 Y-44.2098
G1 X60.2247 Y-44.1848
G1 X60.3217 Y-44.1501
G1 X60.4148 Y-44.1060
G1 X60.5032 Y-44.0530
G1 X60.5860 Y-43.9917
G1 X60.6623 Y-43.9225
G1 X60.7315 Y-43.8461
G1 X60.7929 Y-43.7633
G1 X60.8459 Y-43.6750
G1 X60.8899 Y-43.5818
G1 X60.9246 Y-43.4848
G1 X60.9497 Y-43.3848
G1 X60.9648 Y-43.2829
G1 X60.9699 Y-43.1800
G1 X60.9648 Y-43.0771
G1 X60.9497 Y-42.9752
G1 X60.9246 Y-42.8752
G1 X60.8899 Y-42.7782
G1 X60.8459 Y-42.6850
G1 X60.7929 Y-42.5967
G1 X60.7315 Y-42.5139
G1 X60.6623 Y-42.4375
G1 X60.5860 Y-42.3683
G1 X60.5032 Y-42.3070
G1 X60.4148 Y-42.2540
G1 X60.3217 Y-42.2099
G1 X60.2247 Y-42.1752
G1 X60.1247 Y-42.1502
G1 X60.0228 Y-42.1351
G1 X59.9199 Y-42.1300
G1 X59.8169 Y-42.1351
G1 X59.7150 Y-42.1502
G1 X59.6151 Y-42.1752
G1 X59.5180 Y-42.2099
G1 X59.4249 Y-42.2540
G1 X59.3365 Y-42.3070
G1 X59.2537 Y-42.3683
G1 X59.1774 Y-42.4375
G1 X59.1082 Y-42.5139
G1 X59.0468 Y-42.5967
G1 X58.9938 Y-42.6850
G1 X58.9498 Y-42.7782
G1 X58.9151 Y-42.8752
G1 X58.8900 Y-42.9752
G1 X58.8749 Y-43.0771
G1 X58.8700 Y-43.1751
G0 Z2.0000
G0 X58.6902 Y-43.1663
F500
G1 Z0.0000 F500
F500
G1 X58.6899 Y-43.1800
G1 X58.6902 Y-43.1937
G1 X58.6948 Y-43.2869
G1 X58.6958 Y-43.3006
G1 X58.6975 Y-43.3142
G1 X58.7111 Y-43.4064
G1 X58.7135 Y-43.4200
G1 X58.7165 Y-43.4334
G1 X58.7392 Y-43.5238
G1 X58.7428 Y-43.5371
G1 X58.7471 Y-43.5501
G1 X58.7785 Y-43.6379
G1 X58.7835 Y-43.6507
G1 X58.7891 Y-43.6633
G1 X58.8289 Y-43.7475
G1 X58.8351 Y-43.7598
G1 X58.8419 Y-43.7718
G1 X58.8898 Y-43.8517
G1 X58.8972 Y-43.8634
G1 X58.9051 Y-43.8746
G1 X58.9606 Y-43.9495
G1 X58.9691 Y-43.9603
G1 X58.9780 Y-43.9707
G1 X59.0406 Y-44.0398
G1 X59.0501 Y-44.0497
G1 X59.0601 Y-44.0592
G1 X59.1291 Y-44.1218
G1 X59.1396 Y-44.1308
G1 X59.1504 Y-44.1393
G1 X59.2253 Y-44.1948
G1 X59.2365 Y-44.2027
G1 X59.2481 Y-44.2101
G1 X59.3281 Y-44.2580
G1 X59.3400 Y-44.2648
G1 X59.3523 Y-44.2709
G1 X59.4366 Y-44.3108
G1 X59.4492 Y-44.3164
G1 X59.4620 Y-44.3213
G1 X59.5498 Y-44.3527
G1 X59.5628 Y-44.3570
G1 X59.5761 Y-44.3607
G1 X59.6665 Y-44.3834
G1 X59.6799 Y-44.3864
G1 X59.6934 Y-44.3887
G1 X59.7857 Y-44.4024
G1 X59.7993 Y-44.4041
G1 X59.8130 Y-44.4051
G1 X59.9061 Y-44.4097
G1 X59.9199 Y-44.4100
G1 X59.9336 Y-44.4097
G1 X60.0267 Y-44.4051
G1 X60.0404 Y-44.4041
G1 X60.0541 Y-44.4024
G1 X60.1463 Y-44.3887
G1 X60.1598 Y-44.3864
G1 X60.1732 Y-44.3834
G1 X60.2637 Y-44.3607
G1 X60.2769 Y-44.3570
G1 X60.2900 Y-44.3527
G1 X60.3777 Y-44.3213
G1 X60.3906 Y-44.3164
G1 X60.4031 Y-44.3108
G1 X60.4874 Y-44.2709
G1 X60.4997 Y-44.2648
G1 X60.5116 Y-44.2580
G1 X60.5916 Y-44.2101
G1 X60.6032 Y-44.2027
G1 X60.6144 Y-44.1948
G1 X60.6893 Y-44.1393
G1 X60.7002 Y-44.1308
G1 X60.7106 Y-44.1218
G1 X60.7796 Y-44.0592
G1 X60.7896 Y-44.0497
G1 X60.7991 Y-44.0398
G1 X60.8617 Y-43.9707
G1 X60.8707 Y-43.9603
G1 X60.8791 Y-43.9495
G1 X60.9347 Y-43.8746
G1 X60.9426 Y-43.8634
G1 X60.9499 Y-43.8517
G1 X60.9978 Y-43.7718
G1 X61.0046 Y-43.7598
G1 X61.0108 Y-43.7475
G1 X61.0507 Y-43.6633
G1 X61.0562 Y-43.6507
G1 X61.0612 Y-43.6379
G1 X61.0926 Y-43.5501
G1 X61.0969 Y-43.5371
G1 X61.1006 Y-43.5238
G1 X61.1232 Y-43.4334
G1 X61.1262 Y-43.4200
G1 X61.1286 Y-43.4064
G1 X61.1423 Y-43.3142
G1 X61.1439 Y-43.3006
G1 X61.1449 Y-43.2869
G1 X61.1495 Y-43.1937
G1 X61.1499 Y-43.1800
G1 X61.1495 Y-43.1663
G1 X61.1449 Y-43.0731
G1 X61.1439 Y-43.0594
G1 X61.1423 Y-43.0458
G1 X61.1286 Y-42.9536
G1 X61.1262 Y-42.9400
G1 X61.1232 Y-42.9266
G1 X61.1006 Y-42.8362
G1 X61.0969 Y-42.8229
G1 X61.0926 Y-42.8099
G1 X61.0612 Y-42.7221
G1 X61.0562 Y-42.7093
G1 X61.0507 Y-42.6967
G1 X61.0108 Y-42.6125
G1 X61.0046 Y-42.6002
G1 X60.9978 Y-42.5882
G1 X60.9499 Y-42.5083
G1 X60.9426 Y-42.4966
G1 X60.9347 Y-42.4854
G1 X60.8791 Y-42.4105
G1 X60.8707 Y-42.3997
G1 X60.8617 Y-42.3893
G1 X60.7991 Y-42.3202
G1 X60.7896 Y-42.3103
G1 X60.7796 Y-42.3008
G1 X60.7106 Y-42.2382
G1 X60.7002 Y-42.2292
G1 X60.6893 Y-42.2207
G1 X60.6144 Y-42.1652
G1 X60.6032 Y-42.1573
G1 X60.5916 Y-42.1499
G1 X60.5116 Y-42.1020
G1 X60.4997 Y-42.0952
G1 X60.4874 Y-42.0891
G1 X60.4031 Y-42.0492
G1 X60.3906 Y-42.0436
G1 X60.3777 Y-42.0387
G1 X60.2900 Y-42.0073
G1 X60.2769 Y-42.0030
G1 X60.2637 Y-41.9993
G1 X60.1732 Y-41.9766
G1 X60.1598 Y-41.9736
G1 X60.1463 Y-41.9713
G1 X60.0541 Y-41.9576
G1 X60.0404 Y-41.9559
G1 X60.0267 Y-41.9549
G1 X59.9336 Y-41.9503
G1 X59.9199 Y-41.9500
G1 X59.9061 Y-41.9503
G1 X59.8130 Y-41.9549
G1 X59.7993 Y-41.9559
G1 X59.7857 Y-41.9576
G1 X59.6934 Y-41.9713
G1 X59.6799 Y-41.9736
G1 X59.6665 Y-41.9766
G1 X59.5761 Y-41.9993
G1 X59.5628 Y-42.0030
G1 X59.5498 Y-42.0073
G1 X59.4620 Y-42.0387
G1 X59.4492 Y-42.0436
G1 X59.4366 Y-42.0492
G1 X59.3523 Y-42.0891
G1 X59.3400 Y-42.0952
G1 X59.3281 Y-42.1020
G1 X59.2481 Y-42.1499
G1 X59.2365 Y-42.1573
G1 X59.2253 Y-42.1652
G1 X59.1504 Y-42.2207
G1 X59.1396 Y-42.2292
G1 X59.1291 Y-42.2382
G1 X59.0601 Y-42.3008
G1 X59.0501 Y-42.3103
G1 X59.0406 Y-42.3202
G1 X58.9780 Y-42.3893
G1 X58.9691 Y-42.3997
G1 X58.9606 Y-42.4105
G1 X58.9051 Y-42.4854
G1 X58.8972 Y-42.4966
G1 X58.8898 Y-42.5083
G1 X58.8419 Y-42.5882
G1 X58.8351 Y-42.6002
G1 X58.8289 Y-42.6125
G1 X58.7891 Y-42.6967
G1 X58.7835 Y-42.7093
G1 X58.7785 Y-42.7221
G1 X58.7471 Y-42.8099
G1 X58.7428 Y-42.8229
G1 X58.7392 Y-42.8362
G1 X58.7165 Y-42.9266
G1 X58.7135 Y-42.9400
G1 X58.7111 Y-42.9536
G1 X58.6975 Y-43.0458
G1 X58.6958 Y-43.0594
G1 X58.6948 Y-43.0731
G1 X58.6902 Y-43.1663
G0 Z2.0000
G0 X61.2678 Y-44.0217
F500
G1 Z0.0000 F500
F500
G1 X61.2505 Y-44.0502
G1 X61.2330 Y-44.0763
G1 X61.1588 Y-44.1764
G1 X61.1489 Y-44.1887
G1 X61.1284 Y-44.2125
G1 X61.0658 Y-44.2815
G1 X61.0442 Y-44.3043
G1 X61.0214 Y-44.3260
G1 X60.9523 Y-44.3886
G1 X60.9285 Y-44.4091
G1 X60.9038 Y-44.4284
G1 X60.8289 Y-44.4839
G1 X60.8032 Y-44.5020
G1 X60.7901 Y-44.5106
G1 X60.6967 Y-44.5668
G1 X60.6694 Y-44.5823
G1 X60.6554 Y-44.5895
G1 X60.5428 Y-44.6428
G1 X60.5283 Y-44.6490
G1 X60.4990 Y-44.6603
G1 X60.4112 Y-44.6917
G1 X60.3814 Y-44.7015
G1 X60.3511 Y-44.7099
G1 X60.2607 Y-44.7326
G1 X60.2301 Y-44.7394
G1 X60.2146 Y-44.7423
G1 X60.0913 Y-44.7606
G1 X60.0601 Y-44.7637
G1 X60.0444 Y-44.7647
G1 X59.9513 Y-44.7692
G1 X59.9199 Y-44.7700
G1 X59.8885 Y-44.7692
G1 X59.7953 Y-44.7647
G1 X59.7640 Y-44.7623
G1 X59.7328 Y-44.7585
G1 X59.6406 Y-44.7448
G1 X59.6097 Y-44.7394
G1 X59.5790 Y-44.7326
G1 X59.4734 Y-44.7059
G1 X59.4583 Y-44.7015
G1 X59.4285 Y-44.6917
G1 X59.3260 Y-44.6548
G1 X59.3114 Y-44.6490
G1 X59.2827 Y-44.6362
G1 X59.1984 Y-44.5964
G1 X59.1703 Y-44.5823
G1 X59.1430 Y-44.5668
G1 X59.0630 Y-44.5188
G1 X59.0497 Y-44.5106
G1 X59.0236 Y-44.4932
G1 X58.9234 Y-44.4189
G1 X58.8992 Y-44.3990
G1 X58.8874 Y-44.3886
G1 X58.8079 Y-44.3163
G1 X58.8079 Y-49.2309
G1 X58.8296 Y-49.2256
G1 X58.8450 Y-49.2223
G1 X58.8760 Y-49.2169
G1 X58.8915 Y-49.2148
G1 X58.9228 Y-49.2117
G1 X58.9385 Y-49.2108
G1 X58.9699 Y-49.2100
G1 X60.8699 Y-49.2100
G1 X60.9013 Y-49.2108
G1 X60.9326 Y-49.2131
G1 X60.9638 Y-49.2169
G1 X60.9793 Y-49.2194
G1 X61.0101 Y-49.2256
G1 X61.0406 Y-49.2332
G1 X61.0556 Y-49.2376
G1 X61.0706 Y-49.2423
G1 X61.1002 Y-49.2529
G1 X61.1292 Y-49.2649
G1 X61.1435 Y-49.2714
G1 X61.1576 Y-49.2783
G1 X61.1853 Y-49.2931
G1 X61.1989 Y-49.3011
G1 X61.2254 Y-49.3179
G1 X61.2511 Y-49.3359
G1 X61.2678 Y-49.3488
G1 X61.2678 Y-44.0217
G0 Z2.0000
G0 X61.0878 Y-44.5088
F500
G1 Z0.0000 F500
F500
G1 X61.0581 Y-44.5353
G1 X61.0270 Y-44.5608
G1 X60.9361 Y-44.6285
G1 X60.9198 Y-44.6403
G1 X60.8863 Y-44.6627
G1 X60.7893 Y-44.7212
G1 X60.7542 Y-44.7410
G1 X60.7183 Y-44.7591
G1 X60.6340 Y-44.7990
G1 X60.5972 Y-44.8153
G1 X60.5597 Y-44.8298
G1 X60.4719 Y-44.8612
G1 X60.4337 Y-44.8738
G1 X60.3949 Y-44.8845
G1 X60.3044 Y-44.9072
G1 X60.2652 Y-44.9160
G1 X60.2255 Y-44.9229
G1 X60.1134 Y-44.9393
G1 X60.0733 Y-44.9432
G1 X59.9601 Y-44.9490
G1 X59.9199 Y-44.9500
G1 X59.8796 Y-44.9490
G1 X59.7664 Y-44.9432
G1 X59.7264 Y-44.9393
G1 X59.6142 Y-44.9229
G1 X59.5746 Y-44.9160
G1 X59.5353 Y-44.9072
G1 X59.4448 Y-44.8845
G1 X59.4061 Y-44.8738
G1 X59.3678 Y-44.8612
G1 X59.2801 Y-44.8298
G1 X59.2425 Y-44.8153
G1 X59.2057 Y-44.7990
G1 X59.1034 Y-44.7503
G1 X59.0679 Y-44.7313
G1 X58.9879 Y-44.6837
G1 X58.9879 Y-49.0300
G1 X60.8900 Y-49.0302
G1 X60.9302 Y-49.0322
G1 X60.9502 Y-49.0339
G1 X60.9902 Y-49.0389
G1 X61.0298 Y-49.0458
G1 X61.0495 Y-49.0499
G1 X61.0878 Y-49.0595
G1 X61.0878 Y-44.5088
G0 Z2.0000
G0 X61.6278 Y-50.2199
F500
G1 Z0.0000 F500
F500
G1 X61.1499 Y-50.2199
G1 X61.1498 Y-49.8431
G1 X61.1485 Y-49.8226
G1 X61.1457 Y-49.8021
G1 X61.1415 Y-49.7820
G1 X61.1357 Y-49.7622
G1 X61.1285 Y-49.7428
G1 X61.1200 Y-49.7241
G1 X61.1135 Y-49.7120
G1 X61.1027 Y-49.6944
G1 X61.0906 Y-49.6777
G1 X61.0819 Y-49.6671
G1 X61.0678 Y-49.6520
G1 X61.0579 Y-49.6425
G1 X61.0421 Y-49.6293
G1 X61.0311 Y-49.6211
G1 X61.0197 Y-49.6134
G1 X61.0019 Y-49.6031
G1 X60.9833 Y-49.5940
G1 X60.9642 Y-49.5864
G1 X60.9511 Y-49.5821
G1 X60.9312 Y-49.5768
G1 X60.9177 Y-49.5741
G1 X60.9041 Y-49.5721
G1 X60.8836 Y-49.5703
G1 X60.8699 Y-49.5700
G1 X58.9630 Y-49.5701
G1 X58.9493 Y-49.5708
G1 X58.9288 Y-49.5730
G1 X58.9085 Y-49.5768
G1 X58.8952 Y-49.5801
G1 X58.8820 Y-49.5841
G1 X58.8627 Y-49.5913
G1 X58.8501 Y-49.5969
G1 X58.8379 Y-49.6031
G1 X58.8201 Y-49.6134
G1 X58.8086 Y-49.6211
G1 X58.7976 Y-49.6293
G1 X58.7818 Y-49.6425
G1 X58.7671 Y-49.6569
G1 X58.7534 Y-49.6724
G1 X58.7409 Y-49.6888
G1 X58.7333 Y-49.7002
G1 X58.7229 Y-49.7180
G1 X58.7167 Y-49.7303
G1 X58.7112 Y-49.7428
G1 X58.7040 Y-49.7622
G1 X58.7000 Y-49.7753
G1 X58.6952 Y-49.7954
G1 X58.6929 Y-49.8089
G1 X58.6906 Y-49.8294
G1 X58.6899 Y-49.8500
G1 X58.6899 Y-51.7500
G1 X58.6906 Y-51.7706
G1 X58.6920 Y-51.7843
G1 X58.6940 Y-51.7979
G1 X58.6967 Y-51.8113
G1 X58.7019 Y-51.8313
G1 X58.7086 Y-51.8508
G1 X58.7139 Y-51.8635
G1 X58.7198 Y-51.8759
G1 X58.7262 Y-51.8880
G1 X58.7333 Y-51.8998
G1 X58.7450 Y-51.9168
G1 X58.7578 Y-51.9329
G1 X58.7719 Y-51.9480
G1 X58.7870 Y-51.9620
G1 X58.7976 Y-51.9707
G1 X58.8086 Y-51.9789
G1 X58.8259 Y-51.9902
G1 X58.8379 Y-51.9969
G1 X58.8501 Y-52.0031
G1 X58.8691 Y-52.0112
G1 X58.8820 Y-52.0159
G1 X58.8952 Y-52.0199
G1 X58.9085 Y-52.0232
G1 X58.9220 Y-52.0259
G1 X58.9424 Y-52.0287
G1 X58.9561 Y-52.0297
G1 X58.9699 Y-52.0300
G1 X60.8699 Y-52.0300
G1 X60.8836 Y-52.0297
G1 X60.9041 Y-52.0279
G1 X60.9245 Y-52.0246
G1 X60.9445 Y-52.0199
G1 X60.9642 Y-52.0136
G1 X60.9770 Y-52.0087
G1 X60.9958 Y-52.0001
G1 X61.0138 Y-51.9902
G1 X61.0311 Y-51.9789
G1 X61.0421 Y-51.9707
G1 X61.0579 Y-51.9575
G1 X61.0726 Y-51.9431
G1 X61.0819 Y-51.9329
G1 X61.0948 Y-51.9168
G1 X61.1064 Y-51.8998
G1 X61.1135 Y-51.8880
G1 X61.1230 Y-51.8697
G1 X61.1311 Y-51.8508
G1 X61.1357 Y-51.8378
G1 X61.1397 Y-51.8247
G1 X61.1445 Y-51.8046
G1 X61.1478 Y-51.7843
G1 X61.1495 Y-51.7637
G1 X61.1499 Y-51.7500
G1 X61.1499 Y-51.3802
G1 X61.7298 Y-51.3801
G1 X62.8751 Y-52.5254
G1 X62.8751 Y-61.4250
G1 X61.3803 Y-62.9199
G1 X61.1499 Y-62.9199
G1 X61.1498 Y-62.5431
G1 X61.1485 Y-62.5226
G1 X61.1457 Y-62.5021
G1 X61.1415 Y-62.4820
G1 X61.1357 Y-62.4622
G1 X61.1285 Y-62.4428
G1 X61.1200 Y-62.4241
G1 X61.1135 Y-62.4120
G1 X61.1027 Y-62.3944
G1 X61.0906 Y-62.3777
G1 X61.0819 Y-62.3671
G1 X61.0678 Y-62.3520
G1 X61.0579 Y-62.3425
G1 X61.0421 Y-62.3293
G1 X61.0311 Y-62.3211
G1 X61.0197 Y-62.3134
G1 X61.0019 Y-62.3031
G1 X60.9833 Y-62.2940
G1 X60.9642 Y-62.2864
G1 X60.9511 Y-62.2821
G1 X60.9312 Y-62.2768
G1 X60.9177 Y-62.2741
G1 X60.9041 Y-62.2721
G1 X60.8836 Y-62.2703
G1 X60.8699 Y-62.2700
G1 X58.9630 Y-62.2701
G1 X58.9424 Y-62.2713
G1 X58.9220 Y-62.2741
G1 X58.9085 Y-62.2768
G1 X58.8952 Y-62.2801
G1 X58.8755 Y-62.2864
G1 X58.8564 Y-62.2940
G1 X58.8440 Y-62.2999
G1 X58.8318 Y-62.3064
G1 X58.8143 Y-62.3172
G1 X58.8031 Y-62.3251
G1 X58.7922 Y-62.3336
G1 X58.7818 Y-62.3425
G1 X58.7719 Y-62.3520
G1 X58.7624 Y-62.3620
G1 X58.7534 Y-62.3724
G1 X58.7409 Y-62.3888
G1 X58.7333 Y-62.4002
G1 X58.7262 Y-62.4120
G1 X58.7198 Y-62.4241
G1 X58.7139 Y-62.4365
G1 X58.7086 Y-62.4492
G1 X58.7019 Y-62.4687
G1 X58.6983 Y-62.4820
G1 X58.6952 Y-62.4954
G1 X58.6929 Y-62.5089
G1 X58.6912 Y-62.5226
G1 X58.6902 Y-62.5363
G1 X58.6899 Y-62.5500
G1 X58.6899 Y-64.4500
G1 X58.6902 Y-64.4637
G1 X58.6920 Y-64.4843
G1 X58.6940 Y-64.4979
G1 X58.6967 Y-64.5113
G1 X58.7000 Y-64.5247
G1 X58.7040 Y-64.5378
G1 X58.7112 Y-64.5572
G1 X58.7167 Y-64.5697
G1 X58.7229 Y-64.5820
G1 X58.7333 Y-64.5998
G1 X58.7450 Y-64.6168
G1 X58.7578 Y-64.6329
G1 X58.7671 Y-64.6431
G1 X58.7768 Y-64.6528
G1 X58.7922 Y-64.6664
G1 X58.8031 Y-64.6749
G1 X58.8143 Y-64.6828
G1 X58.8318 Y-64.6936
G1 X58.8501 Y-64.7031
G1 X58.8627 Y-64.7087
G1 X58.8755 Y-64.7136
G1 X58.8952 Y-64.7199
G1 X58.9152 Y-64.7246
G1 X58.9288 Y-64.7270
G1 X58.9424 Y-64.7287
G1 X58.9561 Y-64.7297
G1 X58.9699 Y-64.7300
G1 X60.8767 Y-64.7299
G1 X60.8973 Y-64.7287
G1 X60.9177 Y-64.7259
G1 X60.9312 Y-64.7232
G1 X60.9511 Y-64.7179
G1 X60.9642 Y-64.7136
G1 X60.9833 Y-64.7060
G1 X60.9958 Y-64.7001
G1 X61.0138 Y-64.6902
G1 X61.0254 Y-64.6828
G1 X61.0367 Y-64.6749
G1 X61.0475 Y-64.6664
G1 X61.0579 Y-64.6575
G1 X61.0678 Y-64.6480
G1 X61.0773 Y-64.6380
G1 X61.0863 Y-64.6276
G1 X61.0948 Y-64.6168
G1 X61.1027 Y-64.6056
G1 X61.1100 Y-64.5939
G1 X61.1168 Y-64.5820
G1 X61.1230 Y-64.5697
G1 X61.1285 Y-64.5572
G1 X61.1357 Y-64.5378
G1 X61.1397 Y-64.5247
G1 X61.1431 Y-64.5113
G1 X61.1457 Y-64.4979
G1 X61.1478 Y-64.4843
G1 X61.1491 Y-64.4706
G1 X61.1498 Y-64.4569
G1 X61.1499 Y-64.0802
G1 X61.6275 Y-64.0801
G1 X61.6638 Y-64.0784
G1 X61.6775 Y-64.0774
G1 X61.7203 Y-64.0714
G1 X61.7406 Y-64.0676
G1 X61.7758 Y-64.0588
G1 X61.7891 Y-64.0552
G1 X61.8298 Y-64.0409
G1 X61.8490 Y-64.0333
G1 X61.8819 Y-64.0178
G1 X61.8941 Y-64.0116
G1 X61.9314 Y-63.9897
G1 X61.9486 Y-63.9785
G1 X61.9779 Y-63.9569
G1 X61.9887 Y-63.9485
G1 X61.9991 Y-63.9395
G1 X62.0308 Y-63.9103
G1 X63.8655 Y-62.0756
G1 X63.8750 Y-62.0656
G1 X63.9038 Y-62.0334
G1 X63.9122 Y-62.0226
G1 X63.9377 Y-61.9877
G1 X63.9602 Y-61.9508
G1 X63.9669 Y-61.9388
G1 X63.9857 Y-61.8999
G1 X63.9913 Y-61.8874
G1 X63.9962 Y-61.8745
G1 X64.0084 Y-61.8403
G1 X64.0124 Y-61.8272
G1 X64.0213 Y-61.7919
G1 X64.0243 Y-61.7785
G1 X64.0310 Y-61.7359
G1 X64.0326 Y-61.7222
G1 X64.0337 Y-61.7085
G1 X64.0354 Y-61.6653
G1 X64.0354 Y-52.2851
G1 X64.0337 Y-52.2420
G1 X64.0319 Y-52.2214
G1 X64.0266 Y-52.1855
G1 X64.0243 Y-52.1719
G1 X64.0141 Y-52.1300
G1 X64.0084 Y-52.1102
G1 X63.9962 Y-52.0759
G1 X63.9913 Y-52.0631
G1 X63.9857 Y-52.0506
G1 X63.9669 Y-52.0116
G1 X63.9450 Y-51.9744
G1 X63.9377 Y-51.9628
G1 X63.9298 Y-51.9516
G1 X63.9080 Y-51.9225
G1 X63.8993 Y-51.9118
G1 X63.8750 Y-51.8849
G1 X63.8655 Y-51.8749
G1 X62.7523 Y-50.7617
G1 X62.7610 Y-50.7372
G1 X62.7650 Y-50.7241
G1 X62.7739 Y-50.6888
G1 X62.7782 Y-50.6687
G1 X62.7836 Y-50.6328
G1 X62.7853 Y-50.6191
G1 X62.7863 Y-50.6054
G1 X62.7880 Y-50.5622
G1 X62.7880 Y-38.3377
G1 X62.7863 Y-38.2946
G1 X62.7845 Y-38.2740
G1 X62.7793 Y-38.2381
G1 X62.7769 Y-38.2246
G1 X62.7739 Y-38.2111
G1 X62.7650 Y-38.1759
G1 X62.7610 Y-38.1628
G1 X62.7488 Y-38.1285
G1 X62.7439 Y-38.1157
G1 X62.7383 Y-38.1032
G1 X62.7195 Y-38.0643
G1 X62.6976 Y-38.0270
G1 X62.6903 Y-38.0154
G1 X62.6648 Y-37.9805
G1 X62.6564 Y-37.9697
G1 X62.6276 Y-37.9375
G1 X62.6181 Y-37.9275
G1 X60.7403 Y-36.0497
G1 X62.6196 Y-34.1704
G1 X62.6291 Y-34.1604
G1 X62.6579 Y-34.1282
G1 X62.6663 Y-34.1174
G1 X62.6879 Y-34.0881
G1 X62.6955 Y-34.0767
G1 X62.7143 Y-34.0456
G1 X62.7211 Y-34.0336
G1 X62.7272 Y-34.0214
G1 X62.7454 Y-33.9822
G1 X62.7603 Y-33.9416
G1 X62.7646 Y-33.9286
G1 X62.7683 Y-33.9153
G1 X62.7784 Y-33.8733
G1 X62.7851 Y-33.8307
G1 X62.7874 Y-33.8102
G1 X62.7892 Y-33.7739
G1 X62.7896 Y-33.7601
G1 X62.7896 Y-25.6403
G1 X63.8668 Y-24.5631
G1 X63.8763 Y-24.5531
G1 X63.9006 Y-24.5262
G1 X63.9093 Y-24.5155
G1 X63.9310 Y-24.4864
G1 X63.9389 Y-24.4752
G1 X63.9463 Y-24.4636
G1 X63.9682 Y-24.4263
G1 X63.9744 Y-24.4141
G1 X63.9925 Y-24.3749
G1 X64.0074 Y-24.3343
G1 X64.0117 Y-24.3213
G1 X64.0154 Y-24.3080
G1 X64.0241 Y-24.2728
G1 X64.0268 Y-24.2593
G1 X64.0322 Y-24.2234
G1 X64.0339 Y-24.2097
G1 X64.0349 Y-24.1960
G1 X64.0367 Y-24.1529
G1 X64.0367 Y-14.1864
G1 X64.0364 Y-14.1727
G1 X64.0339 Y-14.1295
G1 X64.0279 Y-14.0868
G1 X64.0256 Y-14.0732
G1 X64.0226 Y-14.0598
G1 X64.0117 Y-14.0180
G1 X63.9975 Y-13.9772
G1 X63.9898 Y-13.9581
G1 X63.9744 Y-13.9252
G1 X63.9682 Y-13.9129
G1 X63.9614 Y-13.9010
G1 X63.9389 Y-13.8641
G1 X63.9135 Y-13.8292
G1 X63.9050 Y-13.8184
G1 X63.8763 Y-13.7861
G1 X63.8668 Y-13.7762
G1 X62.3804 Y-12.2898
G1 X62.3704 Y-12.2803
G1 X62.3382 Y-12.2515
G1 X62.3037 Y-12.2255
G1 X62.2867 Y-12.2139
G1 X62.2496 Y-12.1917
G1 X62.2314 Y-12.1822
G1 X62.1922 Y-12.1640
G1 X62.1516 Y-12.1491
G1 X62.1320 Y-12.1429
G1 X62.0967 Y-12.1340
G1 X62.0833 Y-12.1310
G1 X62.0407 Y-12.1243
G1 X62.0202 Y-12.1221
G1 X61.9839 Y-12.1202
G1 X61.9701 Y-12.1199
G1 X61.1499 Y-12.1199
G1 X61.1498 Y-11.7431
G1 X61.1491 Y-11.7294
G1 X61.1468 Y-11.7089
G1 X61.1431 Y-11.6887
G1 X61.1378 Y-11.6687
G1 X61.1335 Y-11.6557
G1 X61.1258 Y-11.6365
G1 X61.1200 Y-11.6241
G1 X61.1100 Y-11.6061
G1 X61.1027 Y-11.5944
G1 X61.0906 Y-11.5777
G1 X61.0773 Y-11.5620
G1 X61.0678 Y-11.5520
G1 X61.0579 Y-11.5425
G1 X61.0421 Y-11.5293
G1 X61.0254 Y-11.5172
G1 X61.0138 Y-11.5098
G1 X60.9958 Y-11.4999
G1 X60.9833 Y-11.4940
G1 X60.9706 Y-11.4888
G1 X60.9511 Y-11.4821
G1 X60.9312 Y-11.4768
G1 X60.9109 Y-11.4730
G1 X60.8905 Y-11.4708
G1 X60.8699 Y-11.4700
G1 X58.9699 Y-11.4700
G1 X58.9561 Y-11.4703
G1 X58.9424 Y-11.4713
G1 X58.9288 Y-11.4730
G1 X58.9085 Y-11.4768
G1 X58.8952 Y-11.4801
G1 X58.8755 Y-11.4864
G1 X58.8564 Y-11.4940
G1 X58.8379 Y-11.5031
G1 X58.8201 Y-11.5134
G1 X58.8086 Y-11.5211
G1 X58.7976 Y-11.5293
G1 X58.7818 Y-11.5425
G1 X58.7671 Y-11.5569
G1 X58.7534 Y-11.5724
G1 X58.7409 Y-11.5888
G1 X58.7333 Y-11.6002
G1 X58.7229 Y-11.6180
G1 X58.7167 Y-11.6303
G1 X58.7112 Y-11.6428
G1 X58.7040 Y-11.6622
G1 X58.6983 Y-11.6820
G1 X58.6940 Y-11.7021
G1 X58.6912 Y-11.7226
G1 X58.6899 Y-11.7431
G1 X58.6899 Y-12.1198
G1 X58.1099 Y-12.1199
G1 X50.6598 Y-4.6698
G1 X50.6280 Y-4.6405
G1 X50.6176 Y-4.6315
G1 X50.6068 Y-4.6231
G1 X50.5719 Y-4.5976
G1 X50.5350 Y-4.5751
G1 X50.5231 Y-4.5684
G1 X50.5108 Y-4.5622
G1 X50.4779 Y-4.5467
G1 X50.4588 Y-4.5391
G1 X50.4180 Y-4.5248
G1 X50.4047 Y-4.5212
G1 X50.3628 Y-4.5110
G1 X50.3201 Y-4.5043
G1 X50.3064 Y-4.5026
G1 X50.2927 Y-4.5016
G1 X50.2496 Y-4.4999
G1 X43.2073 Y-4.4999
G1 X43.2073 Y-4.2926
G1 X43.2065 Y-4.2720
G1 X43.2042 Y-4.2515
G1 X43.2019 Y-4.2380
G1 X43.1989 Y-4.2246
G1 X43.1931 Y-4.2048
G1 X43.1885 Y-4.1918
G1 X43.1832 Y-4.1791
G1 X43.1742 Y-4.1606
G1 X43.1674 Y-4.1487
G1 X43.1601 Y-4.1370
G1 X43.1522 Y-4.1258
G1 X43.1393 Y-4.1097
G1 X43.1300 Y-4.0995
G1 X43.1203 Y-4.0898
G1 X43.1049 Y-4.0762
G1 X43.0941 Y-4.0677
G1 X43.0828 Y-4.0598
G1 X43.0653 Y-4.0490
G1 X43.0532 Y-4.0425
G1 X43.0407 Y-4.0366
G1 X43.0216 Y-4.0290
G1 X43.0085 Y-4.0247
G1 X42.9886 Y-4.0194
G1 X42.9751 Y-4.0167
G1 X42.9547 Y-4.0139
G1 X42.9410 Y-4.0129
G1 X42.9273 Y-4.0126
G1 X41.3525 Y-4.0126
G1 X41.3387 Y-4.0129
G1 X41.3250 Y-4.0139
G1 X41.3114 Y-4.0156
G1 X41.2978 Y-4.0180
G1 X41.2778 Y-4.0227
G1 X41.2646 Y-4.0267
G1 X41.2517 Y-4.0314
G1 X41.2390 Y-4.0366
G1 X41.2205 Y-4.0457
G1 X41.2027 Y-4.0560
G1 X41.1857 Y-4.0677
G1 X41.1748 Y-4.0762
G1 X41.1594 Y-4.0898
G1 X41.1497 Y-4.0995
G1 X41.1360 Y-4.1150
G1 X41.1276 Y-4.1258
G1 X41.1159 Y-4.1428
G1 X41.1055 Y-4.1606
G1 X41.0965 Y-4.1791
G1 X41.0912 Y-4.1918
G1 X41.0845 Y-4.2113
G1 X41.0793 Y-4.2313
G1 X41.0766 Y-4.2447
G1 X41.0738 Y-4.2652
G1 X41.0728 Y-4.2789
G1 X41.0725 Y-4.2926
G1 X41.0725 Y-5.8743
G1 X41.0738 Y-5.8948
G1 X41.0755 Y-5.9085
G1 X41.0778 Y-5.9220
G1 X41.0826 Y-5.9421
G1 X41.0866 Y-5.9552
G1 X41.0912 Y-5.9682
G1 X41.0993 Y-5.9871
G1 X41.1055 Y-5.9994
G1 X41.1123 Y-6.0113
G1 X41.1196 Y-6.0230
G1 X41.1276 Y-6.0342
G1 X41.1404 Y-6.0503
G1 X41.1545 Y-6.0654
G1 X41.1644 Y-6.0749
G1 X41.1748 Y-6.0838
G1 X41.1912 Y-6.0963
G1 X41.2027 Y-6.1040
G1 X41.2144 Y-6.1110
G1 X41.2327 Y-6.1205
G1 X41.2453 Y-6.1261
G1 X41.2581 Y-6.1310
G1 X41.2778 Y-6.1373
G1 X41.2911 Y-6.1406
G1 X41.3046 Y-6.1433
G1 X41.3250 Y-6.1461
G1 X41.3387 Y-6.1471
G1 X41.3525 Y-6.1474
G1 X42.9273 Y-6.1474
G1 X42.9410 Y-6.1471
G1 X42.9615 Y-6.1453
G1 X42.9751 Y-6.1433
G1 X42.9953 Y-6.1390
G1 X43.0151 Y-6.1333
G1 X43.0280 Y-6.1286
G1 X43.0407 Y-6.1234
G1 X43.0532 Y-6.1175
G1 X43.0653 Y-6.1110
G1 X43.0828 Y-6.1002
G1 X43.0941 Y-6.0923
G1 X43.1049 Y-6.0838
G1 X43.1153 Y-6.0749
G1 X43.1300 Y-6.0605
G1 X43.1393 Y-6.0503
G1 X43.1522 Y-6.0342
G1 X43.1638 Y-6.0172
G1 X43.1709 Y-6.0054
G1 X43.1774 Y-5.9933
G1 X43.1832 Y-5.9809
G1 X43.1885 Y-5.9682
G1 X43.1931 Y-5.9552
G1 X43.1989 Y-5.9354
G1 X43.2031 Y-5.9153
G1 X43.2052 Y-5.9017
G1 X43.2065 Y-5.8880
G1 X43.2073 Y-5.8674
G1 X43.2073 Y-5.6602
G1 X50.0093 Y-5.6601
G1 X57.4594 Y-13.1102
G1 X57.4911 Y-13.1395
G1 X57.5015 Y-13.1485
G1 X57.5124 Y-13.1569
G1 X57.5473 Y-13.1824
G1 X57.5589 Y-13.1897
G1 X57.5901 Y-13.2083
G1 X57.6084 Y-13.2178
G1 X57.6476 Y-13.2360
G1 X57.6881 Y-13.2509
G1 X57.7078 Y-13.2571
G1 X57.7430 Y-13.2660
G1 X57.7564 Y-13.2690
G1 X57.7991 Y-13.2757
G1 X57.8196 Y-13.2779
G1 X57.8558 Y-13.2798
G1 X57.8696 Y-13.2801
G1 X58.6899 Y-13.2801
G1 X58.6899 Y-13.6500
G1 X58.6902 Y-13.6637
G1 X58.6920 Y-13.6843
G1 X58.6940 Y-13.6979
G1 X58.6967 Y-13.7113
G1 X58.7000 Y-13.7247
G1 X58.7040 Y-13.7378
G1 X58.7112 Y-13.7572
G1 X58.7198 Y-13.7759
G1 X58.7297 Y-13.7939
G1 X58.7409 Y-13.8112
G1 X58.7534 Y-13.8276
G1 X58.7671 Y-13.8431
G1 X58.7818 Y-13.8575
G1 X58.7976 Y-13.8707
G1 X58.8143 Y-13.8828
G1 X58.8318 Y-13.8936
G1 X58.8440 Y-13.9001
G1 X58.8627 Y-13.9087
G1 X58.8820 Y-13.9159
G1 X58.9018 Y-13.9216
G1 X58.9220 Y-13.9259
G1 X58.9424 Y-13.9287
G1 X58.9630 Y-13.9299
G1 X60.8699 Y-13.9300
G1 X60.8836 Y-13.9297
G1 X60.8973 Y-13.9287
G1 X60.9109 Y-13.9270
G1 X60.9312 Y-13.9232
G1 X60.9445 Y-13.9199
G1 X60.9642 Y-13.9136
G1 X60.9833 Y-13.9060
G1 X61.0019 Y-13.8969
G1 X61.0197 Y-13.8866
G1 X61.0311 Y-13.8789
G1 X61.0421 Y-13.8707
G1 X61.0579 Y-13.8575
G1 X61.0726 Y-13.8431
G1 X61.0863 Y-13.8276
G1 X61.0988 Y-13.8112
G1 X61.1064 Y-13.7998
G1 X61.1168 Y-13.7820
G1 X61.1230 Y-13.7697
G1 X61.1285 Y-13.7572
G1 X61.1357 Y-13.7378
G1 X61.1415 Y-13.7180
G1 X61.1457 Y-13.6979
G1 X61.1485 Y-13.6774
G1 X61.1498 Y-13.6569
G1 X61.1499 Y-13.2802
G1 X61.7298 Y-13.2801
G1 X62.8764 Y-14.4267
G1 X62.8764 Y-23.9126
G1 X61.9691 Y-24.8199
G1 X61.1499 Y-24.8199
G1 X61.1499 Y-24.4500
G1 X61.1495 Y-24.4363
G1 X61.1478 Y-24.4157
G1 X61.1445 Y-24.3954
G1 X61.1397 Y-24.3753
G1 X61.1357 Y-24.3622
G1 X61.1311 Y-24.3492
G1 X61.1230 Y-24.3303
G1 X61.1135 Y-24.3120
G1 X61.1027 Y-24.2944
G1 X61.0948 Y-24.2832
G1 X61.0863 Y-24.2724
G1 X61.0726 Y-24.2569
G1 X61.0579 Y-24.2425
G1 X61.0421 Y-24.2293
G1 X61.0254 Y-24.2172
G1 X61.0138 Y-24.2098
G1 X60.9958 Y-24.1999
G1 X60.9770 Y-24.1913
G1 X60.9577 Y-24.1841
G1 X60.9379 Y-24.1784
G1 X60.9245 Y-24.1754
G1 X60.9041 Y-24.1721
G1 X60.8905 Y-24.1708
G1 X60.8699 Y-24.1700
G1 X58.9699 Y-24.1700
G1 X58.9493 Y-24.1708
G1 X58.9356 Y-24.1721
G1 X58.9152 Y-24.1754
G1 X58.9018 Y-24.1784
G1 X58.8886 Y-24.1821
G1 X58.8691 Y-24.1888
G1 X58.8564 Y-24.1940
G1 X58.8440 Y-24.1999
G1 X58.8259 Y-24.2098
G1 X58.8143 Y-24.2172
G1 X58.8031 Y-24.2251
G1 X58.7922 Y-24.2336
G1 X58.7818 Y-24.2425
G1 X58.7719 Y-24.2520
G1 X58.7624 Y-24.2620
G1 X58.7491 Y-24.2777
G1 X58.7409 Y-24.2888
G1 X58.7333 Y-24.3002
G1 X58.7262 Y-24.3120
G1 X58.7198 Y-24.3241
G1 X58.7112 Y-24.3428
G1 X58.7062 Y-24.3557
G1 X58.7019 Y-24.3687
G1 X58.6967 Y-24.3887
G1 X58.6940 Y-24.4021
G1 X58.6920 Y-24.4157
G1 X58.6906 Y-24.4294
G1 X58.6899 Y-24.4431
G1 X58.6899 Y-26.3500
G1 X58.6906 Y-26.3706
G1 X58.6929 Y-26.3911
G1 X58.6952 Y-26.4046
G1 X58.7000 Y-26.4247
G1 X58.7040 Y-26.4378
G1 X58.7112 Y-26.4572
G1 X58.7198 Y-26.4759
G1 X58.7262 Y-26.4880
G1 X58.7370 Y-26.5056
G1 X58.7491 Y-26.5223
G1 X58.7578 Y-26.5329
G1 X58.7719 Y-26.5480
G1 X58.7818 Y-26.5575
G1 X58.7976 Y-26.5707
G1 X58.8086 Y-26.5789
G1 X58.8259 Y-26.5902
G1 X58.8379 Y-26.5969
G1 X58.8501 Y-26.6031
G1 X58.8691 Y-26.6112
G1 X58.8820 Y-26.6159
G1 X58.8952 Y-26.6199
G1 X58.9152 Y-26.6246
G1 X58.9288 Y-26.6270
G1 X58.9424 Y-26.6287
G1 X58.9630 Y-26.6299
G1 X60.8699 Y-26.6300
G1 X60.8836 Y-26.6297
G1 X60.8973 Y-26.6287
G1 X60.9177 Y-26.6259
G1 X60.9312 Y-26.6232
G1 X60.9511 Y-26.6179
G1 X60.9706 Y-26.6112
G1 X60.9896 Y-26.6031
G1 X61.0019 Y-26.5969
G1 X61.0197 Y-26.5866
G1 X61.0311 Y-26.5789
G1 X61.0421 Y-26.5707
G1 X61.0579 Y-26.5575
G1 X61.0726 Y-26.5431
G1 X61.0863 Y-26.5276
G1 X61.0948 Y-26.5168
G1 X61.1064 Y-26.4998
G1 X61.1168 Y-26.4820
G1 X61.1230 Y-26.4697
G1 X61.1285 Y-26.4572
G1 X61.1357 Y-26.4378
G1 X61.1415 Y-26.4180
G1 X61.1457 Y-26.3979
G1 X61.1485 Y-26.3774
G1 X61.1498 Y-26.3569
G1 X61.1499 Y-25.9802
G1 X61.6293 Y-25.9801
G1 X61.6293 Y-33.5198
G1 X59.5096 Y-35.6395
G1 X59.4804 Y-35.6713
G1 X59.4714 Y-35.6817
G1 X59.4629 Y-35.6925
G1 X59.4375 Y-35.7274
G1 X59.4301 Y-35.7390
G1 X59.4115 Y-35.7702
G1 X59.4020 Y-35.7885
G1 X59.3839 Y-35.8277
G1 X59.3690 Y-35.8683
G1 X59.3628 Y-35.8879
G1 X59.3539 Y-35.9231
G1 X59.3509 Y-35.9365
G1 X59.3442 Y-35.9792
G1 X59.3419 Y-35.9997
G1 X59.3400 Y-36.0360
G1 X59.3397 Y-36.0497
G1 X59.3397 Y-36.8700
G1 X58.9699 Y-36.8700
G1 X58.9561 Y-36.8703
G1 X58.9356 Y-36.8721
G1 X58.9220 Y-36.8741
G1 X58.9085 Y-36.8768
G1 X58.8952 Y-36.8801
G1 X58.8820 Y-36.8841
G1 X58.8691 Y-36.8888
G1 X58.8564 Y-36.8940
G1 X58.8379 Y-36.9031
G1 X58.8201 Y-36.9134
G1 X58.8031 Y-36.9251
G1 X58.7870 Y-36.9380
G1 X58.7719 Y-36.9520
G1 X58.7578 Y-36.9671
G1 X58.7450 Y-36.9832
G1 X58.7333 Y-37.0002
G1 X58.7229 Y-37.0180
G1 X58.7139 Y-37.0365
G1 X58.7062 Y-37.0557
G1 X58.7019 Y-37.0687
G1 X58.6967 Y-37.0887
G1 X58.6929 Y-37.1089
G1 X58.6906 Y-37.1294
G1 X58.6899 Y-37.1500
G1 X58.6899 Y-39.0500
G1 X58.6906 Y-39.0706
G1 X58.6929 Y-39.0911
G1 X58.6952 Y-39.1046
G1 X58.7000 Y-39.1247
G1 X58.7040 Y-39.1378
G1 X58.7112 Y-39.1572
G1 X58.7167 Y-39.1697
G1 X58.7262 Y-39.1880
G1 X58.7370 Y-39.2056
G1 X58.7491 Y-39.2223
G1 X58.7578 Y-39.2329
G1 X58.7719 Y-39.2480
G1 X58.7870 Y-39.2620
G1 X58.8031 Y-39.2749
G1 X58.8143 Y-39.2828
G1 X58.8318 Y-39.2936
G1 X58.8501 Y-39.3031
G1 X58.8627 Y-39.3087
G1 X58.8820 Y-39.3159
G1 X58.8952 Y-39.3199
G1 X58.9085 Y-39.3232
G1 X58.9220 Y-39.3259
G1 X58.9356 Y-39.3279
G1 X58.9493 Y-39.3292
G1 X58.9630 Y-39.3299
G1 X60.8699 Y-39.3300
G1 X60.8905 Y-39.3292
G1 X60.9041 Y-39.3279
G1 X60.9177 Y-39.3259
G1 X60.9379 Y-39.3216
G1 X60.9577 Y-39.3159
G1 X60.9706 Y-39.3112
G1 X60.9833 Y-39.3060
G1 X61.0019 Y-39.2969
G1 X61.0138 Y-39.2902
G1 X61.0311 Y-39.2789
G1 X61.0421 Y-39.2707
G1 X61.0579 Y-39.2575
G1 X61.0678 Y-39.2480
G1 X61.0773 Y-39.2380
G1 X61.0906 Y-39.2223
G1 X61.0988 Y-39.2112
G1 X61.1064 Y-39.1998
G1 X61.1168 Y-39.1820
G1 X61.1258 Y-39.1635
G1 X61.1311 Y-39.1508
G1 X61.1357 Y-39.1378
G1 X61.1415 Y-39.1180
G1 X61.1457 Y-39.0979
G1 X61.1478 Y-39.0843
G1 X61.1491 Y-39.0706
G1 X61.1499 Y-39.0500
G1 X61.1499 Y-38.1002
G1 X61.6278 Y-38.5780
G1 X61.6278 Y-50.2199
G0 Z2.0000
G0 X62.5322 Y-50.7961
F500
G1 Z0.0000 F500
F500
G1 X62.5420 Y-50.7825
G1 X62.5619 Y-50.7487
G1 X62.5776 Y-50.7154
G1 X62.5901 Y-50.6807
G1 X62.5993 Y-50.6451
G1 X62.6012 Y-50.6355
