(G-CODE GENERATED BY FLATCAM v8.994 - www.flatcam.org - Version Date: 2020/11/7)

(Name: Gerber_BoardOutlineLayer.GKO_iso_combined_cnc)
(Type: G-code from Geometry)
(Units: MM)

(Created on Friday, 28 April 2023 at 16:27)

/TOOL DIAMETER = ДИАМЕТР ИНСТРУМЕНТА: 0.8 mm
/Feedrate_XY = подача XY: 300.0 mm/min
/Feedrate_Z = подача Z: 500.0 mm/min
/Feedrate rapids = быстрая подача1500.0 mm/min

/Z_Cut = проходы по Z: -1.1 mm
/DepthPerCut = углубиться за проход: 0.5 mm <=>3 passes
/Z_Move: 2.0 mm
/Z Start: None mm
/Z End: 15.0 mm
/X,Y End: None mm
(Steps per circle: 64)
/Steps per circle: 64
/Preprocessor Geometry: Charly4U

/X range:   -0.5271 ...   65.5269  mm
/Y range:  -85.5269 ...    0.5271  mm

/Скорость шпинделя: 20000.0 RPM
G71 / измерения в мм
G90 / программирование в абсолютных координатах

F300
/Tool switching while working is not supported! = Смена инструмента в процессе работы не поддерживается!
M3 S20000.0
F300
G0 X64.4728 Y-0.5271
F500
G1 Z-0.5000 F500
F300
G1 X0.5271 Y-0.5271
G1 X0.5271 Y-84.4728
G1 X64.4728 Y-84.4728
G1 X64.4728 Y-0.5271
G0 X64.4728 Y-0.5271
F500
G1 Z-1.0000 F500
F300
G1 X0.5271 Y-0.5271
G1 X0.5271 Y-84.4728
G1 X64.4728 Y-84.4728
G1 X64.4728 Y-0.5271
G0 X64.4728 Y-0.5271
F500
G1 Z-1.1000 F500
F300
G1 X0.5271 Y-0.5271
G1 X0.5271 Y-84.4728
G1 X64.4728 Y-84.4728
G1 X64.4728 Y-0.5271
G0 Z2.0000
G0 X65.5269 Y-0.0000
F500
G1 Z-0.5000 F500
F300
G1 X65.5264 Y0.0196
G1 X65.5244 Y0.0517
G1 X65.5213 Y0.0758
G1 X65.5168 Y0.1028
G1 X65.5101 Y0.1316
G1 X65.5042 Y0.1530
G1 X65.4949 Y0.1805
G1 X65.4868 Y0.2017
G1 X65.4760 Y0.2257
G1 X65.4647 Y0.2485
G1 X65.4529 Y0.2691
G1 X65.4381 Y0.2928
G1 X65.4243 Y0.3123
G1 X65.4073 Y0.3344
G1 X65.3907 Y0.3533
G1 X65.3726 Y0.3727
G1 X65.3533 Y0.3908
G1 X65.3342 Y0.4074
G1 X65.3126 Y0.4241
G1 X65.2927 Y0.4382
G1 X65.2710 Y0.4518
G1 X65.2483 Y0.4648
G1 X65.2266 Y0.4756
G1 X65.2016 Y0.4869
G1 X65.1784 Y0.4957
G1 X65.1529 Y0.5044
G1 X65.1283 Y0.5110
G1 X65.1027 Y0.5169
G1 X65.0773 Y0.5212
G1 X65.0515 Y0.5245
G1 X65.0255 Y0.5263
G1 X64.9999 Y0.5271
G1 X0.0000 Y0.5271
G1 X-0.0196 Y0.5266
G1 X-0.0517 Y0.5245
G1 X-0.0835 Y0.5203
G1 X-0.1124 Y0.5149
G1 X-0.1436 Y0.5071
G1 X-0.1716 Y0.4982
G1 X-0.2017 Y0.4869
G1 X-0.2309 Y0.4737
G1 X-0.2571 Y0.4601
G1 X-0.2846 Y0.4436
G1 X-0.3089 Y0.4269
G1 X-0.3344 Y0.4074
G1 X-0.3585 Y0.3862
G1 X-0.3727 Y0.3727
G1 X-0.3946 Y0.3492
G1 X-0.4136 Y0.3267
G1 X-0.4269 Y0.3089
G1 X-0.4382 Y0.2928
G1 X-0.4552 Y0.2655
G1 X-0.4648 Y0.2485
G1 X-0.4737 Y0.2309
G1 X-0.4831 Y0.2107
G1 X-0.4906 Y0.1926
G1 X-0.4982 Y0.1716
G1 X-0.5044 Y0.1530
G1 X-0.5096 Y0.1341
G1 X-0.5149 Y0.1124
G1 X-0.5187 Y0.0932
G1 X-0.5221 Y0.0711
G1 X-0.5245 Y0.0517
G1 X-0.5266 Y0.0196
G1 X-0.5271 Y-0.0000
G1 X-0.5271 Y-84.9998
G1 X-0.5266 Y-85.0195
G1 X-0.5245 Y-85.0515
G1 X-0.5203 Y-85.0833
G1 X-0.5149 Y-85.1123
G1 X-0.5071 Y-85.1434
G1 X-0.4982 Y-85.1715
G1 X-0.4869 Y-85.2015
G1 X-0.4737 Y-85.2307
G1 X-0.4601 Y-85.2569
G1 X-0.4436 Y-85.2844
G1 X-0.4269 Y-85.3087
G1 X-0.4074 Y-85.3342
G1 X-0.3862 Y-85.3583
G1 X-0.3727 Y-85.3725
G1 X-0.3492 Y-85.3944
G1 X-0.3267 Y-85.4134
G1 X-0.3089 Y-85.4268
G1 X-0.2928 Y-85.4381
G1 X-0.2655 Y-85.4550
G1 X-0.2485 Y-85.4647
G1 X-0.2309 Y-85.4735
G1 X-0.2107 Y-85.4829
G1 X-0.1926 Y-85.4904
G1 X-0.1716 Y-85.4980
G1 X-0.1530 Y-85.5042
G1 X-0.1341 Y-85.5094
G1 X-0.1124 Y-85.5147
G1 X-0.0932 Y-85.5186
G1 X-0.0711 Y-85.5220
G1 X-0.0517 Y-85.5244
G1 X-0.0196 Y-85.5264
G1 X0.0000 Y-85.5269
G1 X64.9999 Y-85.5269
G1 X65.0195 Y-85.5264
G1 X65.0515 Y-85.5244
G1 X65.0833 Y-85.5201
G1 X65.1123 Y-85.5147
G1 X65.1434 Y-85.5069
G1 X65.1715 Y-85.4980
G1 X65.2016 Y-85.4868
G1 X65.2308 Y-85.4735
G1 X65.2569 Y-85.4599
G1 X65.2845 Y-85.4434
G1 X65.3087 Y-85.4268
G1 X65.3342 Y-85.4073
G1 X65.3491 Y-85.3944
G1 X65.3726 Y-85.3725
G1 X65.3945 Y-85.3491
G1 X65.4134 Y-85.3265
G1 X65.4268 Y-85.3087
G1 X65.4381 Y-85.2927
G1 X65.4486 Y-85.2761
G1 X65.4647 Y-85.2483
G1 X65.4735 Y-85.2307
G1 X65.4829 Y-85.2106
G1 X65.4904 Y-85.1924
G1 X65.4981 Y-85.1715
G1 X65.5042 Y-85.1528
G1 X65.5095 Y-85.1339
G1 X65.5148 Y-85.1123
G1 X65.5186 Y-85.0930
G1 X65.5220 Y-85.0710
G1 X65.5244 Y-85.0515
G1 X65.5264 Y-85.0195
G1 X65.5269 Y-84.9998
G1 X65.5269 Y-0.0000
G0 X65.5269 Y-0.0000
F500
G1 Z-1.0000 F500
F300
G1 X65.5264 Y0.0196
G1 X65.5244 Y0.0517
G1 X65.5213 Y0.0758
G1 X65.5168 Y0.1028
G1 X65.5101 Y0.1316
G1 X65.5042 Y0.1530
G1 X65.4949 Y0.1805
G1 X65.4868 Y0.2017
G1 X65.4760 Y0.2257
G1 X65.4647 Y0.2485
G1 X65.4529 Y0.2691
G1 X65.4381 Y0.2928
G1 X65.4243 Y0.3123
G1 X65.4073 Y0.3344
G1 X65.3907 Y0.3533
G1 X65.3726 Y0.3727
G1 X65.3533 Y0.3908
G1 X65.3342 Y0.4074
G1 X65.3126 Y0.4241
G1 X65.2927 Y0.4382
G1 X65.2710 Y0.4518
G1 X65.2483 Y0.4648
G1 X65.2266 Y0.4756
G1 X65.2016 Y0.4869
G1 X65.1784 Y0.4957
G1 X65.1529 Y0.5044
G1 X65.1283 Y0.5110
G1 X65.1027 Y0.5169
G1 X65.0773 Y0.5212
G1 X65.0515 Y0.5245
G1 X65.0255 Y0.5263
G1 X64.9999 Y0.5271
G1 X0.0000 Y0.5271
G1 X-0.0196 Y0.5266
G1 X-0.0517 Y0.5245
G1 X-0.0835 Y0.5203
G1 X-0.1124 Y0.5149
G1 X-0.1436 Y0.5071
G1 X-0.1716 Y0.4982
G1 X-0.2017 Y0.4869
G1 X-0.2309 Y0.4737
G1 X-0.2571 Y0.4601
G1 X-0.2846 Y0.4436
G1 X-0.3089 Y0.4269
G1 X-0.3344 Y0.4074
G1 X-0.3585 Y0.3862
G1 X-0.3727 Y0.3727
G1 X-0.3946 Y0.3492
G1 X-0.4136 Y0.3267
G1 X-0.4269 Y0.3089
G1 X-0.4382 Y0.2928
G1 X-0.4552 Y0.2655
G1 X-0.4648 Y0.2485
G1 X-0.4737 Y0.2309
G1 X-0.4831 Y0.2107
G1 X-0.4906 Y0.1926
G1 X-0.4982 Y0.1716
G1 X-0.5044 Y0.1530
G1 X-0.5096 Y0.1341
G1 X-0.5149 Y0.1124
G1 X-0.5187 Y0.0932
G1 X-0.5221 Y0.0711
G1 X-0.5245 Y0.0517
G1 X-0.5266 Y0.0196
G1 X-0.5271 Y-0.0000
G1 X-0.5271 Y-84.9998
G1 X-0.5266 Y-85.0195
G1 X-0.5245 Y-85.0515
G1 X-0.5203 Y-85.0833
G1 X-0.5149 Y-85.1123
G1 X-0.5071 Y-85.1434
G1 X-0.4982 Y-85.1715
G1 X-0.4869 Y-85.2015
G1 X-0.4737 Y-85.2307
G1 X-0.4601 Y-85.2569
G1 X-0.4436 Y-85.2844
G1 X-0.4269 Y-85.3087
G1 X-0.4074 Y-85.3342
G1 X-0.3862 Y-85.3583
G1 X-0.3727 Y-85.3725
G1 X-0.3492 Y-85.3944
G1 X-0.3267 Y-85.4134
G1 X-0.3089 Y-85.4268
G1 X-0.2928 Y-85.4381
G1 X-0.2655 Y-85.4550
G1 X-0.2485 Y-85.4647
G1 X-0.2309 Y-85.4735
G1 X-0.2107 Y-85.4829
G1 X-0.1926 Y-85.4904
G1 X-0.1716 Y-85.4980
G1 X-0.1530 Y-85.5042
G1 X-0.1341 Y-85.5094
G1 X-0.1124 Y-85.5147
G1 X-0.0932 Y-85.5186
G1 X-0.0711 Y-85.5220
G1 X-0.0517 Y-85.5244
G1 X-0.0196 Y-85.5264
G1 X0.0000 Y-85.5269
G1 X64.9999 Y-85.5269
G1 X65.0195 Y-85.5264
G1 X65.0515 Y-85.5244
G1 X65.0833 Y-85.5201
G1 X65.1123 Y-85.5147
G1 X65.1434 Y-85.5069
G1 X65.1715 Y-85.4980
G1 X65.2016 Y-85.4868
G1 X65.2308 Y-85.4735
G1 X65.2569 Y-85.4599
G1 X65.2845 Y-85.4434
G1 X65.3087 Y-85.4268
G1 X65.3342 Y-85.4073
G1 X65.3491 Y-85.3944
G1 X65.3726 Y-85.3725
G1 X65.3945 Y-85.3491
G1 X65.4134 Y-85.3265
G1 X65.4268 Y-85.3087
G1 X65.4381 Y-85.2927
G1 X65.4486 Y-85.2761
G1 X65.4647 Y-85.2483
G1 X65.4735 Y-85.2307
G1 X65.4829 Y-85.2106
G1 X65.4904 Y-85.1924
G1 X65.4981 Y-85.1715
G1 X65.5042 Y-85.1528
G1 X65.5095 Y-85.1339
G1 X65.5148 Y-85.1123
G1 X65.5186 Y-85.0930
G1 X65.5220 Y-85.0710
G1 X65.5244 Y-85.0515
G1 X65.5264 Y-85.0195
G1 X65.5269 Y-84.9998
G1 X65.5269 Y-0.0000
G0 X65.5269 Y-0.0000
F500
G1 Z-1.1000 F500
F300
G1 X65.5264 Y0.0196
G1 X65.5244 Y0.0517
G1 X65.5213 Y0.0758
G1 X65.5168 Y0.1028
G1 X65.5101 Y0.1316
G1 X65.5042 Y0.1530
G1 X65.4949 Y0.1805
G1 X65.4868 Y0.2017
G1 X65.4760 Y0.2257
G1 X65.4647 Y0.2485
G1 X65.4529 Y0.2691
G1 X65.4381 Y0.2928
G1 X65.4243 Y0.3123
G1 X65.4073 Y0.3344
G1 X65.3907 Y0.3533
G1 X65.3726 Y0.3727
G1 X65.3533 Y0.3908
G1 X65.3342 Y0.4074
G1 X65.3126 Y0.4241
G1 X65.2927 Y0.4382
G1 X65.2710 Y0.4518
G1 X65.2483 Y0.4648
G1 X65.2266 Y0.4756
G1 X65.2016 Y0.4869
G1 X65.1784 Y0.4957
G1 X65.1529 Y0.5044
G1 X65.1283 Y0.5110
G1 X65.1027 Y0.5169
G1 X65.0773 Y0.5212
G1 X65.0515 Y0.5245
G1 X65.0255 Y0.5263
G1 X64.9999 Y0.5271
G1 X0.0000 Y0.5271
G1 X-0.0196 Y0.5266
G1 X-0.0517 Y0.5245
G1 X-0.0835 Y0.5203
G1 X-0.1124 Y0.5149
G1 X-0.1436 Y0.5071
G1 X-0.1716 Y0.4982
G1 X-0.2017 Y0.4869
G1 X-0.2309 Y0.4737
G1 X-0.2571 Y0.4601
G1 X-0.2846 Y0.4436
G1 X-0.3089 Y0.4269
G1 X-0.3344 Y0.4074
G1 X-0.3585 Y0.3862
G1 X-0.3727 Y0.3727
G1 X-0.3946 Y0.3492
G1 X-0.4136 Y0.3267
G1 X-0.4269 Y0.3089
G1 X-0.4382 Y0.2928
G1 X-0.4552 Y0.2655
G1 X-0.4648 Y0.2485
G1 X-0.4737 Y0.2309
G1 X-0.4831 Y0.2107
G1 X-0.4906 Y0.1926
G1 X-0.4982 Y0.1716
G1 X-0.5044 Y0.1530
G1 X-0.5096 Y0.1341
G1 X-0.5149 Y0.1124
G1 X-0.5187 Y0.0932
G1 X-0.5221 Y0.0711
G1 X-0.5245 Y0.0517
G1 X-0.5266 Y0.0196
G1 X-0.5271 Y-0.0000
G1 X-0.5271 Y-84.9998
G1 X-0.5266 Y-85.0195
G1 X-0.5245 Y-85.0515
G1 X-0.5203 Y-85.0833
G1 X-0.5149 Y-85.1123
G1 X-0.5071 Y-85.1434
G1 X-0.4982 Y-85.1715
G1 X-0.4869 Y-85.2015
G1 X-0.4737 Y-85.2307
G1 X-0.4601 Y-85.2569
G1 X-0.4436 Y-85.2844
G1 X-0.4269 Y-85.3087
G1 X-0.4074 Y-85.3342
G1 X-0.3862 Y-85.3583
G1 X-0.3727 Y-85.3725
G1 X-0.3492 Y-85.3944
G1 X-0.3267 Y-85.4134
G1 X-0.3089 Y-85.4268
G1 X-0.2928 Y-85.4381
G1 X-0.2655 Y-85.4550
G1 X-0.2485 Y-85.4647
G1 X-0.2309 Y-85.4735
G1 X-0.2107 Y-85.4829
G1 X-0.1926 Y-85.4904
G1 X-0.1716 Y-85.4980
G1 X-0.1530 Y-85.5042
G1 X-0.1341 Y-85.5094
G1 X-0.1124 Y-85.5147
G1 X-0.0932 Y-85.5186
G1 X-0.0711 Y-85.5220
G1 X-0.0517 Y-85.5244
G1 X-0.0196 Y-85.5264
G1 X0.0000 Y-85.5269
G1 X64.9999 Y-85.5269
G1 X65.0195 Y-85.5264
G1 X65.0515 Y-85.5244
G1 X65.0833 Y-85.5201
G1 X65.1123 Y-85.5147
G1 X65.1434 Y-85.5069
G1 X65.1715 Y-85.4980
G1 X65.2016 Y-85.4868
G1 X65.2308 Y-85.4735
G1 X65.2569 Y-85.4599
G1 X65.2845 Y-85.4434
G1 X65.3087 Y-85.4268
G1 X65.3342 Y-85.4073
G1 X65.3491 Y-85.3944
G1 X65.3726 Y-85.3725
G1 X65.3945 Y-85.3491
G1 X65.4134 Y-85.3265
G1 X65.4268 Y-85.3087
G1 X65.4381 Y-85.2927
G1 X65.4486 Y-85.2761
G1 X65.4647 Y-85.2483
G1 X65.4735 Y-85.2307
G1 X65.4829 Y-85.2106
G1 X65.4904 Y-85.1924
G1 X65.4981 Y-85.1715
G1 X65.5042 Y-85.1528
G1 X65.5095 Y-85.1339
G1 X65.5148 Y-85.1123
G1 X65.5186 Y-85.0930
G1 X65.5220 Y-85.0710
G1 X65.5244 Y-85.0515
G1 X65.5264 Y-85.0195
G1 X65.5269 Y-84.9998
G1 X65.5269 Y-0.0000
G0 Z2.0000
M5 / выключение шпинделя
G0 Z2.0000
G0 Z15.00 X0 Y0


